dlisjak-bit/sensor_synchronization/realtime_sync/robot_reference.csv
t,q0,q1,q2,q3,q4,q5,qd0,qd1,qd2,qd3,qd4,qd5,ss,f0,f1,f2,f3,f4,f5,tsf,do
7538.431,-0.02092044885069999, -1.8699987731921972, -1.4130954569371532, -1.4294898892540626, 1.570937451373913, 2.384170715621821,-0.401909542590445, 0.48701395834917444, -0.6447339894215528, 0.15763152751502849, 0.0010149811473511494, -0.40094323560689477,1.0,-8789.371860008861, -2845.818455975904, 21693.345291053323, -76.87136551644844, 222.29910523434017, 38.20638927449511,1.0,769
7538.455,-0.021494662762332695, -1.869303742454571, -1.4140153253234509, -1.4292651780922014, 1.570938900257699, 2.3835978803963385,-0.4026272600449447, 0.4868000545543401, -0.6441021982027425, 0.15721342523362758, 0.001015063288150679, -0.40166187670454684,1.0,-8789.861331044844, -2844.9821064733487, 21693.5740151335, -76.91452915397579, 222.29144185912605, 38.317357587338535,1.0,769
7538.463,-0.02185897044769547, -1.868863583406827, -1.414597615340469, -1.4291231274139893, 1.5709398182175356, 2.3832344454567904,-0.403082313114417, 0.4866636084952518, -0.6437008959079221, 0.15694843262061825, 0.0010151131607650213, -0.4021175159965702,1.0,-8789.444702249963, -2844.3289765190366, 21693.827880753313, -76.9465559902381, 222.3199051685462, 38.39577041014641,1.0,769
7538.471,-0.022309990495588572, -1.8683195166987003, -1.4153170896880356, -1.4289478192216283, 1.5709409532967344, 2.3827845037882365,-0.4036453539082156, 0.4864938951375295, -0.6432035771137586, 0.15662065835317032, 0.001015172469004048, -0.4026812827189374,1.0,-8790.107492128524, -2843.8119331420776, 21693.71234934531, -76.95306562923341, 222.30012022299212, 38.40311925190741,1.0,769
7538.478999999999,-0.022847942826691003, -1.867671823026055, -1.4161732025425637, -1.4287395187202012, 1.5709423051742972, 2.382247834665141,-0.4043164482691874, 0.48629032762816315, -0.642609682434981, 0.1562301297521325, 0.001015239709315158, -0.4033532432013665,1.0,-8790.53352586073, -2844.865761094182, 21693.736119974426, -76.9319600545127, 222.2686560306218, 38.38643088616442,1.0,769
7538.487,-0.023473089820687854, -1.8669208368238346, -1.4171653044905739, -1.4284985409806383, 1.5709438734664896, 2.3816241747510376,-0.4050956721480101, 0.48605220476252253, -0.641918544961707, 0.15577688096321957, 0.0010153130889799743, -0.40413347397040705,1.0,-8790.215328353359, -2844.983704845532, 21693.907212321887, -76.92891169161686, 222.27690913659154, 38.38892451433844,1.0,769
7538.495,-0.024185736479756414, -1.8660669462449722, -1.4182926430491207, -1.4282252504404802, 1.5709456577261849, 2.380913217936314,-0.40598311021215905, 0.4857787100076357, -0.6411293901300457, 0.15526095388863023, 0.0010153904728115815, -0.405022060407869,1.0,-8789.46372612361, -2844.609615310238, 21694.03167251677, -76.93180342587678, 222.30372861961962, 38.385997961840275,1.0,769
7538.5109999999995,-0.025874963072963553, -1.864052273049536, -1.4209495083668564, -1.4275834320040088, 1.5709498720380044, 2.379227974150565,-0.40808300220914084, 0.48512175522859763, -0.6392533907403659, 0.15404127598546058, 0.0010155473414540333, -0.4071246765982288,1.0,-8789.90301564581, -2843.4488221876636, 21693.53965769329, -76.95625444586568, 222.29110338229816, 38.390823316778466,1.0,769
7538.518999999999,-0.026852367949168787, -1.8628925351827235, -1.4224770205338553, -1.4272158742422878, 1.5709523008715074, 2.3782528592827434,-0.409295654250879, 0.48473607475583735, -0.6381644573149994, 0.15333765638245223, 0.0010156210789773862, -0.4083389061924683,1.0,-8789.889992016908, -2844.050559072335, 21693.562894246632, -76.95246377921063, 222.28704755215915, 38.391326842610425,1.0,769
7538.527,-0.027916772353069774, -1.8616345189229415, -1.4241324056280922, -1.4268187414870788, 1.570954937913701, 2.377190936744207,-0.41061425042211874, 0.48431144139093085, -0.6369757332404224, 0.15257316620205374, 0.0010156872081196124, -0.40965922140911526,1.0,-8788.639589904691, -2843.8770695293697, 21693.972196227656, -76.95738904522884, 222.35399416744275, 38.39138315539415,1.0,769
7538.535,-0.029010116335832947, -1.860347645531454, -1.4258240701569065, -1.4264141931363703, 1.5709576380169417, 2.376100129192025,-0.41196651334899576, 0.48387025557704555, -0.6357515997886083, 0.15178980824479843, 0.001015740118590115, -0.41101325209550127,1.0,-8789.7681032182, -2845.447771173617, 21694.289955197128, -76.92596712102318, 222.315646656306, 38.397009573656106,1.0,769
7538.543,-0.03010567452512536, -1.8590635717815935, -1.4275103471243806, -1.4260122334908987, 1.5709603348394283, 2.3750070995422057,-0.41331927592433565, 0.4834230991650019, -0.6345218675953481, 0.1510068209308108, 0.001015777230942399, -0.4123677862241256,1.0,-8789.72902164569, -2847.90759138684, 21694.11908106492, -76.84650666538309, 222.3032027856408, 38.3862327758992,1.0,769
7538.5509999999995,-0.031203450172591296, -1.8577822976963363, -1.4291912467689833, -1.4256128522916232, 1.5709630283667706, 2.3739118445680076,-0.41467250902314096, 0.48296995236665174, -0.6332865347015909, 0.1502242222997601, 0.0010157988124584259, -0.4137227955095813,1.0,-8790.471014343157, -2845.2624776918465, 21693.240526365364, -76.93302285954988, 222.27943405823288, 38.390631535165795,1.0,769
7538.558999999999,-0.03230344663878615, -1.8565038232305868, -1.4308667794081096, -1.4252160392686566, 1.5709657185847965, 2.3728143609338317,-0.41602618356040877, 0.4825107957833249, -0.6320455995768427, 0.1494420302207658, 0.0010158047988761147, -0.41507825086886835,1.0,-8790.786281958384, -2845.9376206199813, 21693.21651685924, -76.91249996309395, 222.27010140834545, 38.39374948009004,1.0,769
7538.567,-0.03340566727092398, -1.855228148414561, -1.432536955249903, -1.4248217841860447, 1.5709684054792403, 2.3717146453173066,-0.41738027023905544, 0.4820456102362028, -0.6307990610200338, 0.14866026267606272, 0.0010157951348311513, -0.41643412293513093,1.0,-8790.5208827803, -2847.2354541924697, 21693.580317385917, -76.86588792487242, 222.28832671164565, 38.38778811733641,1.0,769
7538.575,-0.034510115402683894, -1.8539552733532094, -1.434201784394416, -1.4244300768411993, 1.570971089035728, 2.370612694409501,-0.4187347395260818, 0.4815743767484059, -0.629546918130149, 0.14787893773695432, 0.0010157697580335757, -0.4177903821676954,1.0,-8790.199362633895, -2847.2646489695626, 21693.579282079805, -76.8662459107266, 222.29652837923857, 38.384311757855386,1.0,769
7538.583,-0.035616794354025316, -1.8526851982256423, -1.4358612768347596, -1.424040907064315, 1.570973769239779, 2.369508504915069,-0.4200895616522098, 0.48109707656214284, -0.6282891703361424, 0.1470980736156407, 0.0010157286045207909, -0.41914699878026723,1.0,-8790.21097870117, -2845.5048177978615, 21693.599397053502, -76.91080755786697, 222.3074810884329, 38.38502100587684,1.0,769
7538.590999999999,-0.03672570743099168, -1.85141792328454, -1.437515442458265, -1.4236542647177775, 1.5709764460768025, 2.368402073552482,-0.42144470664947237, 0.4806136911408809, -0.6270258173809883, 0.14631768858408692, 0.0010156716202233114, -0.4205039427655248,1.0,-8789.0427455518, -2846.4478835084137, 21693.878440935914, -76.88927429225558, 222.34599106151796, 38.37387148323043,1.0,769
7538.615,-0.040065884263412066, -1.8476329031989902, -1.4424460757372142, -1.4225094013560513, 1.5709844562383222, 2.365069295651752,-0.4255117758139963, 0.4791268415040015, -0.6232021298957581, 0.1439795923871597, 0.0010154050723818996, -0.4245764355401461,1.0,-8789.588049924605, -2846.719032865234, 21693.893875883114, -76.87824729604156, 222.30523317817165, 38.38126671801973,1.0,769
7538.638999999999,-0.04342628586810626, -1.8438731008354274, -1.447329113683642, -1.42138692289162, 1.5709924355615785, 2.3617162241689464,-0.429580650745566, 0.4775845794374437, -0.6193280181958176, 0.14164647578283365, 0.0010149938961575662, -0.4286507734180715,1.0,-8790.610780840865, -2846.9444242890995, 21693.412496432597, -76.87089411716178, 222.26757746308198, 38.37851142761676,1.0,769
7538.647,-0.044550929184589805, -1.8426254403390931, -1.4489462597786575, -1.4210176912962895, 1.57099508841233, 2.3605940090471713,-0.4309371982614271, 0.4770580976989814, -0.6180254495109598, 0.14086996462145018, 0.0010148244277165786, -0.4300091505190663,1.0,-8789.625996399418, -2846.9512228755084, 21694.029967940638, -76.88024220924862, 222.3168200057462, 38.39007747610151,1.0,769
7538.655,-0.04567783255097346, -1.8413805846332725, -1.450558154478145, -1.4206509071252782, 1.5709977377756634, 2.359469526325491,-0.43229382110212783, 0.4765253908434492, -0.616717285488814, 0.1400940822980354, 0.001014638669108861, -0.43136760716489886,1.0,-8789.182571247942, -2846.838680323325, 21694.223396194044, -76.8872226776848, 222.338418709143, 38.39584924362953,1.0,769
7538.663,-0.046806999139312744, -1.8401385346081565, -1.452164806766044, -1.4202865605068524, 1.5710003836360598, 2.3583427728554853,-0.4336504873754661, 0.47598644249706307, -0.6154035288802816, 0.13931884796235794, 0.001014436549002303, -0.4327261114384439,1.0,-8789.954287503297, -2846.3876872354585, 21693.87183044814, -76.89056614725308, 222.2992601211763, 38.38385947774492,1.0,769
7538.670999999999,-0.04793843210578075, -1.8388992912221314, -1.4537662255310666, -1.4199246415963405, 1.571003025977921, 2.3572137455044984,-0.4350071650183268, 0.47544123653651854, -0.6140841827573464, 0.13854428079066097, 0.001014218026835226, -0.43408463125590935,1.0,-8790.137885883092, -2846.1065852586, 21693.84680832593, -76.89727293060841, 222.28263174589625, 38.382393089831396,1.0,769
7538.679,-0.04907213459045323, -1.837662855501227, -1.4553624195677504, -1.41956514057558, 1.5710056647855364, 2.3560824411559107,-0.43636382174428384, 0.47488975711123727, -0.6127592505614224, 0.13777040009984107, 0.0010139830392574697, -0.43544313430077514,1.0,-8789.505663844246, -2846.188241411259, 21694.260352979298, -76.88769419572276, 222.31197753595745, 38.39469688207109,1.0,769
7538.687,-0.05020810971711409, -1.8364292285386368, -1.4569533975773794, -1.4192080476525195, 1.5710083000431045, 2.354948856709298,-0.4377204250905888, 0.4743319886384313, -0.6114287360764841, 0.13699722525711627, 0.0010137315324611497, -0.43680158806140973,1.0,-8790.342633623894, -2846.140258876325, 21694.007080863044, -76.90566278008583, 222.29590791315667, 38.3947064837123,1.0,769
7538.695,-0.051346360593037765, -1.8351984114941784, -1.4585391681690094, -1.4188533530606842, 1.5710109317347185, 2.353812989080638,-0.43907694239606415, 0.47376791580148137, -0.6100926434320714, 0.1362247757164747, 0.0010134634558690743, -0.4381599598504309,1.0,-8790.38174737092, -2845.552051053748, 21693.576693770567, -76.91039968958916, 222.28259345444502, 38.386522707073794,1.0,769
7538.7029999999995,-0.052486890308787615, -1.8339704055938206, -1.460119739860371, -1.4185010470587907, 1.5710135598443784, 2.352674835202578,-0.44043334080273916, 0.4731975235631215, -0.6087509771180859, 0.13545307102239315, 0.0010131787513722567, -0.4395182167786262,1.0,-8790.483585945978, -2845.6219617972747, 21693.496241252982, -76.9189556746066, 222.27694553773955, 38.392575484603896,1.0,769
7538.710999999999,-0.05362970193800365, -1.8327452121291747, -1.46169512107884, -1.4181511199302719, 1.5710161843559882, 2.3515343920245653,-0.44178958730122064, 0.4726207971648208, -0.6074037419669802, 0.1346821307392587, 0.0010128773773950932, -0.44087632576831354,1.0,-8789.674533339947, -2846.5124483913705, 21694.09124286712, -76.88985864705387, 222.31084532057736, 38.394311203508124,1.0,769
7538.719,-0.05477479853719025, -1.8315228324569883, -1.463265320162371, -1.4178035619828284, 1.5710188052533507, 2.350391656513077,-0.4431456486458626, 0.4720377221276961, -0.6060509431807027, 0.1339119745883882, 0.001012559271552605, -0.4422342535693888,1.0,-8789.098053161342, -2846.6353476071545, 21694.085931097183, -76.87468807739026, 222.32630570227286, 38.39372558636569,1.0,769
7538.7429999999995,-0.058223828458159765, -1.827872590729613, -1.467944906660767, -1.4167750066591793, 1.5710266460965572, 2.3469496659031432,-0.4472123869135724, 0.47025026473318776, -0.6019592223293325, 0.13160640869985, 0.001011504078138091, -0.4463066145720062,1.0,-8790.031844936402, -2846.441547245141, 21693.62281686099, -76.9034510276233, 222.3065219242252, 38.39285944455847,1.0,769
7538.767,-0.06169353145344214, -1.8242477281290839, -1.4725781457175406, -1.4157674272843543, 1.5710344538193253, 2.3434869367680053,-0.45127624591070786, 0.46840517633957746, -0.5978176503321129, 0.12930861498631605, 0.0010102965228706163, -0.4503761305816237,1.0,-8790.671954248513, -2846.316651185134, 21693.55263773547, -76.902046579656, 222.28345284235303, 38.39347680054101,1.0,769
7538.775,-0.06285470694049344, -1.8230450883632514, -1.4741122959982285, -1.4154361841709786, 1.5710370489554644, 2.3423280714616723,-0.45263006624624524, 0.46777728000649377, -0.5964260818388387, 0.1285445044558719, 0.0010098599224392531, -0.45173184401716493,1.0,-8789.68083421575, -2846.7619243260588, 21693.842911030548, -76.87967759858435, 222.31541767986545, 38.38468672106893,1.0,769
7538.782999999999,-0.06401819120703678, -1.8218452755309906, -1.4756413277366125, -1.4151072335241768, 1.5710396403443707, 2.3411668901935627,-0.45398342941641856, 0.46714292984331196, -0.5950290042957912, 0.12778133786968945, 0.001009406202538177, -0.4530871039334754,1.0,-8790.408530072766, -2846.1782538758416, 21693.728750148563, -76.89257579733092, 222.31359386811152, 38.394105380789995,1.0,769
7538.790999999999,-0.06518398714568541, -1.8206482915536961, -1.477165248506017, -1.4147805658516255, 1.5710422279689997, 2.3400033900933357,-0.4553363006674502, 0.46650211408456693, -0.5936264261846043, 0.12701913550338914, 0.0010089353134282739, -0.4544418755461591,1.0,-8790.603928998322, -2846.7649525831766, 21693.396938891437, -76.89150402557308, 222.29075458092018, 38.3822744953319,1.0,769
7538.799,-0.06635209762974181, -1.8194541384131568, -1.4786840657990847, -1.414456171681291, 1.571044811812216, 2.3388375683099345,-0.45668864511218116, 0.46585482128226524, -0.5922183563484908, 0.12625791764568892, 0.0010084472160431816, -0.4557961239233477,1.0,-8790.106339624666, -2846.610868612517, 21693.82108887124, -76.87852703568151, 222.31258926170347, 38.392036456831875,1.0,769
7538.807,-0.0675225255129801, -1.8182628181510925, -1.4801977870286054, -1.4141340415610575, 1.5710473918567929, 2.3376694220117353,-0.45804042770226583, 0.46520104031355797, -0.5908048040108405, 0.12549770465623156, 0.0010079418633838302, -0.4571498139761609,1.0,-8789.503153984522, -2846.5646515335247, 21694.16063040999, -76.89340077467463, 222.3403239227892, 38.39346465328694,1.0,769
7538.815,-0.06869527362941419, -1.8170743328687031, -1.4817064195283116, -1.4138141660583896, 1.5710499680854126, 2.3364989483868186,-0.4593916132523054, 0.46454076038029596, -0.5893857787633116, 0.12473851692241822, 0.0010074192090323351, -0.45850291047368325,1.0,-8789.784900379875, -2846.5988920682885, 21693.840771078747, -76.88582954884887, 222.33058500170085, 38.38720370204484,1.0,769
7538.830999999999,-0.07104774179777973, -1.8147058759424146, -1.4847084472828271, -1.413181141271294, 1.5710551090250553, 2.334151008008904,-0.46209205172790074, 0.46320066208324023, -0.5865313498072422, 0.12322329909152888, 0.0010063218319194978, -0.46120718115204096,1.0,-8790.664603486674, -2846.8540243823536, 21693.96519608589, -76.87279104281785, 222.30508432638715, 38.38353314070176,1.0,769
7538.847,-0.0734095244031936, -1.8123487856162939, -1.4876902061818669, -1.412557022237868, 1.5710602344908107, 2.3317937250831973,-0.46478967620082506, 0.46183444666032053, -0.5836551537610398, 0.12171242822502615, 0.0010051547503749435, -0.4639086512911357,1.0,-8790.184185392547, -2846.465878875433, 21694.243474764648, -76.89696327272873, 222.33154999911193, 38.39526113915284,1.0,769
7538.871,-0.07696971077713588, -1.8088345041058842, -1.492124962392321, -1.4116373784482077, 1.5710678933654272, 2.3282402359020247,-0.46883020944920334, 0.4597359929163264, -0.5793002456886363, 0.1194546329275659, 0.001003272727804689, -0.46795497752039716,1.0,-8790.035209488024, -2845.5941941790843, 21693.72634570001, -76.90482051290482, 222.3053108021034, 38.398185485123406,1.0,769
7538.879,-0.0781611203376551, -1.807668781293148, -1.493593139843135, -1.4113352025500667, 1.5710704384322287, 2.327051044871834,-0.47017533524855537, 0.45902337280800054, -0.5778378278477146, 0.11870438673636191, 0.0010026101934302342, -0.46930204068430725,1.0,-8789.21950753023, -2846.427792577966, 21694.38305854365, -76.89577270997574, 222.34220825462046, 38.39102720188242,1.0,769
7538.887,-0.07935487471074865, -1.806505914973508, -1.49505629114012, -1.4110351972015192, 1.5710729795232121, 2.3258595021312773,-0.4715195412356252, 0.4583041717941293, -0.576370040472145, 0.11795535121525291, 0.001001929994944151, -0.4706481871325463,1.0,-8789.780773932911, -2846.1646404383864, 21693.844759384992, -76.88660390694722, 222.32822306405387, 38.393342838120304,1.0,769
7538.8949999999995,-0.08055097652024212, -1.8053459078184506, -1.4965144228692138, -1.4107373531475034, 1.5710755166201806, 2.324665605078019,-0.47286279094988515, 0.45757838251456273, -0.5748968969395571, 0.11720754709715328, 0.0010012321023900575, -0.4719933803746147,1.0,-8790.788335354, -2846.139002119966, 21693.735249327678, -76.88700127609533, 222.29625952162922, 38.40451503942458,1.0,769
7538.902999999999,-0.08174942836765542, -1.8041887625540944, -1.4979675415456617, -1.4104416611490205, 1.5710780497048515, 2.3234693511318767,-0.47420504782851425, 0.45684599797944814, -0.573418411022017, 0.1164609951410034, 0.0010005164828791892, -0.47333758378417273,1.0,-8790.535993633737, -2846.016382418985, 21693.682398657973, -76.9031234263822, 222.2887122736807, 38.3982546772132,1.0,769
7538.911,-0.08295023283196823, -1.803034481960772, -1.4994156536147, -1.4101481119828785, 1.5710805787588624, 2.322270737735211,-0.4755462751827172, 0.4561070115604178, -0.5719345968778106, 0.1157157161562254, 0.0009997830952366727, -0.4746807606462464,1.0,-8789.780014988673, -2846.5698384968046, 21694.11421801617, -76.9004890866928, 222.33487225172075, 38.39595534380052,1.0,769
7538.919,-0.08415339246937403, -1.80188306887257, -1.5008587654523167, -1.4098566964413388, 1.5710831037637554, 2.3210697623530576,-0.47688643623187826, 0.4553614169999987, -0.5704454690513737, 0.11497173095991628, 0.000999031904560231, -0.4760228741351663,1.0,-8789.461594917311, -2846.633255504188, 21694.01147348456, -76.88652875178829, 222.31631741205666, 38.40776928966909,1.0,769
7538.9349999999995,-0.08656678737291124, -1.7995888568143013, -1.5037300135948408, -1.409280229477191, 1.5710881415519802, 2.318660715607595,-0.47956341187030926, 0.4538503802593682, -0.5674513324084691, 0.1134877251831926, 0.0009974760104512212, -0.4787037632565061,1.0,-8790.359644991251, -2846.3605816032377, 21693.51576691138, -76.88529868450692, 222.28241017704602, 38.40194986330101,1.0,769
7538.951,-0.08898963306307639, -1.797306150111579, -1.5065813356214424, -1.408712186894867, 1.5710931629202567, 2.316242191079556,-0.4822356786904576, 0.45231284514702375, -0.5644361251158045, 0.11200914453669662, 0.0009958485347615663, -0.48137995471671563,1.0,-8789.937346255421, -2845.920903258727, 21693.99900997669, -76.89768186893207, 222.31643392221144, 38.39408916619823,1.0,769
7538.959,-0.09020460609471659, -1.7961691189131646, -1.507999539564569, -1.4084313018848356, 1.57109566739991, 2.3150293685580654,-0.4835699534202542, 0.4515341290397291, -0.5629206604114393, 0.11127194075114426, 0.0009950078810237032, -0.48271619581717595,1.0,-8790.453536861714, -2846.4565788722593, 21693.442450390783, -76.89044717287697, 222.2880588584202, 38.392905148771916,1.0,769
7538.967,-0.09142194914472235, -1.795034973330191, -1.5094127801154267, -1.4081524955640141, 1.571098167718004, 2.3138141693321566,-0.48490293933008155, 0.45074877510170414, -0.5613999773282397, 0.11053615579934496, 0.0009941492467524739, -0.4840511507656922,1.0,-8790.23413498238, -2846.0711850127473, 21693.31398206207, -76.9009996623717, 222.28529296520958, 38.406105561773074,1.0,769
7538.974999999999,-0.09264166460305123, -1.7939037165614264, -1.510821063184017, -1.4078757588259618, 1.5711006638555174, 2.3125965910327264,-0.48623459906680555, 0.44995677972497755, -0.5598740930967588, 0.10980181052023082, 0.0009932726055221974, -0.48538478215222564,1.0,-8789.74814776969, -2846.931381015307, 21693.836616494114, -76.86221435981338, 222.31243868032982, 38.387853501782985,1.0,769
7538.982999999999,-0.09386375483493481, -1.792775351856072, -1.512224394616407, -1.407601082577738, 1.5711031557933455, 2.3113766313153956,-0.4875648952063179, 0.4491581396985817, -0.5583430253475107, 0.10906892577918602, 0.0009923779245529125, -0.48671705247112507,1.0,-8789.51555482222, -2846.222349531041, 21693.949320416075, -76.88623536358392, 222.32945822083667, 38.3957403805523,1.0,769
7538.991,-0.0950882221806264, -1.7916498825133518, -1.5136227801953632, -1.4073284577396823, 1.5711056435123052, 2.3101542878606574,-0.4888937902647955, 0.4483528521806186, -0.5568067920583362, 0.10833752238675952, 0.0009914651887032696, -0.48804792422426047,1.0,-8789.846754771052, -2846.0441997253583, 21693.72013311166, -76.89244078014897, 222.30845154941164, 38.3987022751744,1.0,769
7538.999,-0.09631506895515596, -1.7905273118820935, -1.515016225641002, -1.4070578752451626, 1.5711081269931344, 2.308929558374188,-0.49022124668486317, 0.4475409147390156, -0.5552654116195767, 0.10760762119210372, 0.0009905343653119527, -0.48937735981070246,1.0,-8790.751201261135, -2846.713175206766, 21693.691412984586, -76.88561485974253, 222.30378797627293, 38.389400592305236,1.0,769
7539.039,-0.10248507348934943, -1.7849580600280657, -1.5219095467649906, -1.405735281480509, 1.5711204801456853, 2.3027700419583383,-0.4968356317140852, 0.4433814212908358, -0.5474819722964122, 0.10398137596183378, 0.000985608171581108, -0.496001675756676,1.0,-8791.009860256214, -2846.345132875069, 21693.748577878396, -76.88512502927986, 222.2937534370363, 38.392551149175404,1.0,769
7539.063,-0.10621577187134168, -1.7816515183527049, -1.525986610629773, -1.4049656558016927, 1.5711278399300155, 2.2990455585274514,-0.5007845861384287, 0.44080585737462236, -0.5427514024780596, 0.10182498412056123, 0.0009824340744850584, -0.499956615048369,1.0,-8790.063731291239, -2846.453703602183, 21693.84614979127, -76.87530949850537, 222.30578271148966, 38.37830186148611,1.0,769
7539.079,-0.10871489605698237, -1.7794618060982286, -1.5286801876162395, -1.4044623934512224, 1.571132724411312, 2.2965505455152995,-0.5034083933216661, 0.4390555445717299, -0.539572830628076, 0.10039579864993368, 0.000980226725082558, -0.5025844222925493,1.0,-8790.252351018864, -2845.7871375644545, 21693.868756560394, -76.90582367047634, 222.3135870784323, 38.40505018727782,1.0,769
7539.0869999999995,-0.10996806187561958, -1.7783713560970718, -1.5300196518135127, -1.4042136818649968, 1.5711351599794277, 2.2952994257059487,-0.5047175345267005, 0.4381704119648279, -0.5379761536312699, 0.09968379034847652, 0.0009790956160910021, -0.5038955664197707,1.0,-8789.729149711367, -2846.6017617330117, 21694.031374660586, -76.8862796539261, 222.3262793800031, 38.39512254475008,1.0,769
7539.094999999999,-0.11122363284444159, -1.7772838487151024, -1.5313542398521207, -1.4039669047673318, 1.5711375910723258, 2.2940458943883097,-0.5060247836196262, 0.4372786316796484, -0.53637457968389, 0.09897353231444127, 0.0009779462082188629, -0.5052048202763224,1.0,-8789.993046718755, -2846.7242089459005, 21693.914792935695, -76.89438640542951, 222.31319167393065, 38.40029631003134,1.0,769
7539.103,-0.11248161092758036, -1.776199287909245, -1.53268395669211, -1.4037220532435164, 1.571140017669776, 2.2927899496183786,-0.507330102684964, 0.43638020658207827, -0.5347681320767103, 0.09826504499756426, 0.0009767784818532443, -0.5065121459191843,1.0,-8790.68770779242, -2846.706678789539, 21693.707969156636, -76.8888510332622, 222.29707163879186, 38.40537273904505,1.0,769
7539.111,-0.11374199806037844, -1.7751176776803836, -1.5340088072390685, -1.4034791183893098, 1.5711424397514715, 2.2915315894808734,-0.5086334538388723, 0.43547513995715414, -0.5331568344614319, 0.09755834876108982, 0.0009755924321340955, -0.5078175053980692,1.0,-8790.427188706715, -2846.1788679661577, 21693.691721449075, -76.88732808786222, 222.3078127553423, 38.394300679531966,1.0,769
7539.119,-0.11500479614913228, -1.7740390220729871, -1.5353287963446363, -1.403238091310838, 1.5711448572970377, 2.2902708120894943,-0.509934799185881, 0.4345634355080802, -0.5315407108577734, 0.09685346393453492, 0.0009743880449079388, -0.5091208607897562,1.0,-8790.022300377621, -2845.8659125092245, 21693.850872265473, -76.91042863389745, 222.30850261755262, 38.40245059956243,1.0,769
7539.1269999999995,-0.11627000707082491, -1.7729633251746995, -1.5366439288070586, -1.4029989631244382, 1.5711472702860292, 2.289007615587268,-0.511234100857328, 0.4336450973733981, -0.5299197856690658, 0.09615041080399843, 0.0009731653123918119, -0.510422174138785,1.0,-8789.661258587259, -2846.8016902929903, 21694.380051374184, -76.88300516623417, 222.33300555188066, 38.402434234689224,1.0,769
7539.143,-0.11880767477283527, -1.7708208240695722, -1.5392596427316034, -1.4025263679434836, 1.5711520825121668, 2.286473957970199,-0.5138264217855889, 0.43178853866840416, -0.5266636298857399, 0.0947498803732615, 0.0009706647881236342, -0.5130185231395843,1.0,-8790.73724791432, -2845.6697554484144, 21693.443102712765, -76.9127135461087, 222.3066536580714, 38.40442755676807,1.0,769
7539.159,-0.12135501558610073, -1.7686902079147409, -1.541855986350689, -1.4020612619763853, 1.571156876264954, 2.2839306023689865,-0.5164101140658482, 0.4299055053593018, -0.5233885694648416, 0.0933569184109843, 0.000968090806341221, -0.5156062494683352,1.0,-8790.149964593242, -2846.2130893823814, 21694.054003134315, -76.90501738987717, 222.3179011079838, 38.40743823918979,1.0,769
7539.1669999999995,-0.12263231778300643, -1.7676293673603265, -1.5431469057388671, -1.401831495343699, 1.5711592661620102, 2.2826552835003064,-0.517698630063706, 0.4289540755694692, -0.5217440148182778, 0.09266332559162813, 0.0009667762618426917, -0.5168967845883436,1.0,-8790.378950709273, -2846.965548975646, 21694.019805266926, -76.8863253479762, 222.3224823512503, 38.408217763371454,1.0,769
7539.174999999999,-0.12391204344452333, -1.7665715109255498, -1.544432996181305, -1.4016035745083624, 1.5711616513783933, 2.281377535008154,-0.518984875693188, 0.4279960457944908, -0.5200948124874795, 0.0919716847301811, 0.0009654433407241238, -0.5181850506688397,1.0,-8790.632915717222, -2846.6815196768257, 21693.805478578586, -76.87829643254085, 222.29402529815815, 38.398769843960736,1.0,769
7539.183,-0.12519419423509426, -1.7655166429892644, -1.5457142621170075, -1.4013774906546992, 1.57116403189319, 2.2800973552477926,-0.5202688133078515, 0.4270314231495717, -0.5184409893684393, 0.0912820156230915, 0.0009640920441126446, -0.5194710100044865,1.0,-8790.823011405311, -2845.70688052886, 21693.655155974535, -76.8975735382117, 222.30739603576177, 38.40481920670183,1.0,769
7539.191,-0.1264787717877427, -1.7644647679703427, -1.5469907079356897, -1.401153234976281, 1.5711664076854206, 2.278814742605876,-0.5215504053112172, 0.42606021517307036, -0.5167825726959769, 0.09059433797281703, 0.0009627223748231809, -0.520754624959784,1.0,-8790.523393845286, -2845.9141838869245, 21693.946757779882, -76.90296842810264, 222.31478239875207, 38.40156932626434,1.0,769
7539.199,-0.12776577770379927, -1.7634158903272912, -1.5482623379782563, -1.400930798675855, 1.5711687787340434, 2.2775296955006903,-0.5228296141689791, 0.42508242984277644, -0.5151195900641793, 0.08990867140697646, 0.0009613343323544472, -0.5220358579265634,1.0,-8789.997073295253, -2847.211442518301, 21694.14409129447, -76.87477417293985, 222.33783973585798, 38.394068187947624,1.0,769
7539.206999999999,-0.12905521355264238, -1.7623700145578622, -1.5495291565372789, -1.4007101729652582, 1.5711711450179529, 2.276242212382459,-0.5241064023916834, 0.4240980755612552, -0.5134520694062529, 0.08922503547707641, 0.0009599279160073014, -0.5233146713806465,1.0,-8790.45951176194, -2846.847702555817, 21694.077139840425, -76.87740159270868, 222.33348482417728, 38.403153916330325,1.0,769
7539.223,-0.13164138116479762, -1.7602872868246973, -1.5520483761362858, -1.40027431820568, 1.5711758632068835, 2.2736599320689663,-0.5266525673704032, 0.4221096959176005, -0.5101035274427795, 0.0878639332034011, 0.0009570599843918826, -0.5258648899319688,1.0,-8790.525745722425, -2845.4198285938073, 21693.533810200563, -76.9125053359547, 222.31847647347303, 38.393255958430416,1.0,769
7539.231,-0.13293811590467186, -1.7592504440491226, -1.5533007855241214, -1.4000590716249466, 1.5711782150693805, 2.2723651319361355,-0.5279218695103827, 0.42110568951930727, -0.508422563699354, 0.08718650548498809, 0.0009555984783299642, -0.5271362203087282,1.0,-8790.77625099152, -2846.3958790948564, 21693.825591080098, -76.88826659240317, 222.323782806204, 38.399375888835124,1.0,769
7539.239,-0.1342372865299133, -1.7582166215227018, -1.554548400125058, -1.3998456005703774, 1.571180562082113, 2.271067889915695,-0.5291886017967978, 0.42009515210115145, -0.5067371770525122, 0.08651118564767957, 0.0009541186153849379, -0.5284049817306912,1.0,-8790.197445120983, -2847.228501674351, 21694.072172437114, -76.86280291731313, 222.33605641194129, 38.38446027938008,1.0,769
7539.246999999999,-0.13553889444609357, -1.757185823933499, -1.5557912239971756, -1.399633896297944, 1.5711829042236671, 2.269768204621511,-0.5304527271465586, 0.41907809422260706, -0.5050473971054242, 0.08583799272084483, 0.0009526204144722096, -0.5296711370299163,1.0,-8790.09735419493, -2846.1680994602893, 21694.036894149864, -76.88518657766161, 222.33436651769858, 38.40018965133129,1.0,769
7539.255,-0.13684294102521477, -1.7561580560064565, -1.5570292611530583, -1.399423950072217, 1.5711852414725682, 2.268466074700943,-0.531714208513682, 0.4180545268685875, -0.5033532537928891, 0.08516694568671959, 0.0009511038742586802, -0.5309346491700058,1.0,-8790.258622030116, -2846.077139883042, 21693.888725063076, -76.89855445455561, 222.3313015933224, 38.398392801259234,1.0,769
7539.263,-0.13814942760544202, -1.7551333225030126, -1.5582625155602337, -1.3992157531663203, 1.5711875738072862, 2.267161498835175,-0.5329730089918043, 0.41702446147649425, -0.5016547773940104, 0.0844980633998872, 0.0009495690068943615, -0.5321954811294413,1.0,-8791.054752791566, -2846.5507262794363, 21693.71405585073, -76.89163191571541, 222.2997802782848, 38.3982312863848,1.0,769
7539.271,-0.13945835549082464, -1.7541116282207003, -1.5594909911416357, -1.39900929686186, 1.5711899012062247, 2.265854475739448,-0.5342290917582617, 0.41598790989100143, -0.49995199847465055, 0.08383136457493277, 0.0009480158267938619, -0.5334535960553259,1.0,-8790.418735542393, -2846.3336289664076, 21694.10287377272, -76.89000482366617, 222.31966875367186, 38.40516847518077,1.0,769
7539.2789999999995,-0.14076972595103854, -1.7530929779927744, -1.5607146917760204, -1.3988045724489089, 1.571192223647741, 2.2645450041634025,-0.5354824200828628, 0.41494488440936494, -0.4982449479555206, 0.08316686787239583, 0.0009464443401053885, -0.5347089571466954,1.0,-8790.11371603359, -2845.985379059067, 21693.890690627402, -76.89956788124834, 222.324697860149, 38.39756610579275,1.0,769
7539.286999999999,-0.14208354022110203, -1.7520773766877937, -1.5619336212984454, -1.398601571225906, 1.5711945411101271, 2.263233082891248,-0.5367329573572669, 0.41389539773692513, -0.49653365703254215, 0.08250459177423351, 0.0009448545678225966, -0.5359615277597987,1.0,-8789.90473841485, -2845.8465792165744, 21693.8132407278, -76.89939367819059, 222.33209832776777, 38.402801376046824,1.0,769
7539.295,-0.14339979950111204, -1.7510648292092492, -1.5631477835006766, -1.3984002844996555, 1.5711968535716223, 2.261918710742128,-0.5379806670817926, 0.4128394630276688, -0.49481815724169376, 0.08184455468072781, 0.0009432465217557614, -0.5372112713191175,1.0,-8790.7164625125, -2846.421852203047, 21693.75400285369, -76.87793924604648, 222.3059339789442, 38.405641468430105,1.0,769
7539.303,-0.14471850495596428, -1.7500553404951482, -1.564357182131654, -1.3982007035852373, 1.5711991610104055, 2.2606018865703157,-0.5392255128563953, 0.41177709386071004, -0.49309848042285254, 0.08118677487906721, 0.0009416202081437402, -0.5384581513889248,1.0,-8790.608250762374, -2845.9527727575633, 21693.661499402475, -76.9083571050655, 222.30390155982525, 38.40398415388458,1.0,769
7539.311,-0.14603965771509486, -1.7490489155176485, -1.5655618208978774, -1.398002819806032, 1.57120146340461, 2.2592826092654974,-0.5404674584273584, 0.41070830423459764, -0.4913746587013732, 0.08053127049569767, 0.0009399756568199439, -0.5397021316597101,1.0,-8790.289223340287, -2846.0109520116002, 21693.810101969197, -76.90485812870728, 222.3245506285573, 38.40579129968057,1.0,769
7539.3189999999995,-0.14736325887219337, -1.748045559282649, -1.566761703463862, -1.397806624493648, 1.571203760732307, 2.257960877753123,-0.5417064676721853, 0.4096331085918768, -0.48964672452180796, 0.07987805953304063, 0.000938312877885712, -0.5409431759128894,1.0,-8789.863832774212, -2846.0808567461945, 21694.05801220694, -76.90246592888178, 222.32317704596528, 38.40594855301009,1.0,769
7539.326999999999,-0.14868930948493553, -1.7470452768293967, -1.567956833452552, -1.397612108987901, 1.5712060529715168, 2.256636690994589,-0.5429425045503037, 0.4085515217863534, -0.4879147106167084, 0.07922715991323012, 0.000936631893571391, -0.542181248122149,1.0,-8789.882332316063, -2847.3596281714526, 21694.329185004033, -76.86721696325722, 222.320905217671, 38.40197045547583,1.0,769
7539.335,-0.15001781057471053, -1.7460480732300958, -1.5691472144457386, -1.3974192646367927, 1.5712083401002053, 2.255310047987567,-0.5441755332226487, 0.4074635591179751, -0.48617865002041266, 0.07857858935849843, 0.0009349327183363508, -0.5434163123171113,1.0,-8790.461725849775, -2845.939786181023, 21693.92299901069, -76.90310945824106, 222.31170315833697, 38.413303281107744,1.0,769
7539.343,-0.15134876312635104, -1.745053953589518, -1.5703328499844567, -1.3972280827965093, 1.5712106220962894, 2.253980947766229,-0.5454055179388244, 0.40636923629188093, -0.4844385760409946, 0.07793236549619262, 0.0009332153798295525, -0.5446483327414416,1.0,-8790.85877922229, -2846.0160147821252, 21693.70381256369, -76.89829519497263, 222.30022922960768, 38.4027050264763,1.0,769
7539.351,-0.1526821680878534, -1.7440629230446003, -1.5715137435694224, -1.3970385548313704, 1.5712128989376322, 2.25264938940158,-0.5466324231207416, 0.40526856944984857, -0.48269452228094806, 0.0772885057918727, 0.0009314798959415484, -0.5458772737409485,1.0,-8790.344204144561, -2845.219525249504, 21693.886252902626, -76.9161724552323, 222.3152479715376, 38.40669721514621,1.0,769
7539.3589999999995,-0.15401802637010853, -1.7430749867640607, -1.5726898986614044, -1.3968506721138683, 1.5712151706020485, 2.2513153720017107,-0.5478562133299943, 0.40416157515467427, -0.48094652262285, 0.07664702757869937, 0.0009297262924876341, -0.5471030998208398,1.0,-8790.21644466052, -2847.153940510977, 21694.619403092023, -76.87432631801494, 222.32022387239482, 38.411983576258194,1.0,769
7539.366999999999,-0.15535633884662658, -1.7420901499479875, -1.573861318681665, -1.3966644260245946, 1.5712174370672995, 2.2499788947120045,-0.5490768532732607, 0.4030482703878819, -0.47919461122367185, 0.07600794805167692, 0.0009279545944967251, -0.5483257756519468,1.0,-8790.147327700355, -2847.349331959146, 21694.52352245656, -76.86865662488128, 222.32798809685863, 38.39946710213246,1.0,769
7539.375,-0.1566971063532634, -1.741108417827463, -1.5750280070123166, -1.3964798079523053, 1.571219698311102, 2.248639956715509,-0.5502943078316713, 0.40192867256146464, -0.47743882252157765, 0.0753712842452816, 0.0009261648233690109, -0.5495452660338246,1.0,-8790.331726376566, -2845.890519968035, 21694.156166681703, -76.8956158240689, 222.3168552680989, 38.41153717785684,1.0,769
7539.383,-0.1580403296879478, -1.740129795664151, -1.5761899669967505, -1.3962968092938723, 1.5712219543111192, 2.247298557233152,-0.5515085420296282, 0.4008027994945859, -0.47567919121167934, 0.07473705305562142, 0.0009243570083106761, -0.5507615359650142,1.0,-8790.886663962217, -2845.5879273243045, 21693.851788158343, -76.91636201918638, 222.31442583784286, 38.403685050656094,1.0,769
7539.391,-0.1593860096104054, -1.739154288749912, -1.5773472019400057, -1.396115421454314, 1.5712242050449665, 2.245954695524056,-0.5527195210948227, 0.39967066943758894, -0.4739157522620188, 0.07410527119347059, 0.0009225311780523599, -0.5519745505614474,1.0,-8790.493935358485, -2846.9538200735997, 21694.087962408048, -76.87571108849534, 222.3177247372277, 38.3998471935123,1.0,769
7539.398999999999,-0.16073414684189125, -1.7381819024064127, -1.5784997151091469, -1.395935635846822, 1.571226450490221, 2.2446083708857705,-0.5539272103737019, 0.3985323010421904, -0.4721485408929941, 0.07347595526060584, 0.0009206873624758958, -0.5531842751738015,1.0,-8790.32473443713, -2846.9147104583108, 21694.278845313012, -76.88826303687841, 222.32190986012807, 38.40556036270905,1.0,769
7539.406999999999,-0.16208474206490386, -1.737212641984705, -1.5796475097336842, -1.3957574438927178, 1.571228690624402, 2.2432595826545803,-0.5551315754268554, 0.39738771339163487, -0.4703775925931928, 0.0728491216674016, 0.0009188255870500194, -0.5543906752710821,1.0,-8789.688827462269, -2846.375571679445, 21694.16217907948, -76.88238386040055, 222.3571143326095, 38.395963963771635,1.0,769
7539.415,-0.16343779592292051, -1.7362465128648488, -1.5807905890059306, -1.3955808370215106, 1.5712309254249888, 2.241908330205734,-0.5563325819763406, 0.39623692596671684, -0.46860294308603795, 0.07222478666976491, 0.0009169458843498672, -0.555593716544599,1.0,-8790.812559675205, -2845.496489853431, 21694.077522382337, -76.90542870999505, 222.32125800011033, 38.39921457691142,1.0,769
7539.423,-0.1647933090201219, -1.7352835204555115, -1.5819289560813639, -1.395405806670925, 1.5712331548694123, 2.2405546129537837,-0.5575301959399934, 0.3950799586738403, -0.4668246283602817, 0.07160296636995044, 0.0009150482877084718, -0.556793364830553,1.0,-8791.135685191415, -2846.6715472101478, 21693.76411433482, -76.88411651450033, 222.28937677646394, 38.39694119859544,1.0,769
7539.431,-0.1661512819211204, -1.7343236701935751, -1.5830626140790116, -1.395232344286919, 1.5712353789350686, 2.2391984303527717,-0.5587243834277462, 0.39391683181618015, -0.465042684624255, 0.07098367666397695, 0.0009131328355653501, -0.5579895861827014,1.0,-8790.831523268971, -2846.0815994724453, 21693.910695021874, -76.89512260982613, 222.30792612370476, 38.391044006285824,1.0,769
7539.438999999999,-0.16751171515067664, -1.7333669675437164, -1.5841915660818389, -1.3950604413236896, 1.5712375975992992, 2.2378397818966196,-0.5599151107099432, 0.39274756611305056, -0.4632571483469273, 0.07036693334209553, 0.0009111995529029773, -0.5591823468456635,1.0,-8789.884691737485, -2846.2587422534025, 21694.136317670054, -76.90393901386659, 222.34544378023554, 38.4078011057874,1.0,769
7539.446999999999,-0.16887460919343678, -1.7324134179980293, -1.585315815137088, -1.394890089243729, 1.5712398108394063, 2.2364786671193015,-0.5611023442978266, 0.39157218269078087, -0.4614680562216626, 0.06975275197185037, 0.0009092484786618563, -0.5603716132289526,1.0,-8789.920313389175, -2846.3657794334213, 21693.994981562068, -76.89233086823458, 222.33688400660407, 38.39286207142871,1.0,769
7539.455,-0.17023996449365786, -1.7314630270756242, -1.5864353642566407, -1.3947212795178752, 1.5712420186326537, 2.2351150855951456,-0.5622860508664483, 0.39039070306355644, -0.45967544515416764, 0.06914114795505291, 0.000907279651960204, -0.5615573520024151,1.0,-8790.87991687632, -2846.2461433492745, 21693.860245875105, -76.88990401267083, 222.3161307508638, 38.4052774016632,1.0,769
7539.463,-0.17160778145492372, -1.7305158003222116, -1.5875502164174007, -1.3945540036253128, 1.5712442209562587, 2.2337490369391393,-0.5634661973253127, 0.38920314916505505, -0.45787935229592674, 0.06853213652244344, 0.0009052931101832587, -0.5627395299788989,1.0,-8790.703847898514, -2846.111305553831, 21693.975342866794, -76.90189352968233, 222.31342514604648, 38.40521144282738,1.0,769
7539.471,-0.17297806043988917, -1.729571743309715, -1.5886603745616306, -1.3943882530536458, 1.571246417787405, 2.232380520807165,-0.5646427507736175, 0.3880095433173372, -0.45607981500462874, 0.06792573272287834, 0.0009032888930299222, -0.5639181142169964,1.0,-8790.7430708113, -2846.01876786935, 21694.188940091233, -76.90952203685026, 222.32599279388666, 38.39961253293541,1.0,769
7539.478999999999,-0.1743508017699904, -1.7286308616358674, -1.5897658415973073, -1.3942240192989441, 1.5712486091032338, 2.231009536896281,-0.5658156785206633, 0.38680990824583883, -0.4542768708628225, 0.06732195143844949, 0.0009012670345478868, -0.5650930719752112,1.0,-8790.518809045, -2846.7665190869757, 21694.096170310837, -76.88958467176747, 222.3234728889979, 38.41454090618919,1.0,769
7539.487,-0.17572600572518127, -1.7276931609238044, -1.5908666203984794, -1.3940612938657813, 1.5712507948808436, 2.229636084945031,-0.5669849481075571, 0.3856042670625283, -0.45247055764749855, 0.0667208073385059, 0.0008992275809054864, -0.5662643707338991,1.0,-8790.308458012796, -2846.5366486397743, 21694.235454420894, -76.8891773054142, 222.32618474107068, 38.39975070557094,1.0,769
7539.5109999999995,-0.17986639551285677, -1.7248992011623914, -1.5941408556335848, -1.3935820826703171, 1.5712573187548213, 2.225500918861804,-0.5704704865907216, 0.38195154384191254, -0.44703178440323754, 0.0649333421042031, 0.000893004069872333, -0.5697559911452376,1.0,-8790.6292231151, -2846.634378930704, 21693.537965079686, -76.8885294476269, 222.30809338610652, 38.40697585577834,1.0,769
7539.518999999999,-0.18125145192873937, -1.723974281022918, -1.5952229095704933, -1.3934253057414905, 1.5712594821498294, 2.2241175929729207,-0.5716248033536838, 0.38072211714826165, -0.44521237671640024, 0.06434288975751996, 0.0008908946625987305, -0.5709123331719971,1.0,-8790.67452381938, -2845.9653863841622, 21694.132497362396, -76.90805536811396, 222.3283726215961, 38.41184926852148,1.0,769
7539.527,-0.1826389717376964, -1.7230525703279262, -1.5963002891460913, -1.3932699947869187, 1.5712616398915726, 2.2227317983676294,-0.5727753030173217, 0.379486805734378, -0.4433897918221045, 0.06375514513846926, 0.0008887678807374772, -0.5720648569829401,1.0,-8790.21714147292, -2846.713564847064, 21694.067894258926, -76.88739551060516, 222.3362347729094, 38.39798925985605,1.0,769
7539.535,-0.18402895496506844, -1.722134074844531, -1.597372997037965, -1.3931161413635857, 1.5712637919569377, 2.2213435350389017,-0.5739219545093327, 0.3782456350215933, -0.441564068642206, 0.06317012174459162, 0.0008866237746044706, -0.5732135314352724,1.0,-8790.355485277403, -2845.7221540438095, 21694.056619638355, -76.92116743271595, 222.34761981138632, 38.41020129211552,1.0,769
7539.543,-0.1854214015928095, -1.7212188003624167, -1.598441035892133, -1.3929637370374426, 1.5712659383227763, 2.219952803023053,-0.5750647269704816, 0.37699863080665497, -0.4397352462819702, 0.06258783291982364, 0.0008844623876813546, -0.5743583256454918,1.0,-8790.716300826234, -2847.264928511514, 21694.20098904415, -76.87197461703227, 222.33316517882412, 38.4118920020733,1.0,769
7539.5509999999995,-0.1868163115592214, -1.7203067526934408, -1.599504408323364, -1.3928127733835076, 1.5712680789659073, 2.218559602400013,-0.5762035898211743, 0.37574581925405187, -0.4379033639988679, 0.06200829175061171, 0.0008822837715267467, -0.5754992089640834,1.0,-8791.03784587787, -2847.113524994741, 21694.05803858358, -76.87763430499959, 222.31726790894874, 38.39545260620119,1.0,769
7539.558999999999,-0.18821368475867928, -1.7193979376712232, -1.6005631169154917, -1.3926632419859502, 1.5712702138631165, 2.2171639332936333,-0.5773385127091887, 0.37448722691273817, -0.43606846124349424, 0.06143151118131679, 0.0008800879740546402, -0.5766361509737472,1.0,-8790.684604496702, -2846.082256831907, 21694.0655685158, -76.9019117597989, 222.32785376443007, 38.41049184568118,1.0,769
7539.567,-0.1896135210413714, -1.718492361150754, -1.6016171642217198, -1.3925151344382094, 1.5712723429911624, 2.2157657958718966,-0.5784694655506275, 0.37322288066210063, -0.4342305775656446, 0.060857503859412285, 0.0008778750506302065, -0.5777691215721541,1.0,-8791.072799913858, -2845.983200444093, 21693.899998371777, -76.91433971188226, 222.3169029493376, 38.39478743001058,1.0,769
7539.575,-0.19101582021302388, -1.7175900290079618, -1.60266655276497, -1.3923684423430327, 1.5712744663267773, 2.2143651903472565,-0.5795964185283907, 0.371952807782819, -0.43238975272574837, 0.06028628229520568, 0.00087564505671314, -0.5788980908260654,1.0,-8790.91807607827, -2847.0198891345535, 21694.242808046085, -76.8835665642205, 222.3346543973285, 38.41042704923299,1.0,769
7539.590999999999,-0.19382780622219986, -1.7157951214613796, -1.6047513635046515, -1.3920792709685665, 1.5712786955274605, 2.2115565760627307,-0.5818382068197543, 0.3693955929477368, -0.4286994391875069, 0.05915224531354336, 0.000871134056562543, -0.5811439071656018,1.0,-8790.554361022936, -2845.7435918784277, 21694.302312388216, -76.89946500918234, 222.35161148277547, 38.39568130705902,1.0,769
7539.598999999999,-0.19523749244646282, -1.7149025579105004, -1.6057867905982413, -1.3919367749423284, 1.5712808013458412, 2.210148567952258,-0.5829529837973241, 0.368108507299036, -0.42685003066851324, 0.05858945379532027, 0.000868853163982796, -0.5822606957818011,1.0,-8790.707149935475, -2845.419669658255, 21693.96264786262, -76.90815714771784, 222.3158534786595, 38.4076882886919,1.0,769
7539.607,-0.19664964033263832, -1.7140132624422844, -1.6068175687238053, -1.3917956608749344, 1.5712829012784129, 2.2087380930382445,-0.5840636442260062, 0.3668158076096556, -0.4249978413096835, 0.05802949581150057, 0.0008665554222031027, -0.5833733661736586,1.0,-8791.279375525557, -2846.7605715978616, 21693.876124463928, -76.87600429139658, 222.3328704344288, 38.391037727583864,1.0,769
7539.615,-0.19806424946014367, -1.7131272410312537, -1.6078437002574102, -1.3916559204173238, 1.5712849953017647, 2.2073251517592967,-0.5851701595940683, 0.3655175229034283, -0.4231429115271898, 0.05747238278577307, 0.0008642408803349823, -0.584481889796522,1.0,-8791.041383992811, -2845.509006158255, 21693.729017534657, -76.91108313334729, 222.315897711054, 38.40735897938754,1.0,769
7539.623,-0.19948131936234148, -1.7122444996704012, -1.6088651875466802, -1.3915175452303696, 1.5712870833924588, 2.2059097446000075,-0.5862725016907783, 0.3642136825290911, -0.4212852818277849, 0.056918125873974275, 0.0008619096040042075, -0.5855862383918765,1.0,-8790.24372974753, -2846.4106987522555, 21694.154825815833, -76.89510927181166, 222.34660988422837, 38.39566429343725,1.0,769
7539.630999999999,-0.20090084952627318, -1.7113650443707913, -1.6098820329110701, -1.3913805269850297, 1.5712891655270371, 2.2044918720913103,-0.5873706425707764, 0.3629043161919269, -0.4194249928610314, 0.05636673604918629, 0.0008595616479304591, -0.5866863839563021,1.0,-8790.438506543942, -2846.750125249325, 21694.27248724944, -76.88629324489781, 222.32980766687012, 38.39970092978223,1.0,769
7539.638999999999,-0.20232283939239526, -1.7104888811611456, -1.6108942386421647, -1.3912448573624605, 1.5712912416820173, 2.2030715348106447,-0.5884645545975045, 0.3615894539127556, -0.41756208535270384, 0.055818224007637966, 0.0008571970807684636, -0.5877822987800286,1.0,-8790.798105917733, -2846.053343503684, 21694.137428117392, -76.89196989752296, 222.33291896523525, 38.41036825612764,1.0,769
7539.647,-0.20374728835432165, -1.7096160160874252, -1.6119018070039681, -1.3911105280541411, 1.571293311833892, 2.201648733382309,-0.5895542103763736, 0.3602691260547686, -0.415696600158017, 0.05527260028563316, 0.0008548159529853032, -0.5888739554468688,1.0,-8790.794642241688, -2846.0634909278288, 21693.91782361457, -76.89396724110884, 222.31684676212012, 38.40296860340675,1.0,769
7539.655,-0.20517419575855644, -1.7087464552124292, -1.6129047402331746, -1.3909775307620214, 1.5712953759591382, 2.200223468477634,-0.5906395828509948, 0.35894336329050486, -0.41382857819102536, 0.054729875099970376, 0.0008524183393673688, -0.5899613268225421,1.0,-8790.839751235708, -2845.569475065271, 21693.90306242003, -76.91229605829426, 222.31287645634603, 38.41595265759719,1.0,769
7539.670999999999,-0.2080353830428745, -1.7070172703913888, -1.6148967101059064, -1.3907154990871087, 1.5712994860355294, 2.1973655511616785,-0.5927973709878648, 0.3562756573874142, -0.41008508815079553, 0.0536531603197583, 0.0008475738924025473, -0.5921231066134772,1.0,-8790.09869023284, -2846.2132736959657, 21693.911941016373, -76.88980151233369, 222.34396867898795, 38.399726759769635,1.0,769
7539.687,-0.21090639506537467, -1.7053013755210067, -1.6168701656190283, -1.390458696167105, 1.5713035717225812, 2.1944977891849593,-0.594937708204343, 0.3535865879952715, -0.4063319443734943, 0.05258815713899142, 0.0008426642503949822, -0.5942674269836496,1.0,-8790.528755925532, -2846.8444986804534, 21693.878298988842, -76.87904133372115, 222.30871075521657, 38.40589949820421,1.0,769
7539.7029999999995,-0.2137872248757997, -1.7035988196667882, -1.6188251237125577, -1.39020705600724, 1.5713076328313884, 2.1916201896395284,-0.59706038851846, 0.35087641184509677, -0.4025694771410931, 0.05153493921374323, 0.0008376899542989876, -0.5963940815123997,1.0,-8790.439295818986, -2846.1851722423808, 21693.981332157695, -76.89171998736845, 222.32277685538355, 38.41206824059492,1.0,769
7539.710999999999,-0.21523131906688864, -1.7027525592667354, -1.6197956714084025, -1.3900831513882288, 1.571309654109849, 2.190177703207315,-0.5981150442948333, 0.34951349027721124, -0.4006848507033303, 0.05101277168108058, 0.0008351787323356766, -0.5974507209144369,1.0,-8789.879122529854, -2845.302652133293, 21694.054309794563, -76.91544394083647, 222.33997992299544, 38.410556152250535,1.0,769
7539.719,-0.2166778647454226, -1.7019096521233745, -1.6207616009165946, -1.3899605127932633, 1.571311669172796, 2.188732760395386,-0.5991652108029245, 0.34814539045765747, -0.3987980176753859, 0.050493576335047335, 0.0008326515535238304, -0.5985028686690166,1.0,-8791.094650358022, -2847.1301933813875, 21694.13019459456, -76.86295821020747, 222.3090756238314, 38.412976869681216,1.0,769
7539.727,-0.21812686082234034, -1.7010701044321168, -1.6217229142407845, -1.389839132024525, 1.571313677996547, 2.1872853623103756,-0.6002108636826423, 0.3467721458016674, -0.39690901957599206, 0.04997736128898129, 0.0008301084904250973, -0.5995505003510158,1.0,-8790.469025695353, -2846.3321859456546, 21693.833385492755, -76.88611456203171, 222.3325723721381, 38.41072220728256,1.0,769
7539.735,-0.21957830615891538, -1.7002339224010292, -1.6226796133600416, -1.3897190008961413, 1.5713156805574133, 2.185835510108573,-0.6012519788658748, 0.3453937900090884, -0.3950178979653425, 0.049464134422644426, 0.0008275496138840324, -0.6005935918635205,1.0,-8790.890614304326, -2845.8572353095487, 21693.931238966703, -76.90198596046804, 222.3266980316776, 38.41276260584468,1.0,769
7539.7429999999995,-0.22103219956650388, -1.699401112250369, -1.6236317002291845, -1.3896001112342358, 1.5713176768316846, 2.1843832049961063,-0.6022885326202773, 0.34401035705599836, -0.39312469442870746, 0.048953903351096846, 0.0008249749955206475, -0.6016321194098613,1.0,-8790.85325167009, -2845.724411648034, 21693.911596121226, -76.89766712312567, 222.32881514041367, 38.40675173793437,1.0,769
7539.759,-0.22394732558907382, -1.6977456325299212, -1.6255220449164476, -1.3893660236757368, 1.571321650425568, 2.18147124111483,-0.6043478624459456, 0.34122839693873036, -0.3893322080543378, 0.04794245787380995, 0.0008197788291325921, -0.6036953890389288,1.0,-8790.840603306082, -2846.532795438371, 21693.98532623831, -76.87841525709206, 222.3172602148332, 38.397333689610235,1.0,769
7539.767,-0.2254085555749601, -1.6969229754579231, -1.6264603065250398, -1.3892508094932285, 1.571323627697723, 2.1800115850099564,-0.6053705926400194, 0.33982993906959763, -0.3874330084816139, 0.0474412574508203, 0.0008171574346174522, -0.6047200851325536,1.0,-8790.653362560992, -2845.105064734712, 21693.81738478477, -76.9079194393315, 222.33541656895488, 38.4051477946534,1.0,769
7539.775,-0.22687222837316856, -1.6961037152610619, -1.6273939634649999, -1.3891368042056698, 1.5713255985883627, 2.178549481322842,-0.6063886696163977, 0.33842654262777583, -0.3855318935184974, 0.046943080831564406, 0.0008145205972980204, -0.6057401253046931,1.0,-8790.498437581948, -2846.227926781983, 21694.086797068943, -76.88453900874873, 222.338605072377, 38.40684527313283,1.0,769
7539.782999999999,-0.22833834254177532, -1.6952878582143152, -1.6283230175735044, -1.3890239997020455, 1.5713275630737402, 2.1770849315127925,-0.6074020712612868, 0.33701824290987387, -0.383628904815127, 0.046447934372187014, 0.0008118683944036793, -0.6067554873472949,1.0,-8790.705921799921, -2846.5566340126898, 21693.80931948709, -76.8850557063646, 222.3220139928281, 38.401091969923215,1.0,769
7539.790999999999,-0.2298068965874629, -1.6944754106023145, -1.6292474706649749, -1.3889123878843979, 1.571329521130101, 2.1756179370904274,-0.6084107757451124, 0.33560507544832213, -0.3817240840029878, 0.04595582418187317, 0.0008092009080060631, -0.6077661494360241,1.0,-8790.77336622681, -2845.8335251700455, 21693.88763389199, -76.89534628529452, 222.33801231617804, 38.4182368889075,1.0,769
7539.799,-0.231277888965284, -1.6936663787189197, -1.6301673245313166, -1.3888019606680295, 1.5713314727336805, 2.174148499617965,-0.6094147615948771, 0.3341870760450002, -0.37981747273499683, 0.04546675613639385, 0.0008065182092301232, -0.6087720900096885,1.0,-8790.637575896748, -2845.982800552265, 21694.08955977326, -76.90408790074724, 222.32617188200533, 38.406184915155734,1.0,769
7539.807,-0.23275131807842708, -1.6928607688668045, -1.631082580942138, -1.3886927099817106, 1.571333417860714, 2.1726766207094723,-0.6104140076497651, 0.3327642807186147, -0.3779091126166562, 0.044980735829781474, 0.0008038203847179652, -0.6097732878874471,1.0,-8790.927422680226, -2845.801529792905, 21694.232309181305, -76.8933684901427, 222.3273634556225, 38.41914191148001,1.0,769
7539.815,-0.23422718227797024, -1.6920585873570246, -1.6319932416450023, -1.3885846277678597, 1.5713353564874326, 2.171202302031076,-0.6114084930926134, 0.3313367257339813, -0.37599904524495426, 0.044497768605227084, 0.0008011075063273277, -0.6107697221907007,1.0,-8790.457397119131, -2846.2939126117053, 21693.835165335422, -76.89547704054502, 222.32618858847337, 38.40472650679425,1.0,769
7539.822999999999,-0.2357054798626521, -1.6912598405085735, -1.6328993083656833, -1.3884777059827016, 1.5713372885900632, 2.1697255453012096,-0.6123981974320174, 0.3299044475852019, -0.3740873121903964, 0.04401785955975722, 0.0007983796620062787, -0.6117613723776423,1.0,-8790.607389522966, -2845.8967851895577, 21693.7891863407, -76.90165820139194, 222.30037458932964, 38.404685927073956,1.0,769
7539.830999999999,-0.23718620907863652, -1.690464534647985, -1.6338007828083576, -1.3883719365965277, 1.5713392141448372, 2.168246352290862,-0.613383100510514, 0.32846748297848427, -0.3721739549682968, 0.043541013497738874, 0.0007956369316703358, -0.6127482182614704,1.0,-8790.085152660513, -2846.6429963500595, 21693.820796651384, -76.88650171061212, 222.33101167520982, 38.4111162257129,1.0,769
7539.847,-0.24015495512488094, -1.6888842712315002, -1.6355899615700036, -1.388163822973521, 1.5713430455157091, 2.165280664776739,-0.6153384239160742, 0.32557964236687353, -0.36834253396870453, 0.04259652838203911, 0.0007901071397843684, -0.6147074179630176,1.0,-8790.61267525062, -2846.341546189332, 21693.745541559554, -76.8919271786273, 222.32831488416235, 38.41556618767686,1.0,769
7539.862999999999,-0.24313340532567107, -1.6873178478538344, -1.6373607911408374, -1.3879602229491326, 1.5713468504098815, 2.162305254716099,-0.6172743087573906, 0.32267350192406336, -0.3645051135795066, 0.041664346662215926, 0.0007845187976596016, -0.6166471663974504,1.0,-8790.85371611169, -2846.488069120436, 21693.85155713998, -76.88183472411032, 222.30561961276817, 38.41630414149441,1.0,769
7539.871,-0.24462626453422054, -1.6865398420635076, -1.6382393290175603, -1.3878600956168423, 1.5713487428687845, 2.1608139087231395,-0.6182349149014384, 0.3212136633060146, -0.36258425692049745, 0.04120287887890153, 0.0007817028807212045, -0.6176096994449239,1.0,-8790.59795397469, -2845.497308258161, 21694.13251924666, -76.91874185622328, 222.33974215893505, 38.41057021044654,1.0,769
7539.879,-0.2461215437340183, -1.685765315353997, -1.6391132844013558, -1.38776107281093, 1.5713506286372152, 2.1593201381918288,-0.6191906058920214, 0.3197493629659923, -0.3606620242440119, 0.040744497584264246, 0.000778872583112881, -0.6185673140412696,1.0,-8790.835546347449, -2845.856138045421, 21693.977949909284, -76.91032125875759, 222.34006172764924, 38.41687987719533,1.0,769
7539.887,-0.2476192407967659, -1.6849942740924124, -1.6399826588518183, -1.3876631466055356, 1.571352507691416, 2.15782394526736,-0.6201413639376206, 0.3182806390475588, -0.3587384566727697, 0.04028920575866592, 0.0007760279865743188, -0.6195199923529542,1.0,-8791.03929037884, -2847.172064235413, 21694.19831842236, -76.87190235450211, 222.32446331520458, 38.421438871085854,1.0,769
7539.8949999999995,-0.24911935353977555, -1.6842267246499105, -1.6408474539088074, -1.3875663090904338, 1.57135438000764, 2.1563253321492715,-0.6210871716015668, 0.31680752988781513, -0.35681359526314527, 0.03983700613424973, 0.0007731691823847795, -0.6204677168599594,1.0,-8790.95526895977, -2846.4274604422035, 21694.332280693332, -76.89715079615931, 222.33780381827205, 38.414908717248466,1.0,769
7539.902999999999,-0.250621879725748, -1.6834626734012943, -1.6417076710926128, -1.3874705523713224, 1.5713562455621468, 2.1548243010916703,-0.622028011750371, 0.31533007398715396, -0.3548874809694314, 0.03938790118085014, 0.0007702962610390973, -0.6214104704400671,1.0,-8791.006867204167, -2846.292398409224, 21694.154508329655, -76.88647612725438, 222.33224618507705, 38.41321742934258,1.0,769
7539.911,-0.252126817062555, -1.6827021267245534, -1.64256331190421, -1.3873758685699888, 1.5713581043312002, 2.153320854403458,-0.6229638676254357, 0.31384831003634117, -0.3529601546720958, 0.038941893098748744, 0.0007674093022538919, -0.6223482362626168,1.0,-8790.696559540707, -2845.596432683151, 21694.09457090804, -76.91072267266736, 222.33438907973107, 38.40511309642932,1.0,769
7539.919,-0.25363416320303056, -1.6819450910004399, -1.6434143778254526, -1.387282249824552, 1.5713599562910756, 2.15181499444853,-0.6238947227927469, 0.3123622768796216, -0.3510316571389832, 0.038498983824680255, 0.0007645084017748429, -0.6232809978746102,1.0,-8790.971782209808, -2846.3549883965006, 21693.803339781658, -76.88211332948859, 222.31008581976835, 38.41338590013052,1.0,769
7539.927,-0.2551439157447515, -1.6811915726120414, -1.6442608703192745, -1.3871896882897117, 1.5713618014180635, 2.150306723646001,-0.6248205611713846, 0.31087201353086574, -0.3491020290416903, 0.0380591750248206, 0.0007615936486075332, -0.6242087391500221,1.0,-8791.043044965192, -2846.346771443845, 21693.556783134372, -76.88612365912036, 222.3183917734815, 38.41059295186446,1.0,769
7539.9349999999995,-0.25665607222982967, -1.6804415779443183, -1.6451027908299363, -1.3870981761369112, 1.5713636396884574, 2.1487960444704095,-0.6257413670212117, 0.3093775591680755, -0.3471713109546514, 0.0376224681174298, 0.0007586651314310815, -0.6251314442992205,1.0,-8791.091291022787, -2845.4132601278025, 21693.60227279242, -76.9123889264325, 222.3413674438209, 38.41227729723201,1.0,769
7539.942999999999,-0.25817063014470243, -1.6796951133837021, -1.6459401407831802, -1.3870077055546464, 1.571365471078568, 2.1472829594519194,-0.6266571249408087, 0.3078789531069225, -0.3452395433171191, 0.0371888642275057, 0.0007557229395158278, -0.6260490979030312,1.0,-8790.563113143586, -2846.0271338464345, 21694.037360223905, -76.88802312082552, 222.34060487005024, 38.407566193990306,1.0,769
7539.951,-0.2596875869199282, -1.678952185317634, -1.646772921586475, -1.386918268748639, 1.5713672955647218, 2.1457674711765518,-0.6275678198914745, 0.30637623482519455, -0.34330676647018976, 0.036758364234364925, 0.0007527671692137619, -0.6269616848477938,1.0,-8790.495262711747, -2846.465902996907, 21693.995250042233, -76.88258348842825, 222.34318222366784, 38.41284654984153,1.0,769
7539.959,-0.261206939929977, -1.6782128001341245, -1.647601134629216, -1.3868298579420753, 1.57136911312325, 2.144249582286387,-0.6284734371631734, 0.3048694439383367, -0.3413730206246437, 0.0363309687443616, 0.0007497979080482131, -0.6278691903858925,1.0,-8790.913260064732, -2845.8295864171077, 21693.786739845844, -76.89691705398872, 222.32684784697545, 38.42210753565894,1.0,769
7539.967,-0.2627286864930314, -1.6774769642213467, -1.6484247812828903, -1.386742465375888, 1.5713709237305078, 2.1427292954797177,-0.6293739623726183, 0.3033586201827188, -0.33943834584380256, 0.0359066780929393, 0.0007468152495274806, -0.6287716001493415,1.0,-8791.201241642753, -2845.8707843763013, 21693.96136126419, -76.89986272847969, 222.32152273090463, 38.40031828711457,1.0,769
7539.974999999999,-0.2642528238707875, -1.676744683967164, -1.6492438629013186, -1.3866560833089432, 1.5713727273628624, 2.1412066135113106,-0.630269381512597, 0.30184380345199363, -0.33750278208774676, 0.03548549236478924, 0.0007438192856968737, -0.6296689000521563,1.0,-8790.948988540706, -2845.8324717666974, 21693.804043778633, -76.89623815050572, 222.33037372097635, 38.41663317648889,1.0,769
7539.982999999999,-0.26577934926825986, -1.6760159657587215, -1.6500583808208154, -1.386570704018327, 1.5713745239967056, 2.139681539192551,-0.631159680900765, 0.30032503374525216, -0.33556636915104354, 0.03506741136399644, 0.0007408101127663402, -0.6305610763966868,1.0,-8791.124321796564, -2846.1195877462906, 21694.263519995624, -76.89601091979515, 222.33657649320986, 38.40120175700412,1.0,769
7539.991,-0.2673082598335732, -1.675290815981973, -1.650868336360432, -1.3864863197995199, 1.5713763136084389, 2.1381540753916672,-0.6320448472133736, 0.2988023511934844, -0.3336291466955666, 0.034652434629564376, 0.0007377878246415476, -0.6314481158027367,1.0,-8790.698454312034, -2846.465198516413, 21694.053607732574, -76.89812597459724, 222.34415835858118, 38.41611575460183,1.0,769
7539.999,-0.26883955265778514, -1.6745692410212758, -1.6516737308221021, -1.386402922966715, 1.571378096174487, 2.1366242250339194,-0.6329248674475086, 0.29727579603955034, -0.3316911542320927, 0.03424056145057531, 0.000734752512740891, -0.6323300052583952,1.0,-8791.099785783974, -2846.5231334049313, 21693.98160568998, -76.88266023755827, 222.32182893758022, 38.41300073982862,1.0,769
7540.007,-0.27037322477468706, -1.6738512472589413, -1.6524745654908486, -1.386320505853039, 1.571379871671296, 2.1350919911018016,-0.633799728973826, 0.2957454086377037, -0.32975243111230024, 0.03383179082616425, 0.0007317042750744933, -0.6332067320680496,1.0,-8791.039803505802, -2845.3104285539966, 21694.105622224663, -76.92198085688446, 222.33188322468334, 38.410657884102676,1.0,769
7540.014999999999,-0.2719092731606123, -1.6731368410747738, -1.6532708416350026, -1.3862390608107598, 1.5713816400753313, 2.133557376635191,-0.634669419485918, 0.29421122944735556, -0.32781301653116723, 0.033426121506730445, 0.0007286432078323339, -0.634078283896644,1.0,-8790.81328247172, -2846.0131307241163, 21694.250990674667, -76.89747243868015, 222.34519647605845, 38.417119786333075,1.0,769
7540.031,-0.2749884863565013, -1.6717188169451633, -1.6548497233402903, -1.3860790564470236, 1.5713851555110632, 2.130481018546312,-0.636393239945632, 0.29113165801572183, -0.32393226891167487, 0.03262408044265827, 0.0007224829623872596, -0.6358058150126439,1.0,-8790.422654288717, -2846.10802351034, 21693.845659807037, -76.89193669092344, 222.32512098878692, 38.42746633798879,1.0,769
7540.047,-0.27807716690006323, -1.670315219604535, -1.6564103857572263, -1.3859228490870237, 1.571388642293879, 2.1273951762416585,-0.6380962372484371, 0.28803740730554267, -0.32004922151176135, 0.03183442291792189, 0.0007162725448913373, -0.6375125067658884,1.0,-8790.905886211898, -2845.24425849182, 21693.85207567324, -76.91880551748952, 222.32852805832192, 38.41774636277549,1.0,769
7540.054999999999,-0.2796250492523997, -1.6696188468906783, -1.6571838877310183, -1.3858461503751602, 1.5713903748818707, 2.125848706723328,-0.6389399001041359, 0.28648487933331396, -0.31810693153118624, 0.03144423203065999, 0.0007131487710241352, -0.6383580106577649,1.0,-8791.424262141578, -2847.345919053826, 21693.844033599795, -76.85807219451439, 222.31921097602412, 38.40773302070451,1.0,769
7540.063,-0.28117528851501206, -1.668926099957046, -1.6579528384494315, -1.3857703782654154, 1.571392100236398, 2.124299876125719,-0.6397783252855761, 0.284928804225973, -0.31616418159668824, 0.031057129378755082, 0.0007100127444226321, -0.6391982727519615,1.0,-8791.04465302896, -2846.009404714966, 21693.981086471686, -76.90528115974169, 222.32615601762132, 38.42208102727827,1.0,769
7540.071,-0.2827278812569922, -1.668236985153733, -1.6587172390689178, -1.3856955252514798, 1.5713938183341047, 2.1227486878956756,-0.6406115028966508, 0.283369223034889, -0.31422100964438837, 0.0306731118478678, 0.0007068645643146498, -0.6400332830745717,1.0,-8790.453833690772, -2845.6881269651803, 21694.45102050378, -76.89566046461869, 222.34570261761172, 38.41540116782846,1.0,769
7540.079,-0.2842828239885673, -1.6675515088248307, -1.6594770907306673, -1.3856215838482795, 1.5713955291516726, 2.121195145538799,-0.6414394233427659, 0.2818061768551318, -0.31227745339222723, 0.030292176069695424, 0.0007037043393036547, -0.6408630320435285,1.0,-8790.92744730557, -2846.398854257547, 21694.399819232975, -76.88241748411343, 222.32841326143824, 38.412440738891064,1.0,769
7540.0869999999995,-0.2858401131609236, -1.6668696773079805, -1.660232394560781, -1.3855485465922515, 1.5713972326658043, 2.1196392526197423,-0.6422620773902803, 0.2802397068598111, -0.3103335503768875, 0.029914318417069534, 0.0007005321570105967, -0.6416875103695442,1.0,-8791.297066225574, -2846.569893545342, 21694.383885922944, -76.87317552578881, 222.3285216558083, 38.41509488382803,1.0,769
7540.094999999999,-0.28739974516605216, -1.666191496933938, -1.6609831516704423, -1.3854764060416018, 1.5713989288532406, 2.118081012762277,-0.6430794561322914, 0.27866985426946905, -0.3083893379237382, 0.02953953501324227, 0.0006973481236339866, -0.6425067091118842,1.0,-8791.02668723135, -2845.720340349667, 21694.47184219948, -76.90013578136066, 222.3293766449005, 38.41364873597604,1.0,769
7540.103,-0.2889617163365825, -1.6655169740261346, -1.661729363156085, -1.3854051547765938, 1.5714006176907516, 2.1165204296494786,-0.6438915509905504, 0.2770966603457287, -0.30644485313438136, 0.029167821701700153, 0.0006941523358591407, -0.6433206196799439,1.0,-8790.681329239791, -2845.974540557163, 21693.969036521026, -76.90735314066265, 222.33990099769608, 38.41303294116483,1.0,769
7540.111,-0.2905260229456337, -1.6648461149002314, -1.6624710300995709, -1.38533478539979, 1.5714022991551435, 2.114957507023894,-0.6446983537209916, 0.2755201663980984, -0.3045001329043871, 0.028799174089560457, 0.0006909448958568701, -0.6441292338075707,1.0,-8791.016965120669, -2845.8284637992165, 21694.020363742122, -76.8982555439946, 222.31689962242092, 38.40676653341893,1.0,769
7540.119,-0.29209266120665944, -1.6641789258636877, -1.6632081535683412, -1.385265290536358, 1.5714039732232645, 2.1133922486877097,-0.6454998564276104, 0.27394041376686673, -0.3025552138946042, 0.028433587494717225, 0.0006877259066865054, -0.6449325435560063,1.0,-8790.909641034672, -2846.447583874011, 21693.835379914915, -76.8868847124171, 222.32944241288902, 38.41694284565497,1.0,769
7540.1269999999995,-0.29366162727328504, -1.6635154132153103, -1.6639407346155952, -1.3851966628343222, 1.5714056398719847, 2.111824658502864,-0.6462960515280802, 0.2723574438394473, -0.3006101325634145, 0.028071057011219508, 0.0006844954614824866, -0.6457305413164981,1.0,-8791.013597673746, -2845.7367182820253, 21693.832239371943, -76.90620754640969, 222.32504322272774, 38.399553417918014,1.0,769
7540.134999999999,-0.29523291723917566, -1.6628555832448235, -1.6646687742804511, -1.3851288949648435, 1.5714072990782217, 2.110254740391204,-0.6470869317831432, 0.2707712980163869, -0.2986649251192094, 0.027711577450924417, 0.0006812536639150093, -0.6465232198136138,1.0,-8790.819686618288, -2846.213491945635, 21693.904798723866, -76.89206846336006, 222.33519450318482, 38.41960619358156,1.0,769
7540.143,-0.296806527137881, -1.662199442232425, -1.6653922735881022, -1.3850619796225097, 1.5714089508189248, 2.108682498334648,-0.6478724902560964, 0.2691820177125085, -0.2967196275285652, 0.027355143372881856, 0.0006780006177347533, -0.6473105721329662,1.0,-8790.633874356861, -2846.1711791384723, 21694.27843872682, -76.89924231785685, 222.34148996364382, 38.40813182472883,1.0,769
7540.151,-0.29838245294270216, -1.661546996448358, -1.6661112335499695, -1.3849959095256175, 1.5714105950710957, 2.1071079363752996,-0.6486527203727317, 0.2675896443786394, -0.29477427554193514, 0.027001749087221905, 0.0006747364264017519, -0.6480925916333876,1.0,-8790.452781048565, -2846.1482672885068, 21694.124098775796, -76.88407167748139, 222.33129571719354, 38.420426266776445,1.0,769
7540.159,-0.29996069056653685, -1.6608982521524354, -1.6668256551639011, -1.3849306774163992, 1.5714122318117614, 2.105531058615626,-0.6494276158660313, 0.26599421947518953, -0.2928289046672457, 0.026651388661471372, 0.0006714611883663335, -0.6488692720186524,1.0,-8791.214719277617, -2846.485180565067, 21694.003647427402, -76.886999430439, 222.31744199084324, 38.40893438411092,1.0,769
7540.174999999999,-0.30312408462008555, -1.6596118930097017, -1.6682408872721908, -1.3848026982516393, 1.5714154826669269, 2.102370372407653,-0.6509613795081942, 0.262794380775332, -0.28893824697020704, 0.02595974429399068, 0.0006648779825728626, -0.6504065919660877,1.0,-8790.506481003735, -2845.692997704521, 21693.952874611146, -76.88912850959304, 222.3184461996741, 38.41839164769439,1.0,769
7540.199,-0.3078864086781481, -1.657710271305393, -1.6703297220061213, -1.384616834378571, 1.571420302041674, 2.0976120806390437,-0.6532218771413344, 0.25797277243210753, -0.28310299184804416, 0.024944868524012398, 0.0006549228798983426, -0.6526723898899592,1.0,-8790.935310606625, -2845.3339502700337, 21694.198977213593, -76.91471578439041, 222.32923393408606, 38.41461015174059,1.0,769
7540.206999999999,-0.30947842798827896, -1.6570838667567713, -1.6710169337448049, -1.3845564791612137, 1.5714218932334214, 2.09602139762477,-0.6539646512903619, 0.2563599086692164, -0.2811582390223682, 0.0246125722442808, 0.0006515835121507494, -0.6534169216098356,1.0,-8790.774194765023, -2845.594600664399, 21694.314814849055, -76.91077913380397, 222.3367350061851, 38.427581902585274,1.0,769
7540.214999999999,-0.3110727288057138, -1.6564612071869078, -1.6716996137525246, -1.3844969118225343, 1.5714234767541255, 2.094428429227896,-0.654702055923523, 0.2547442834328077, -0.27921370868599216, 0.02428326116577116, 0.0006482338197573258, -0.6541560791811855,1.0,-8791.073524340309, -2847.1304558938664, 21694.147969829424, -76.85846853574495, 222.31770308735537, 38.41250978616131,1.0,769
7540.223,-0.31266930655558234, -1.6558422987565997, -1.6723777629238317, -1.384438125306847, 1.5714250525811804, 2.092833180038184,-0.6554340873005783, 0.2531259380964716, -0.27726943426472644, 0.023956927356811427, 0.0006448739027545204, -0.6548898588763057,1.0,-8790.942945470759, -2846.3384047902164, 21694.13669311676, -76.90150780947491, 222.33806728754325, 38.42657579546366,1.0,769
7540.231,-0.3142681566015142, -1.655227147612302, -1.673051382141038, -1.3843801125850206, 1.5714266206920326, 2.0912356547068867,-0.6561607420310182, 0.25150491400921043, -0.2753254489131378, 0.02363356262564781, 0.0006415038630560761, -0.6556182572333656,1.0,-8790.671708626533, -2845.848737600166, 21694.30828278121, -76.8930169736193, 222.33631391686453, 38.40911688802922,1.0,769
7540.239,-0.3158692742455296, -1.65461575988569, -1.6737204722743426, -1.384322866654787, 1.5714281810641804, 2.0896358579467695,-0.6568820169889932, 0.24988125247544155, -0.2733817855031196, 0.02331315856293582, 0.0006381238048787964, -0.656341271145379,1.0,-8791.191409651725, -2846.3604868733482, 21694.213084425224, -76.89566570597441, 222.33081677434882, 38.423002258948344,1.0,769
7540.255,-0.31907829322725156, -1.6534042991357172, -1.6750450687103946, -1.384210647296059, 1.571431278502622, 2.0864294692995737,-0.6583084167043931, 0.24662618207330161, -0.2694955545529453, 0.02268119747731288, 0.0006313340511945678, -0.6577711346559784,1.0,-8790.873446305697, -2845.622109328172, 21694.066957356496, -76.91185068846693, 222.33631876897982, 38.41043520657027,1.0,769
7540.271,-0.32229632468094316, -1.6522079652479382, -1.6763515589569318, -1.3841014117607289, 1.5714343447175607, 2.0832140530336503,-0.659713267662647, 0.2433610564469998, -0.2656109986882387, 0.022060971895497654, 0.0006245054725360298, -0.6591794304759895,1.0,-8791.197908395783, -2845.7362987577526, 21693.85424842104, -76.89501449630242, 222.32818172913846, 38.417248913144846,1.0,769
7540.2789999999995,-0.32390870768242674, -1.6516154860371088, -1.6769980163100735, -1.3840478957148363, 1.5714358660605354, 2.081602971982399,-0.6604076077989979, 0.24172482567693532, -0.2636694280376167, 0.02175523631074867, 0.0006210768830861518, -0.6598754858968054,1.0,-8791.103801023588, -2845.9122905630893, 21693.853451770352, -76.89037329561847, 222.33675609743375, 38.41714967106927,1.0,769
7540.286999999999,-0.3255233287948416, -1.6510268066992646, -1.6776399495542575, -1.383995105027287, 1.5714373795309344, 2.0799896490770324,-0.6610965558541398, 0.24008620428003166, -0.26172837051763703, 0.021452405816490296, 0.0006176388999672966, -0.660566144474009,1.0,-8790.736994135435, -2846.3560416037135, 21693.99253340484, -76.89095238016981, 222.33467498943077, 38.409993084442675,1.0,769
7540.295,-0.3271401828862661, -1.6504419332504519, -1.6782773594788676, -1.383943032892037, 1.5714388851066463, 2.078374089463879,-0.6617801108271427, 0.2384452331862614, -0.2597878569620962, 0.021152470315139706, 0.0006141916238637166, -0.6612514051611702,1.0,-8790.689958623054, -2845.4999476562343, 21694.029975180638, -76.9169116755925, 222.34015249107813, 38.42450772986089,1.0,769
7540.303,-0.3287592647624473, -1.6498608716884666, -1.6789102468622854, -1.383891672532263, 1.5714403827656178, 2.076756298351487,-0.6624582719802657, 0.23680195324422182, -0.2578479178954022, 0.020855419495321697, 0.0006107351635915912, -0.6619312672339038,1.0,-8791.177623977992, -2846.0688574754704, 21694.018768257425, -76.88654721810545, 222.3282549526695, 38.41557013347909,1.0,769
7540.311,-0.3303805691667252, -1.6492836279924301, -1.679538612472009, -1.3838410172006697, 1.5714418724858612, 2.0751362810107707,-0.6631310388798249, 0.23515640523742695, -0.2559085835483654, 0.020561242816186525, 0.0006072696183334591, -0.6626057302300583,1.0,-8791.098401176168, -2846.082725450019, 21694.003480316504, -76.88984133927525, 222.31991480130432, 38.42668760725445,1.0,769
7540.3189999999995,-0.33200409077995907, -1.6487102081223508, -1.6801624570647968, -1.3837910601797727, 1.5714433542454445, 2.0735140427750927,-0.6637984113783363, 0.23350862986034446, -0.25396988383113983, 0.02026992949245236, 0.0006037950958071462, -0.6632747939798349,1.0,-8791.15489968079, -2846.1185013291224, 21694.228695738435, -76.8946724137063, 222.32640478403187, 38.41759102740892,1.0,769
7540.326999999999,-0.3336298242204663, -1.6481406180186955, -1.6807817813867914, -1.383741794782206, 1.571444828022503, 2.071889589040232,-0.6644603895864043, 0.23185866772661692, -0.25203184835317904, 0.01998146854206923, 0.0006003116982155181, -0.6639384586143279,1.0,-8791.032324037993, -2845.463306006036, 21694.06226144026, -76.9128486732246, 222.34363787025427, 38.43532218698843,1.0,769
7540.335,-0.3352577640439556, -1.6475748636019887, -1.6813965861736087, -1.383693214351073, 1.5714462937952398, 2.070262925264507,-0.6651169739215799, 0.2302065593570108, -0.2500945063996174, 0.019695848724641023, 0.0005968195302848135, -0.664596724524432,1.0,-8791.018469630768, -2846.194921069863, 21694.17790834156, -76.90530906160765, 222.33194065477352, 38.4155073206625,1.0,769
7540.351,-0.3385202407493182, -1.6464548854090433, -1.6826126400325805, -1.383598081914279, 1.571449201240868, 2.0670029897370576,-0.6664139639789233, 0.22689606555184785, -0.24622201867528296, 0.019133086514931886, 0.0005898093024435091, -0.6658970631380329,1.0,-8790.970158768547, -2845.1586513166394, 21693.98253259786, -76.9144219481272, 222.32092603253358, 38.42233116595622,1.0,769
7540.366999999999,-0.34179147608739324, -1.6453503204921054, -1.6838106243216036, -1.383505610234006, 1.5714520764092514, 2.0637342811125685,-0.6676893903085577, 0.22357747071314069, -0.24235264865079711, 0.018581548662234066, 0.0005827652382778172, -0.6671758184952707,1.0,-8790.551392703674, -2846.9639384643106, 21694.059130767015, -76.88585683115014, 222.3273317666086, 38.41543485460238,1.0,769
7540.375,-0.34343036396619553, -1.644803832589151, -1.6844028421084767, -1.3834603558671494, 1.571453501835692, 2.062096651200861,-0.6683190209852374, 0.22191523566261623, -0.2404192026196553, 0.0183099584835088, 0.0005792307771574525, -0.6678071063517572,1.0,-8790.748251810548, -2846.1955504939797, 21693.95575767497, -76.89045383353525, 222.31499289332714, 38.43618173657214,1.0,769
7540.383,-0.34507142424441106, -1.6442612154531, -1.6849905445604882, -1.3834157471810595, 1.5714549191284224, 2.0604568453148517,-0.6689432659627391, 0.22025109543468566, -0.23848661916506553, 0.01804113748207982, 0.0005756881678449955, -0.6684330036014292,1.0,-8790.95572661517, -2845.7207476880867, 21694.09888721661, -76.9115561832474, 222.32777046622817, 38.41835170078281,1.0,769
7540.391,-0.34671465103804966, -1.6437224748528099, -1.6855737323432232, -1.3833717777402788, 1.5714563282661203, 2.0588148693520765,-0.6695621275264071, 0.21858508982214697, -0.23655492532820094, 0.017775072921509358, 0.0005721375172190006, -0.6690535125339534,1.0,-8791.051769877648, -2845.7344637208607, 21694.1393860471, -76.88898698398503, 222.3315130667006, 38.420925582247946,1.0,769
7540.398999999999,-0.3483600384001484, -1.6431876165337842, -1.6861524061127309, -1.3833284411421944, 1.5714577292275447, 2.0571707292730492,-0.6701756082234824, 0.21691725849716437, -0.23462414781653165, 0.01751175184175343, 0.0005685789273096729, -0.6696686356961647,1.0,-8791.40455526745, -2846.7221151048325, 21694.106232059836, -76.87942004989176, 222.32985094007915, 38.41178982949452,1.0,769
7540.406999999999,-0.35000758032074586, -1.642656646217767, -1.6867265665156186, -1.3832857310173905, 1.5714591219915213, 2.055524431101157,-0.6707837108771915, 0.21524764101627836, -0.23269431301699994, 0.01725116108768665, 0.0005650124963990007, -0.6702783758635689,1.0,-8791.142292737448, -2845.4167202605267, 21694.160832799447, -76.90387725682564, 222.33010173019642, 38.41500312505892,1.0,769
7540.415,-0.3516572707268537, -1.6421295696023002, -1.687296214189205, -1.3832436410298747, 1.5714605065369562, 2.0538759809227916,-0.6713864385234776, 0.21357627678895438, -0.23076544695725304, 0.016993287275877286, 0.0005614383355694413, -0.6708827361207791,1.0,-8790.598226847362, -2846.175982551111, 21694.2864000028, -76.89426310932205, 222.33114461328773, 38.417684720111936,1.0,769
7540.423,-0.3533091034824407, -1.6416063923603144, -1.6878613497616204, -1.3832021648774164, 1.5714618828428273, 2.0522253848872585,-0.671983794476408, 0.2119032051209668, -0.2288375753675014, 0.016738116861971023, 0.0005578565423430497, -0.6714817197515257,1.0,-8790.67981064314, -2845.6339379956607, 21694.089539984197, -76.90826480992311, 222.33083641590383, 38.413008049446006,1.0,769
7540.431,-0.35496307238842295, -1.6410871201397397, -1.6884219738518773, -1.3831612962918927, 1.5714632508881963, 2.050572649206866,-0.6725757822956485, 0.21022846515117843, -0.2269107235912312, 0.016485636024749062, 0.0005542672215985933, -0.6720753303176562,1.0,-8790.76700525715, -2846.3036703134885, 21693.863936588605, -76.88498401626794, 222.3264910596485, 38.4157946322168,1.0,769
7540.438999999999,-0.3566191711826425, -1.640571758563075, -1.6889780870700015, -1.3831210290395735, 1.571464610652201, 2.0489177801569434,-0.6731624057675354, 0.2085520959132199, -0.22498491668514983, 0.016235830825490034, 0.0005506704758900249, -0.6726635716129397,1.0,-8791.133138794654, -2845.7237052334476, 21693.684397753437, -76.89905480931506, 222.33297247430443, 38.41878861418323,1.0,769
7540.446999999999,-0.3582773935398631, -1.6400603132269564, -1.6895296900171761, -1.3830813569213678, 1.5714659621140559, 2.0472607840758057,-0.673743668947754, 0.206874136272057, -0.2230601793210171, 0.015988687048375954, 0.0005470664098208485, -0.6732464476702403,1.0,-8790.87062424731, -2845.854755157019, 21694.046161750583, -76.91159101338457, 222.33165257034494, 38.426403746369914,1.0,769
7540.455,-0.35993773307177435, -1.6395527897017672, -1.6900767832858072, -1.3830422737731896, 1.5714673052530603, 2.045601667364761,-0.674319576107402, 0.20519462497518776, -0.2211365358732078, 0.015744190354815765, 0.0005434551231906718, -0.6738239627589863,1.0,-8790.609239609645, -2846.176609143895, 21694.272157491505, -76.89103881483703, 222.34535352389395, 38.41318699626902,1.0,769
7540.463,-0.36160018332698574, -1.6390491935312346, -1.6906193674596235, -1.383003773466264, 1.5714686400485958, 2.0439404364881457,-0.6748901317424609, 0.20351360060238693, -0.21921401034457721, 0.015502326172136295, 0.0005398367197318986, -0.6743961214113797,1.0,-8790.947150507518, -2846.3661800060045, 21694.08391886621, -76.88410205095764, 222.3275956480266, 38.421150193613016,1.0,769
7540.471,-0.3632647377910345, -1.6385495302319937, -1.6911574431138234, -1.3829658499073751, 1.5714699664801226, 2.0422770979732734,-0.67545534061747, 0.20183110158596712, -0.21729262639456876, 0.01526307971794029, 0.0005362112989902111, -0.6749629283549203,1.0,-8791.246564463814, -2845.925515829621, 21694.184183336354, -76.89641716444248, 222.31509658783853, 38.4168079672485,1.0,769
7540.478999999999,-0.3649313898863973, -1.6380538052932145, -1.6916910108151253, -1.382928497039246, 1.5714712845271865, 2.040611658410446,-0.676015207705992, 0.20014716621243261, -0.215372407354777, 0.015026436058478556, 0.0005325789669757327, -0.675524388557948,1.0,-8790.833040532421, -2845.2498230594438, 21694.046021156246, -76.91572714736935, 222.32671374435648, 38.43188628969838,1.0,769
7540.487,-0.3666001329725024, -1.6375620241761695, -1.6922200711219082, -1.3828917088407815, 1.5714725941694203, 2.038944124452953,-0.676569738195832, 0.19846183260120107, -0.21345337619519245, 0.014792380044810153, 0.000528939823302262, -0.6760805072358934,1.0,-8790.830932569223, -2845.888475658303, 21694.175753805233, -76.89435720531242, 222.317396183852, 38.41642203589217,1.0,769
7540.495,-0.3682709603457548, -1.6370741923138485, -1.692744624584285, -1.3828554793274108, 1.5714738953865435, 2.037274502816998,-0.6771189375110511, 0.19677513872474994, -0.21153555555876616, 0.014560896368112796, 0.0005252939675440087, -0.6766312898036934,1.0,-8790.859629253027, -2846.117148294922, 21694.077213855027, -76.88957218786229, 222.33610375446415, 38.42924567617473,1.0,769
7540.503,-0.3699438652395495, -1.6365903151105448, -1.6932646717442221, -1.3828198025513636, 1.5714751881583615, 2.035602800281733,-0.6776628112935643, 0.19508712237765516, -0.20961896771878935, 0.014331969504364614, 0.000521641504790871, -0.6771767419107693,1.0,-8791.295356501205, -2845.2349504520807, 21694.152428515074, -76.92131485230314, 222.33049751172825, 38.42247424287419,1.0,769
7540.5109999999995,-0.3716188408243042, -1.6361103979414588, -1.6937802131356232, -1.3827846726019946, 1.5714764724647674, 2.0339290236892307,-0.6782013654103584, 0.19339782119486276, -0.20770363460816135, 0.014105583751756695, 0.0005179825327945239, -0.6777168694110269,1.0,-8791.07730054115, -2846.0535967544774, 21693.84935450453, -76.90401130901822, 222.3332803611683, 38.436335098083276,1.0,769
7540.518999999999,-0.37329588020749327, -1.6356344461523005, -1.6942912492844329, -1.3827500836060675, 1.5714777482857472, 2.0322531799443744,-0.6787346059177986, 0.19170727263460552, -0.20578957780313537, 0.013881723232153729, 0.0005143171557211851, -0.6782516784013057,1.0,-8791.043831180621, -2846.570771737742, 21693.754585612944, -76.88277524657528, 222.32645162224821, 38.425314608571,1.0,769
7540.535,-0.37665612248456526, -1.6346944599467772, -1.6952998079187953, -1.382682505170532, 1.5714802743918155, 2.028895318931436,-0.6797851714859905, 0.18832258243654582, -0.20196537777399542, 0.01344151358963977, 0.0005069675801508196, -0.6793053661271141,1.0,-8791.12040101089, -2845.915299306893, 21694.023669877974, -76.90233157724495, 222.33207936985025, 38.414215919640554,1.0,769
7540.567,-0.38340106237124427, -1.632862303939934, -1.6972628845562427, -1.3825535855423903, 1.5714852239082977, 2.0221551018625177,-0.6818228296011566, 0.18153986275119105, -0.1943332044132826, 0.012590679294624907, 0.0004921959482880807, -0.681349209632964,1.0,-8791.03941530712, -2846.1274199800737, 21694.223337689768, -76.89598557324075, 222.34148911839554, 38.4128891674593,1.0,769
7540.590999999999,-0.3884809372153608, -1.6315301890822074, -1.6986879216673572, -1.3824621753733757, 1.5714888455733609, 2.0170787347605663,-0.6832957622353425, 0.17644229898517869, -0.18862388914262085, 0.011977909177813136, 0.0004810569282438505, -0.6828267299694112,1.0,-8791.130105854325, -2845.885027178201, 21694.118168598732, -76.89702439473646, 222.33282778338787, 38.42669292589335,1.0,769
7540.615,-0.3935787344782291, -1.6302342281782103, -1.7000724551308206, -1.3823751245549296, 1.5714923891151524, 2.011984416128937,-0.6847215195828352, 0.17133679083994116, -0.1829278275363797, 0.011386351747096507, 0.0004698691796791987, -0.6842570312788235,1.0,-8790.794294660687, -2846.173294234777, 21693.922799770527, -76.88344083847628, 222.33759853990313, 38.41861437052833,1.0,769
7540.638999999999,-0.3986942477811555, -1.6289745551741577, -1.7014164967616745, -1.3822922872712766, 1.5714958540245145, 2.0068723526538887,-0.6861003280976681, 0.16622428970742917, -0.17724548842835605, 0.010815524616604129, 0.0004586353244327159, -0.6856403402719485,1.0,-8791.11213840282, -2846.2809662111476, 21693.903322228012, -76.88090977084823, 222.3276096607746, 38.43283458905171,1.0,769
7540.647,-0.40040331938551965, -1.628562750896572, -1.701855514416783, -1.3822655864654347, 1.5714969914336374, 2.005164424643558,-0.6865495389853402, 0.16451873074554887, -0.1753545017519299, 0.010629770500224572, 0.0004548809099709669, -0.6860910417216458,1.0,-8790.822089944659, -2845.6316346320737, 21694.056455460614, -76.89183400304111, 222.32409371254795, 38.42325746937681,1.0,769
7540.655,-0.4021143280374533, -1.628154997985944, -1.7022900346401633, -1.382239332782687, 1.5714981200317866, 2.00345455642967,-0.6869935691356361, 0.16281253303308366, -0.17346510456697184, 0.010446246309282268, 0.00045112175771120283, -0.6865365576416204,1.0,-8790.831330858306, -2844.945471888702, 21694.334669417192, -76.93220483763218, 222.3408840737821, 38.43137929218415,1.0,769
7540.663,-0.4038272657220219, -1.6277513011910258, -1.7027200578296355, -1.3822135210742328, 1.571499239800735, 2.0017427560380274,-0.6874324279222681, 0.16110573056020822, -0.171577312101553, 0.010264933257132033, 0.0004473579597102616, -0.6869768974351657,1.0,-8790.890772772793, -2846.307096573508, 21694.50024798896, -76.88182176675912, 222.3291343702224, 38.42495234487819,1.0,769
7540.695,-0.41069814433899854, -1.6261771688510507, -1.7043951879846881, -1.3821145925183602, 1.5715036302239276, 1.994876395355622,-0.6891363422544236, 0.1542731458133873, -0.16404248237238656, 0.00956141293944447, 0.0004322582315285891, -0.6886866883986965,1.0,-8790.667226168049, -2846.318275848397, 21694.193863929133, -76.88952536763844, 222.33832031319287, 38.420166312601935,1.0,769
7540.7029999999995,-0.41242060481556386, -1.6257938225685633, -1.704802731752717, -1.382090914964456, 1.5715047055773979, 1.9931550566060903,-0.6895494901255683, 0.15256382218195075, -0.16216293009981006, 0.009390869699899718, 0.0004284726340284323, -0.6891012936482765,1.0,-8791.074814582831, -2845.8095900989892, 21694.004051198313, -76.88732014793595, 222.34304214125893, 38.4283099422544,1.0,769
7540.710999999999,-0.4141449449487, -1.6254145601109196, -1.7052057807432064, -1.382067649405112, 1.5715057719946632, 1.9914318351181186,-0.6899575259909765, 0.1508540933347072, -0.16028506675009743, 0.009222422328880906, 0.0004246829544278114, -0.689510782221908,1.0,-8791.197783502797, -2845.887482636451, 21693.844924699686, -76.8847353943799, 222.3290487255626, 38.42001718508854,1.0,769
7540.719,-0.4158711562959212, -1.6250393859624523, -1.705604335311131, -1.3820447909985036, 1.571506829458284, 1.9897067393443908,-0.6903604602347663, 0.14914399174296583, -0.15840890510907332, 0.00905605111598056, 0.0004208892853576893, -0.6899151645267371,1.0,-8791.046999562268, -2845.1042665172645, 21693.76232507022, -76.91149201156702, 222.3334262509702, 38.41831927265588,1.0,769
7540.727,-0.4175992303542344, -1.6246683045683472, -1.7059983958056018, -1.382022334947802, 1.5715078779509448, 1.9879797777980173,-0.6907583033869704, 0.14743354967701064, -0.15653445764860552, 0.00889173627153033, 0.0004170917235981822, -0.690314451073436,1.0,-8791.012525396747, -2846.111041503301, 21693.92783766092, -76.87622002850222, 222.33172077336445, 38.413640471772936,1.0,769
7540.735,-0.4193291585602976, -1.6243013203342693, -1.706387962569969, -1.382000276501402, 1.5715089174554415, 1.9862509590523645,-0.6911510660613263, 0.14572279918754816, -0.15466173650569956, 0.00872945791073915, 0.0004132903568357889, -0.6907086525416812,1.0,-8790.987648762117, -2845.6039151833484, 21694.040221719068, -76.91053169313685, 222.33925452265214, 38.428116572485095,1.0,769
7540.7429999999995,-0.42106093229058494, -1.6239384376260553, -1.7067730359418558, -1.381978610953242, 1.5715099479546948, 1.9845202917408842,-0.6915387590432871, 0.14401177207675397, -0.15279075343328968, 0.008569195952495372, 0.00040948527695904474, -0.6910977797041506,1.0,-8791.165980109146, -2845.650711378007, 21694.07209791222, -76.8971808016814, 222.33061088348944, 38.41657363580572,1.0,769
7540.750999999999,-0.42279454286154916, -1.6235796607693507, -1.7071536162532563, -1.3819573336430198, 1.5715109694317395, 1.9827877845569277,-0.6919213931995937, 0.14230049994733932, -0.1509215198875858, 0.008410930285842737, 0.0004056765735356962, -0.6914818434785804,1.0,-8791.298577663594, -2845.6600135019007, 21694.08788261669, -76.89489746668417, 222.33335319448076, 38.425644013163776,1.0,769
7540.759,-0.4245299815297896, -1.6232249940492913, -1.707529703830585, -1.3819364399564948, 1.5715119818697294, 1.981053446253669,-0.6922989795522266, 0.14058901416860353, -0.14905404696903046, 0.008254640647057958, 0.0004018643375825315, -0.6918608548697074,1.0,-8791.039547938251, -2846.8300925628464, 21694.123630539205, -76.88034340661702, 222.3243249258174, 38.411719280618684,1.0,769
7540.767,-0.4262672394922431, -1.6228744417101737, -1.7079012989947344, -1.3819159253257505, 1.5715129852519463, 1.9793172856437862,-0.6926715292204627, 0.13887734585803982, -0.14718834540533646, 0.008100306621043645, 0.0003980486612054448, -0.6922348250280103,1.0,-8791.139417166063, -2845.646404901512, 21694.166211718188, -76.90305551980956, 222.33681988826442, 38.43655665294389,1.0,769
7540.775,-0.4280063078863492, -1.6225280079551165, -1.708268402061158, -1.3818957852294371, 1.5715139795617872, 1.9775793115993976,-0.6930390534295184, 0.1371655259357642, -0.14532442563384892, 0.007947907757048088, 0.0003942296297339227, -0.6926037652047228,1.0,-8790.838944226687, -2845.5357346282, 21694.368053045404, -76.91220343304781, 222.3329925600142, 38.42226014121462,1.0,769
7540.782999999999,-0.42974717779024996, -1.6221856969457562, -1.7086310133399056, -1.3818760151930665, 1.5715149647827775, 1.9758395330517586,-0.6934015635137981, 0.13545358508155325, -0.14346229773846578, 0.007797423470847408, 0.00039040733623580906, -0.6929676867662028,1.0,-8791.00269497524, -2846.7183495705685, 21694.33610073662, -76.87731025137026, 222.33165748979945, 38.428993294814546,1.0,769
7540.790999999999,-0.4314898402229721, -1.6218475128019119, -1.7089891331356961, -1.38185661078926, 1.5715159408985657, 1.9740979589912104,-0.693759070926316, 0.13374155372610058, -0.14160197143890882, 0.007648833029406286, 0.00038658186618424325, -0.6933266011821173,1.0,-8791.257065830347, -2845.408710163758, 21694.007051170993, -76.90663102229846, 222.32740576204196, 38.425612703820946,1.0,769
7540.799,-0.433234286144625, -1.621513459601271, -1.7093427617479762, -1.3818375676380121, 1.5715169078929243, 1.972354598466877,-0.6941115872247765, 0.13202946209109337, -0.13974345615482414, 0.0075021156489508915, 0.00038275331134147235, -0.6936805200110749,1.0,-8791.473499289596, -2844.552369341929, 21694.060271629998, -76.93334631874984, 222.33250664733555, 38.44068981673257,1.0,769
7540.807,-0.4349805064566068, -1.6211835413790636, -1.7096918994709975, -1.3818188814069066, 1.5715178657497562, 1.970609460586498,-0.6944591240439822, 0.13031734015997265, -0.1378867609648334, 0.007357250436240008, 0.00037892175558119744, -0.6940294549373557,1.0,-8790.963832615154, -2846.551149321952, 21694.032909131318, -76.877683120792, 222.32467417110848, 38.42612459982911,1.0,769
7540.815,-0.4367284920018015, -1.6208577621277653, -1.7100365465938463, -1.3818005478114284, 1.5715188144530856, 1.968862554516222,-0.6948016931390416, 0.128605217673752, -0.13603189460149048, 0.007214216377339928, 0.00037508728926483753, -0.6943734177234345,1.0,-8791.166151796766, -2846.3768744629388, 21694.10454771972, -76.88486449746657, 222.33358985541935, 38.429744245378316,1.0,769
7540.822999999999,-0.43847823356479676, -1.620536125796784, -1.7103767034005086, -1.381782562615193, 1.571519753987066, 1.9671138894804183,-0.6951393063485336, 0.1268931241479508, -0.13417886547970734, 0.007072992379750168, 0.0003712499954883937, -0.6947124202316147,1.0,-8791.197876333992, -2845.9913185683527, 21694.06428580258, -76.8962632319666, 222.33103119642965, 38.41777167728128,1.0,769
7540.830999999999,-0.44022972187209586, -1.6202186362921482, -1.7107123701699338, -1.381764921630193, 1.5715206843359855, 1.9653634747614122,-0.6954719755973312, 0.12518108885908746, -0.13232768167988743, 0.006933557251864429, 0.0003674099652615655, -0.6950464744215148,1.0,-8791.088616399647, -2846.2267929429227, 21694.141499747762, -76.8830078635689, 222.33647155422955, 38.43427428847656,1.0,769
7540.839,-0.4419829475923347, -1.619905297476202, -1.711043547176092, -1.3817476207170412, 1.5715216054842538, 1.9636113196992895,-0.6957997129029011, 0.1234691408499674, -0.1304783509560189, 0.006795889706118592, 0.00036356728009918383, -0.695375592335354,1.0,-8791.566217534353, -2845.8721764276297, 21694.032386273662, -76.89812118763817, 222.32766950564348, 38.41903484909136,1.0,769
7540.847,-0.44373790133651525, -1.619596113167308, -1.7113702346880242, -1.38173065578522, 1.5715225174164191, 1.9618574336916688,-0.6961225303740105, 0.12175730893236596, -0.12863088074487652, 0.00665996838204269, 0.00035972202876308776, -0.695699786091129,1.0,-8791.366619960816, -2846.0013263003084, 21693.827690209455, -76.89304726317911, 222.33339238467795, 38.421530017217066,1.0,769
7540.855,-0.44549457365822764, -1.61929108713956, -1.7116924329698797, -1.381714022793349, 1.5715234201171564, 1.9601018261935081,-0.6964404401850577, 0.12004562167097253, -0.1267852781436408, 0.006525771809882127, 0.0003558742932130056, -0.6960190679099858,1.0,-8791.381812263862, -2845.999166605937, 21694.14429082325, -76.89098595737696, 222.34620850975466, 38.41758093282729,1.0,769
7540.862999999999,-0.4472529550538864, -1.6189902231224682, -1.7120101422810006, -1.3816977177493879, 1.5715243135712755, 1.9583445067168148,-0.6967534546112681, 0.11833410740199908, -0.12494154993665584, 0.006393278438708644, 0.0003520241608612075, -0.696333450066746,1.0,-8790.873956253481, -2845.0733674932517, 21693.941443294385, -76.91143607829918, 222.34193260175562, 38.434613354097934,1.0,769
7540.871,-0.44901303596297293, -1.6186935248006966, -1.7123233628759333, -1.381681736710922, 1.5715251977637184, 1.9565854848303956,-0.6970615859730792, 0.1166227942175958, -0.12309970258146836, 0.006262466638267569, 0.00034817171405040516, -0.696642944945251,1.0,-8791.509582709547, -2846.1510063301184, 21694.06970413245, -76.87519916663095, 222.34224983378118, 38.42097040588408,1.0,769
7540.879,-0.4507748067682762, -1.6184009958137358, -1.7126320950045333, -1.3816660757853274, 1.5715260726795632, 1.95482477015969,-0.6973648466924464, 0.11491170998708428, -0.12125974223570854, 0.0061333147146481175, 0.00034431703562938824, -0.6969475649679712,1.0,-8791.448123166047, -2845.4360444697986, 21694.109286876235, -76.90662111195323, 222.34012944898274, 38.42652501117655,1.0,769
7540.887,-0.4525382577961441, -1.6181126397556582, -1.7129363389119616, -1.381650731130084, 1.5715269383040238, 1.9530623723864637,-0.6976632492556385, 0.11320088231967575, -0.11942167470708806, 0.006005800846938678, 0.00034046020991029656, -0.6972473226433347,1.0,-8791.514685199683, -2845.7058824641863, 21694.30984494175, -76.89504340673858, 222.34267842780616, 38.42041390865597,1.0,769
7540.8949999999995,-0.4543033793167366, -1.6178284601748167, -1.7132360948387664, -1.3816356989529588, 1.571527794622452, 1.9512983012485412,-0.6979568062058382, 0.1114903386081566, -0.11758550552223244, 0.005879903193284939, 0.0003366013210413345, -0.6975422305474085,1.0,-8791.117355423361, -2845.595479213235, 21694.305611066313, -76.89437518523769, 222.3427554056334, 38.43273640206715,1.0,769
7540.902999999999,-0.4560701615442806, -1.6175484605735697, -1.7135313630209135, -1.3816209755122602, 1.5715286416203296, 1.9495325665396155,-0.6982455301451875, 0.10978010599510747, -0.11575123987533133, 0.005755599802798275, 0.0003327404477869839, -0.697832301331772,1.0,-8791.220817928404, -2846.447167792375, 21694.30460889785, -76.87522513323171, 222.33561446381015, 38.41782161399715,1.0,769
7540.911,-0.45783859463733734, -1.6172726444080023, -1.7138221436898577, -1.381606557117033, 1.571529479283282, 1.9477651781088958,-0.6985294337601115, 0.10807021138903981, -0.11391888265541353, 0.005632868659973226, 0.00032887767358439767, -0.6981175476850467,1.0,-8791.451287372576, -2845.4536815782985, 21694.441068870263, -76.89817475863373, 222.34391115538136, 38.43269077762869,1.0,769
7540.919,-0.4596086686990706, -1.6170010150876752, -1.714108437072551, -1.3815924401273358, 1.5715303075970717, 1.9459961458609012,-0.6988085297726743, 0.10636068145539744, -0.11208843843683688, 0.005511687674436023, 0.0003250130777154721, -0.6983979823793646,1.0,-8790.97519510806, -2845.4592725680714, 21694.182401422786, -76.902196779549, 222.32542695840283, 38.41826708442349,1.0,769
7540.927,-0.4613803737775184, -1.6167335759753225, -1.7143902433915397, -1.3815786209543859, 1.5715311265476035, 1.9442254797551721,-0.6990828309848324, 0.1046515426322948, -0.11025991150199009, 0.005392034704324335, 0.0003211467453577769, -0.6986736182145435,1.0,-8791.20047270275, -2846.2672310839425, 21694.12473410766, -76.8754053114042, 222.32817203756298, 38.440436399033445,1.0,769
