dlisjak-bit/sensor_synchronization/realtime_sync/robot_reference.csv
t,q0,q1,q2,q3,q4,q5,qd0,qd1,qd2,qd3,qd4,qd5,ss,f0,f1,f2,f3,f4,f5,tsf,do
1298.306,-0.5154541174378648, -2.1610328113780426, -1.142607548670548, -1.409297671897943, 1.5689123868834014, 1.2250781059153186,0.0, 0.0, 0.0, 0.0, 0.0, 0.0,1.0,-8737.703563670384, -2831.1759253499176, 21514.339450678628, -76.7090759812545, 220.80117111365524, 38.144750975297626,1.0,769
1298.81,-0.5153986177416083, -2.1609972633135595, -1.1426737571023118, -1.4092670595347432, 1.568912710902931, 1.225153853939648,0.4471941248024193, 0.2864319385017414, -0.5334807880800889, 0.24666205209616515, 0.0026108184316008254, 0.6103469699937946,1.0,-8737.782552995366, -2832.376470402126, 21514.451196582515, -76.67401728435976, 220.7977101443712, 38.12860997233375,1.0,769
1298.818,-0.5152806310631366, -2.1609216917638507, -1.1428145094573248, -1.409201980781205, 1.5689133997353144, 1.2253148864928745,0.44719412480241927, 0.28643193850174137, -0.5334807880800889, 0.24666205209616515, 0.002610818431600826, 0.6103469699937946,1.0,-8737.14214981194, -2832.438072435689, 21514.55161885684, -76.64438996494422, 220.82719252569666, 38.06969163357931,1.0,769
1298.826,-0.5150971707237542, -2.160804183733818, -1.1430333686976573, -1.4091007882536637, 1.5689144708174438, 1.225565279903803,0.4471941248024193, 0.2864319385017414, -0.5334807880800889, 0.24666205209616515, 0.002610818431600826, 0.6103469699937947,1.0,-8737.209296570687, -2831.6212423824763, 21514.90477758778, -76.67565866192066, 220.79480922035515, 37.998480900215554,1.0,769
1298.8339999999998,-0.5148482367234593, -2.1606447392234625, -1.1433303348233093, -1.408963481952119, 1.5689159241493196, 1.2259050341724336,0.44719412480241927, 0.2864319385017414, -0.5334807880800889, 0.24666205209616515, 0.0026108184316008254, 0.6103469699937947,1.0,-8736.832203988342, -2832.4047828709736, 21514.73578182508, -76.63992775963442, 220.81796501687126, 37.920931858722696,1.0,769
1298.8419999999999,-0.5145338290622536, -2.160443358232782, -1.1437054078342808, -1.4087900618765712, 1.5689177597309416, 1.2263341492987663,0.4471941248024193, 0.2864319385017414, -0.533480788080089, 0.24666205209616515, 0.002610818431600826, 0.6103469699937947,1.0,-8736.977451132252, -2832.4017720084958, 21514.68775672777, -76.60754545673117, 220.80217202519486, 37.82010532910445,1.0,769
1298.85,-0.5141539477401365, -2.1602000407617776, -1.1441585877305727, -1.40858052802702, 1.5689199775623097, 1.2268526252828011,0.44719412480241927, 0.28643193850174137, -0.5334807880800888, 0.24666205209616512, 0.0026108184316008254, 0.6103469699937946,1.0,-8737.111709764833, -2831.9799782604314, 21514.589837556676, -76.64461643822406, 220.79533124161662, 37.84463393558792,1.0,769
1298.858,-0.5137085927571077, -2.1599147868104502, -1.1446898745121832, -1.4083348804034657, 1.568922577643424, 1.227460462124538,0.44719412480241927, 0.28643193850174137, -0.5334807880800889, 0.24666205209616512, 0.0026108184316008254, 0.6103469699937947,1.0,-8737.459376499151, -2831.4498818534666, 21514.447526491072, -76.66092574534662, 220.79359979940722, 37.846903541026734,1.0,769
1298.866,-0.5131977641131673, -2.159587596378799, -1.145299268179114, -1.408053119005908, 1.5689255599742844, 1.228157659823977,0.4471941248024194, 0.2864319385017414, -0.533480788080089, 0.2466620520961652, 0.002610818431600826, 0.6103469699937947,1.0,-8737.2280381487, -2832.0190757053006, 21514.297873422696, -76.6429127093619, 220.78850004215587, 37.86099587123289,1.0,769
1298.874,-0.5126214618083162, -2.1592184694668246, -1.1459867687313636, -1.407735243834348, 1.568928924554891, 1.2289442183811181,0.4471941248024194, 0.2864319385017414, -0.5334807880800889, 0.24666205209616518, 0.002610818431600826, 0.6103469699937947,1.0,-8737.087601932944, -2832.252326048105, 21513.963493840885, -76.63708093707521, 220.80662771406793, 37.857308448491835,1.0,769
1298.8819999999998,-0.5119796858425527, -2.1588074060745264, -1.1467523761689327, -1.4073812548887839, 1.5689326713852436, 1.2298201377959614,0.44719412480241927, 0.28643193850174137, -0.5334807880800889, 0.24666205209616512, 0.002610818431600825, 0.6103469699937946,1.0,-8737.046256206433, -2831.7173275992327, 21513.867578098732, -76.65293699462143, 220.8043167691979, 37.86096107754091,1.0,769
1298.8899999999999,-0.5112724362158785, -2.1583544062019033, -1.147596090491822, -1.4069911521692173, 1.5689368004653426, 1.2307854180685067,0.44719412480241927, 0.28643193850174137, -0.5334807880800889, 0.24666205209616512, 0.002610818431600825, 0.6103469699937946,1.0,-8737.296296947188, -2831.6733415736344, 21514.027576142722, -76.65354362609051, 220.79856523800282, 37.87695635410887,1.0,769
1298.898,-0.5104997129282927, -2.1578594698489573, -1.1485179117000301, -1.4065649356756467, 1.5689413117951876, 1.2318400591987542,0.4471941248024193, 0.2864319385017414, -0.5334807880800889, 0.24666205209616515, 0.0026108184316008254, 0.6103469699937947,1.0,-8736.78280836242, -2832.3811730726466, 21513.861880827553, -76.63231418639955, 220.8120857630887, 37.881562059710234,1.0,769
1298.906,-0.5096615159797953, -2.1573225970156873, -1.1495178397935586, -1.4061026054080736, 1.5689462053747787, 1.2329840611867038,0.4471941248024193, 0.28643193850174137, -0.5334807880800889, 0.24666205209616515, 0.0026108184316008254, 0.6103469699937946,1.0,-8736.754437673182, -2832.096182213608, 21514.12937408128, -76.64402932042478, 220.8135551353015, 37.88209072982863,1.0,769
1298.914,-0.5087578453703872, -2.1567437877020943, -1.1505958747724065, -1.4056041613664974, 1.568951481204116, 1.2342174240323556,0.4471941248024194, 0.2864319385017414, -0.533480788080089, 0.24666205209616518, 0.002610818431600826, 0.6103469699937948,1.0,-8736.530956433995, -2831.7853622707753, 21514.692463263662, -76.66185527352542, 220.83124776945982, 37.9023427409075,1.0,769
1298.922,-0.5077887011000666, -2.1561230419081765, -1.1517520166365731, -1.4050696035509178, 1.5689571392831998, 1.2355401477357093,0.44719412480241927, 0.2864319385017414, -0.5334807880800889, 0.24666205209616515, 0.002610818431600826, 0.6103469699937946,1.0,-8737.157538743882, -2831.9399009017825, 21514.565546913316, -76.6372108996595, 220.77914518143393, 37.89132130071772,1.0,769
1298.9299999999998,-0.5067540831688353, -2.1554603596339357, -1.15298626538606, -1.404498931961335, 1.5689631796120294, 1.2369522322967652,0.4471941248024193, 0.2864319385017414, -0.5334807880800889, 0.24666205209616515, 0.0026108184316008254, 0.6103469699937947,1.0,-8737.768310305828, -2832.3338707437724, 21514.247064978765, -76.62609858017717, 220.74258647923477, 37.89034434079818,1.0,769
1298.9379999999999,-0.5056539915766924, -2.154755740879371, -1.1542986210208657, -1.4038921465977499, 1.5689696021906052, 1.2384536777155233,0.4471941248024193, 0.2864319385017414, -0.5334807880800889, 0.24666205209616518, 0.002610818431600826, 0.6103469699937947,1.0,-8737.404191550799, -2831.5602450832675, 21514.21934230645, -76.64244402970456, 220.7770887462384, 37.893950982898616,1.0,769
1298.946,-0.504488426323638, -2.1540091856444823, -1.1556890835409916, -1.4032492474601606, 1.5689764070189274, 1.2400444839919833,0.4471941248024193, 0.2864319385017414, -0.5334807880800889, 0.24666205209616515, 0.0026108184316008254, 0.6103469699937946,1.0,-8736.941716347666, -2831.5437873387, 21514.74680075206, -76.65142778096717, 220.7919769548967, 37.89399230516807,1.0,769
1298.954,-0.503257387409672, -2.1532206939292706, -1.1571576529464371, -1.402570234548568, 1.5689835940969956, 1.2417246511261455,0.4471941248024193, 0.28643193850174137, -0.533480788080089, 0.24666205209616515, 0.002610818431600826, 0.6103469699937947,1.0,-8736.033138432582, -2831.445043208457, 21514.8990827577, -76.67129263348397, 220.8517741821829, 37.90761054210651,1.0,769
1298.962,-0.5019608748347952, -2.152390265733734, -1.1587043292372021, -1.401855107862973, 1.56899116342481, 1.2434941791180099,0.44719412480241927, 0.28643193850174137, -0.5334807880800889, 0.24666205209616512, 0.0026108184316008254, 0.6103469699937946,1.0,-8736.907653833194, -2832.601215837496, 21514.664258635614, -76.62595419392792, 220.7983710524759, 37.891949430644615,1.0,769
1298.97,-0.500598888599006, -2.1515179010578738, -1.1603291124132866, -1.401103867403374, 1.5689991150023705, 1.2453530679675764,0.44719412480241927, 0.2864319385017414, -0.5334807880800889, 0.24666205209616518, 0.002610818431600826, 0.6103469699937946,1.0,-8737.58234028617, -2832.4334136781545, 21514.305835184703, -76.63835714607643, 220.76641208824742, 37.9034763125222,1.0,769
1298.9779999999998,-0.49917142870230613, -2.1506035999016913, -1.1620320024746906, -1.4003165131697726, 1.5690074488296772, 1.2473013176748449,0.4471941248024193, 0.28643193850174137, -0.5334807880800888, 0.24666205209616515, 0.0026108184316008254, 0.6103469699937946,1.0,-8738.111290777497, -2832.496161358248, 21514.142809991168, -76.63386341833603, 220.75941854637443, 37.887149727771856,1.0,769
1298.9859999999999,-0.49767849514469464, -2.149647362265183, -1.1638129994214141, -1.399493045162167, 1.56901616490673, 1.2493389282398155,0.4471941248024193, 0.2864319385017414, -0.5334807880800889, 0.24666205209616515, 0.002610818431600826, 0.6103469699937947,1.0,-8737.09496355365, -2831.68594749784, 21514.29030216344, -76.6474508995241, 220.79188691027497, 37.9102999459879,1.0,769
1298.994,-0.49612008792617246, -2.1486491881483527, -1.1656721032534572, -1.398633463380559, 1.569025263233529, 1.2514658996624883,0.4471941248024193, 0.2864319385017414, -0.5334807880800889, 0.24666205209616515, 0.0026108184316008254, 0.6103469699937946,1.0,-8736.15264820078, -2832.1646501958476, 21514.73779991953, -76.64260621275707, 220.84347213287663, 37.902471011989405,1.0,769
1299.002,-0.4944962070467378, -2.1476090775511985, -1.1676093139708197, -1.3977377678249479, 1.5690347438100742, 1.2536822319428633,0.44719412480241927, 0.2864319385017414, -0.5334807880800889, 0.24666205209616515, 0.002610818431600826, 0.6103469699937946,1.0,-8737.22756853451, -2831.982421868751, 21514.45618883379, -76.64805643553078, 220.80118826347643, 37.88911883589378,1.0,769
1299.01,-0.49280685250639156, -2.1465270304737203, -1.1696246315735017, -1.3968059584953334, 1.5690446066363657, 1.2559879250809403,0.44719412480241927, 0.28643193850174137, -0.5334807880800889, 0.24666205209616512, 0.0026108184316008254, 0.6103469699937946,1.0,-8738.077475941429, -2831.5840096318243, 21514.453114055188, -76.64869335389412, 220.77480726231823, 37.90572909650595,1.0,769
1299.018,-0.4910520243051346, -2.145403046915918, -1.1717180560615033, -1.3958380353917157, 1.5690548517124032, 1.2583829790767194,0.4471941248024193, 0.2864319385017414, -0.533480788080089, 0.24666205209616515, 0.002610818431600826, 0.6103469699937946,1.0,-8738.427020556479, -2831.9503243089957, 21514.507167063384, -76.63312773985308, 220.76995325755615, 37.90159540494173,1.0,769
1299.0259999999998,-0.4892317224429661, -2.144237126877792, -1.1738895874348243, -1.3948339985140947, 1.5690654790381868, 1.2608673939302006,0.4471941248024193, 0.2864319385017414, -0.533480788080089, 0.24666205209616515, 0.0026108184316008254, 0.6103469699937946,1.0,-8736.221894138062, -2831.4509676557145, 21514.97006653283, -76.65911950955618, 220.86532185272216, 37.893232777444155,1.0,769
1299.0339999999999,-0.487345946919886, -2.1430292703593423, -1.1761392256934649, -1.3937938478624714, 1.5690764886137167, 1.2634411696413839,0.4471941248024193, 0.2864319385017414, -0.5334807880800889, 0.24666205209616518, 0.002610818431600826, 0.6103469699937947,1.0,-8737.68764670701, -2831.4328089991477, 21515.303928197703, -76.66003583098893, 220.80400094747154, 37.904547449224964,1.0,769
1299.042,-0.48539469773589516, -2.1417794773605685, -1.178466970837425, -1.392717583436844, 1.5690878804389927, 1.2661043062102693,0.4471941248024194, 0.2864319385017414, -0.5334807880800889, 0.24666205209616518, 0.002610818431600826, 0.6103469699937947,1.0,-8737.752400844265, -2831.718941463255, 21514.46371663364, -76.66042244893416, 220.77555907993468, 37.91257875733663,1.0,769
1299.05,-0.4833779748909919, -2.1404877478814726, -1.1808728228667054, -1.391605205237214, 1.569099654514015, 1.2688568036368568,0.44719412480241927, 0.2864319385017414, -0.5334807880800889, 0.24666205209616512, 0.002610818431600826, 0.6103469699937947,1.0,-8737.278251276093, -2832.5864173947066, 21514.321617070964, -76.63569125800635, 220.79509032997794, 37.89675010298774,1.0,769
1299.058,-0.4812957783851779, -2.139154081922051, -1.1833567817813044, -1.3904567132635801, 1.5691118108387831, 1.2716986619211466,0.4471941248024193, 0.2864319385017414, -0.5334807880800889, 0.24666205209616518, 0.002610818431600826, 0.6103469699937946,1.0,-8737.214759456068, -2831.719322027614, 21514.653753998973, -76.66102543980597, 220.81557398201443, 37.89498490584239,1.0,769
1299.066,-0.47914810821845144, -2.137778479482307, -1.185918847581224, -1.3892721075159438, 1.5691243494132978, 1.2746298810631382,0.4471941248024194, 0.2864319385017414, -0.533480788080089, 0.24666205209616518, 0.002610818431600826, 0.6103469699937947,1.0,-8737.898572536838, -2831.829914813715, 21514.06833099896, -76.64900628219289, 220.77598688470704, 37.899714215494384,1.0,769
1299.0739999999998,-0.4769349643908143, -2.1363609405622386, -1.188559020266462, -1.3880513879943042, 1.5691372702375583, 1.2776504610628323,0.44719412480241927, 0.28643193850174137, -0.5334807880800889, 0.24666205209616515, 0.0026108184316008254, 0.6103469699937946,1.0,-8737.334513745927, -2832.0586431136544, 21514.25333134931, -76.63379845296413, 220.81074212271318, 37.89570009456773,1.0,769
1299.0819999999999,-0.47465634690226643, -2.134901465161846, -1.1912772998370196, -1.3867945546986604, 1.5691505733115654, 1.280760401920228,0.4471941248024193, 0.28643193850174137, -0.5334807880800889, 0.24666205209616515, 0.002610818431600826, 0.6103469699937947,1.0,-8737.756067256696, -2831.850120230677, 21514.280649774762, -76.63843969547122, 220.77861803245128, 37.90412825704769,1.0,769
1299.09,-0.4723122557528061, -2.1334000532811306, -1.1940736862928976, -1.3855016076290152, 1.5691642586353183, 1.2839597036353263,0.4471941248024193, 0.2864319385017414, -0.5334807880800889, 0.24666205209616515, 0.002610818431600826, 0.6103469699937946,1.0,-8737.61919323852, -2831.615181482457, 21514.06889079054, -76.65762819674015, 220.79228990821775, 37.9071846632921,1.0,769
1299.098,-0.4699026909424351, -2.131856704920091, -1.1969481796340942, -1.384172546785365, 1.5691783262088175, 1.2872483662081264,0.4471941248024193, 0.2864319385017414, -0.5334807880800889, 0.24666205209616518, 0.002610818431600826, 0.6103469699937947,1.0,-8737.090347519526, -2832.347225933774, 21513.952647003975, -76.62554399460333, 220.81397582691886, 37.89531911956365,1.0,769
1299.106,-0.4674276524711516, -2.130271420078728, -1.1999007798606112, -1.3828073721677132, 1.5691927760320628, 1.2906263896386287,0.44719412480241927, 0.28643193850174137, -0.5334807880800889, 0.24666205209616512, 0.0026108184316008254, 0.6103469699937946,1.0,-8738.146756118771, -2832.1820704493457, 21514.209379891072, -76.62788926491095, 220.76751580142462, 37.899640861610294,1.0,769
1299.114,-0.4648871403389574, -2.1286441987570415, -1.2029314869724468, -1.3814060837760573, 1.5692076081050543, 1.2940937739268332,0.4471941248024193, 0.2864319385017414, -0.533480788080089, 0.24666205209616518, 0.002610818431600826, 0.6103469699937947,1.0,-8736.563541517065, -2831.6137481511587, 21514.589370449426, -76.65345730087958, 220.8281286284668, 37.89570814199513,1.0,769
1299.1219999999998,-0.4622811545458516, -2.126975040955031, -1.2060403009696028, -1.3799686816103982, 1.569222822427792, 1.2976505190727399,0.4471941248024194, 0.2864319385017414, -0.533480788080089, 0.24666205209616518, 0.002610818431600826, 0.6103469699937947,1.0,-8737.161544517017, -2832.8302863520303, 21514.763652913876, -76.61035233799578, 220.8172759831844, 37.89745561012526,1.0,769
1299.1299999999999,-0.45960969509183514, -2.125263946672696, -1.2092272218520783, -1.3784951656707367, 1.5692384190002757, 1.3012966250763485,0.4471941248024193, 0.2864319385017414, -0.5334807880800889, 0.24666205209616515, 0.0026108184316008254, 0.6103469699937947,1.0,-8737.038305857652, -2832.071873904458, 21514.541320290118, -76.63359912754035, 220.800882229121, 37.90592394420557,1.0,769
1299.138,-0.4568727619769062, -2.123510915910039, -1.2124922496198725, -1.376985535957071, 1.5692543978225058, 1.3050320919376592,0.4471941248024192, 0.28643193850174137, -0.5334807880800888, 0.24666205209616512, 0.0026108184316008254, 0.6103469699937946,1.0,-8737.614613784015, -2831.9886101527973, 21514.49329626727, -76.6376509476357, 220.78809871248075, 37.924473964621,1.0,769
1299.146,-0.45407035520106653, -2.121715948667057, -1.215835384272987, -1.375439792469403, 1.5692707588944819, 1.3088569196566722,0.44719412480241927, 0.28643193850174137, -0.5334807880800889, 0.24666205209616512, 0.002610818431600826, 0.6103469699937946,1.0,-8737.828702887027, -2831.5265180606375, 21514.49903506917, -76.64201865862509, 220.78121770668707, 37.906982296142104,1.0,769
1299.154,-0.4512024747643153, -2.119879044943751, -1.2192566258114201, -1.3738579352077318, 1.5692875022162043, 1.312771108233387,0.4471941248024193, 0.28643193850174137, -0.5334807880800889, 0.24666205209616512, 0.0026108184316008254, 0.6103469699937946,1.0,-8737.210288311988, -2831.3361640119483, 21514.794898199798, -76.65230534946875, 220.80589345101777, 37.90669585279841,1.0,769
1299.162,-0.4482691206666525, -2.118000204740122, -1.2227559742351737, -1.3722399641720564, 1.5693046277876728, 1.316774657667804,0.44719412480241927, 0.28643193850174137, -0.5334807880800889, 0.24666205209616512, 0.0026108184316008254, 0.6103469699937946,1.0,-8738.92522335234, -2831.6196930811166, 21514.78992986129, -76.63677711879745, 220.744703885224, 37.86344931981424,1.0,769
1299.1699999999998,-0.44527029290807807, -2.116079428056169, -1.2263334295442467, -1.3705858793623786, 1.5693221356088873, 1.3208675679599233,0.44719412480241927, 0.28643193850174137, -0.5334807880800888, 0.24666205209616515, 0.0026108184316008254, 0.6103469699937946,1.0,-8736.234684280393, -2831.076983231693, 21514.24805883607, -76.66652774060381, 220.87330611855606, 37.88545130323914,1.0,769
1299.1779999999999,-0.4422059914885921, -2.1141167148918925, -1.2299889917386393, -1.3688956807786976, 1.5693400256798482, 1.3250498391097447,0.44719412480241927, 0.2864319385017414, -0.5334807880800889, 0.24666205209616518, 0.002610818431600826, 0.6103469699937947,1.0,-8740.799955650149, -2832.127302134034, 21514.479636275097, -76.61394360085978, 220.67152591913788, 37.88360398031304,1.0,769
1299.186,-0.4390762164081954, -2.112112065247292, -1.2337226608183514, -1.3671693684210133, 1.5693582980005552, 1.329321471117268,0.4471941248024193, 0.2864319385017414, -0.5334807880800889, 0.24666205209616518, 0.002610818431600826, 0.6103469699937946,1.0,-8735.410530311614, -2831.19741744552, 21514.238799475483, -76.64287746931515, 220.90547869455094, 37.88812510256088,1.0,769
1299.194,-0.4358809676668871, -2.110065479122367, -1.237534436783383, -1.3654069422893267, 1.5693769525710084, 1.3336824639824936,0.4471941248024193, 0.2864319385017414, -0.5334807880800889, 0.24666205209616515, 0.0026108184316008254, 0.6103469699937947,1.0,-8738.764904384472, -2832.3743216407256, 21514.75528577053, -76.61260871230598, 220.71660161486, 37.88456150070763,1.0,769
1299.202,-0.43262024526466725, -2.1079769565171196, -1.241424319633734, -1.363608402383636, 1.5693959893912075, 1.3381328177054213,0.44719412480241927, 0.28643193850174137, -0.5334807880800889, 0.24666205209616515, 0.002610818431600826, 0.6103469699937946,1.0,-8734.57026520896, -2831.647387556195, 21514.119880099795, -76.66171794247467, 220.9372971308352, 37.87500082834404,1.0,769
1299.21,-0.4292940492015358, -2.105846497431548, -1.2453923093694046, -1.3617737487039427, 1.5694154084611531, 1.342672532286051,0.4471941248024193, 0.28643193850174137, -0.5334807880800889, 0.24666205209616515, 0.0026108184316008254, 0.6103469699937947,1.0,-8740.563303051431, -2833.451752075821, 21514.644976132255, -76.56840000844105, 220.66724369389135, 37.89776958786149,1.0,769
1299.2179999999998,-0.42590237947749277, -2.1036741018656526, -1.2494384059903947, -1.3599029812502454, 1.5694352097808446, 1.347301607724383,0.4471941248024193, 0.28643193850174137, -0.5334807880800889, 0.24666205209616512, 0.0026108184316008254, 0.6103469699937946,1.0,-8735.798773249224, -2831.14357099916, 21514.056611357577, -76.66737084170819, 220.88889639355085, 37.90615811636229,1.0,769
1299.2259999999999,-0.42244523609253815, -2.1014597698194333, -1.2535626094967043, -1.357996100022545, 1.5694553933502826, 1.3520200440204169,0.4471941248024193, 0.2864319385017414, -0.533480788080089, 0.24666205209616518, 0.002610818431600826, 0.6103469699937947,1.0,-8740.322571951865, -2832.595384550762, 21514.735164598373, -76.61188426625722, 220.66814188734105, 37.855038164547864,1.0,769
1299.234,-0.41892261904667283, -2.099203501292891, -1.2577649198883334, -1.356053105020842, 1.5694759591694665, 1.356827841174153,0.4471941248024193, 0.2864319385017414, -0.5334807880800889, 0.24666205209616515, 0.002610818431600826, 0.6103469699937947,1.0,-8734.369777116168, -2830.788990051603, 21514.685472881614, -76.66219270994625, 220.95615394791594, 37.87539796805004,1.0,769
1299.242,-0.4153345283398959, -2.0969052962860246, -1.262045337165282, -1.3540739962451358, 1.5694969072383966, 1.361724999185591,0.4471941248024193, 0.2864319385017414, -0.5334807880800889, 0.24666205209616518, 0.002610818431600826, 0.6103469699937947,1.0,-8740.845599880906, -2831.517726576366, 21513.900897585594, -76.61474076612487, 220.62469294722547, 37.87009368926971,1.0,769
1299.25,-0.41168096397220744, -2.0945651547988344, -1.2664038613275501, -1.3520587736954264, 1.5695182375570729, 1.3667115180547313,0.4471941248024193, 0.28643193850174137, -0.5334807880800889, 0.24666205209616518, 0.0026108184316008254, 0.6103469699937946,1.0,-8735.794216398448, -2830.5781534228354, 21514.07249959585, -76.68404824054159, 220.89298580765006, 37.881565655726405,1.0,769
1299.258,-0.40796192594360736, -2.0921830768313203, -1.2708404923751386, -1.3500074373717137, 1.5695399501254954, 1.3717873977815738,0.44719412480241927, 0.28643193850174137, -0.5334807880800889, 0.24666205209616512, 0.0026108184316008254, 0.6103469699937946,1.0,-8738.15387754632, -2831.592158960394, 21514.268704167902, -76.62593017699118, 220.74120746614886, 37.88750677230061,1.0,769
1299.2659999999998,-0.4041774142540966, -2.0897590623834823, -1.2753552303080458, -1.3479199872739978, 1.569562044943664, 1.3769526383661184,0.4471941248024193, 0.2864319385017414, -0.5334807880800889, 0.24666205209616518, 0.002610818431600826, 0.6103469699937947,1.0,-8738.513853330376, -2831.883880882492, 21514.48237208949, -76.63111173460814, 220.752101247888, 37.8863867640506,1.0,769
1299.274,-0.40032742890367334, -2.0872931114553204, -1.2799480751262724, -1.3457964234022786, 1.5695845220115787, 1.382207239808365,0.4471941248024193, 0.2864319385017414, -0.5334807880800889, 0.24666205209616512, 0.0026108184316008254, 0.6103469699937946,1.0,-8735.93561805274, -2832.480440622515, 21514.33575936041, -76.6143435217889, 220.86074759217053, 37.87650362966792,1.0,769
1299.282,-0.3964119698923394, -2.0847852240468354, -1.2846190268298194, -1.3436367457565561, 1.5696073813292397, 1.3875512021083136,0.44719412480241927, 0.28643193850174137, -0.5334807880800889, 0.24666205209616515, 0.0026108184316008254, 0.6103469699937946,1.0,-8740.230536247342, -2831.760132223664, 21514.084637538912, -76.63544407182349, 220.70041370518845, 37.868998430018564,1.0,769
1299.29,-0.39243103722009387, -2.0822354001580266, -1.289368085418685, -1.3414409543368304, 1.5696306228966468, 1.3929845252659645,0.4471941248024193, 0.2864319385017414, -0.5334807880800889, 0.24666205209616515, 0.002610818431600826, 0.6103469699937946,1.0,-8736.427077661885, -2831.9858072252237, 21514.644214351643, -76.63591579201795, 220.84914149299345, 37.87195561548222,1.0,769
1299.298,-0.38838463088693675, -2.0796436397888938, -1.2941952508928711, -1.3392090491431023, 1.5696542467138002, 1.3985072092813176,0.4471941248024192, 0.28643193850174137, -0.5334807880800889, 0.24666205209616515, 0.002610818431600826, 0.6103469699937947,1.0,-8739.15856932329, -2831.836618727235, 21514.386801061308, -76.62243463816, 220.73205916602024, 37.867383610765586,1.0,769
1299.306,-0.38427275089286805, -2.077009942939437, -1.2991005232523758, -1.336941030175371, 1.5696782527806996, 1.4041192541543726,0.44719412480241927, 0.2864319385017414, -0.5334807880800889, 0.24666205209616515, 0.0026108184316008254, 0.6103469699937946,1.0,-8738.768213872512, -2831.4763011641026, 21514.921114283974, -76.64289995129565, 220.77335321818015, 37.89369807822246,1.0,769
1299.3139999999999,-0.38009539723788865, -2.0743343096096574, -1.3040839024972009, -1.3346368974336356, 1.5697026410973451, 1.4098206598851297,0.4471941248024194, 0.2864319385017414, -0.533480788080089, 0.24666205209616515, 0.002610818431600826, 0.6103469699937947,1.0,-8735.762657276535, -2830.739956442356, 21514.53465228321, -76.66377259992572, 220.9002001073884, 37.89965150715267,1.0,769
1299.322,-0.37585256992199767, -2.0716167397995537, -1.3091453886273445, -1.3322966509178977, 1.569727411663737, 1.415611426473589,0.4471941248024193, 0.28643193850174137, -0.5334807880800889, 0.24666205209616515, 0.0026108184316008254, 0.6103469699937947,1.0,-8739.749921712402, -2831.051659329465, 21514.46300202445, -76.63847642677337, 220.69344727933202, 37.841973402032096,1.0,769
1299.33,-0.3715442689451942, -2.068857233509126, -1.3142849816428086, -1.3299202906281558, 1.5697525644798749, 1.4214915539197504,0.44719412480241927, 0.28643193850174137, -0.5334807880800889, 0.24666205209616512, 0.0026108184316008254, 0.6103469699937946,1.0,-8738.613043146423, -2832.0289380716495, 21514.426292554483, -76.61917969858607, 220.74476201819658, 37.85771185796057,1.0,769
1299.338,-0.36717049430748006, -2.0660557907383748, -1.3195026815435913, -1.3275078165644114, 1.5697780995457589, 1.4274610422236138,0.44719412480241927, 0.28643193850174137, -0.533480788080089, 0.24666205209616515, 0.0026108184316008254, 0.6103469699937947,1.0,-8736.325197713992, -2832.742615941125, 21514.082636697454, -76.59108923317274, 220.8484027064352, 37.86994625780733,1.0,769
1299.346,-0.3627312460088552, -2.0632124114872994, -1.3247984883296944, -1.3250592287266638, 1.5698040168613892, 1.4335198913851794,0.4471941248024193, 0.2864319385017414, -0.5334807880800889, 0.24666205209616515, 0.0026108184316008254, 0.6103469699937946,1.0,-8738.325712945247, -2830.784184788923, 21514.248466915524, -76.66466742530034, 220.77221150249835, 37.85468121788898,1.0,769
1299.354,-0.3582265240493179, -2.0603270957559, -1.330172402001116, -1.322574527114913, 1.5698303164267657, 1.4396681014044472,0.4471941248024193, 0.2864319385017414, -0.5334807880800889, 0.24666205209616518, 0.002610818431600826, 0.6103469699937947,1.0,-8738.766535456707, -2831.483259576037, 21513.908600010385, -76.61602119471829, 220.72423188259967, 37.877177458631905,1.0,769
1299.3619999999999,-0.35365632842886985, -2.0573998435441787, -1.3356244225578582, -1.3200537117291598, 1.5698569982418882, 1.445905672281417,0.44719412480241927, 0.28643193850174137, -0.5334807880800889, 0.24666205209616518, 0.002610818431600826, 0.6103469699937947,1.0,-8738.459087365956, -2831.6134488685266, 21514.187431987695, -76.6429631082465, 220.79114424012153, 37.89867492256647,1.0,769
1299.37,-0.34902065914750935, -2.0544306548521316, -1.3411545499999198, -1.3174967825694024, 1.569884062306757, 1.4522326040160891,0.44719412480241927, 0.28643193850174137, -0.5334807880800889, 0.24666205209616512, 0.0026108184316008254, 0.6103469699937946,1.0,-8736.99443049442, -2831.1898619733, 21514.30136703894, -76.64393199239873, 220.84213338857518, 37.88877545069522,1.0,769
1299.378,-0.34431951620523815, -2.0514195296797624, -1.346762784327301, -1.3149037396356427, 1.569911508621372, 1.458648896608463,0.4471941248024193, 0.28643193850174137, -0.5334807880800889, 0.24666205209616518, 0.002610818431600826, 0.6103469699937946,1.0,-8739.768528795317, -2830.6205177194024, 21514.37633010711, -76.65584871074603, 220.72126836491003, 37.89255019451309,1.0,769
1299.386,-0.33955289960205626, -2.0483664680270683, -1.3524491255400015, -1.3122745829278788, 1.569939337185733, 1.4651545500585392,0.44719412480241927, 0.2864319385017414, -0.5334807880800889, 0.24666205209616512, 0.0026108184316008254, 0.6103469699937946,1.0,-8738.086920771282, -2831.5668515535554, 21514.553721045133, -76.6441743752703, 220.80994620954243, 37.88478046239695,1.0,769
1299.394,-0.3347208093379619, -2.0452714698940504, -1.3582135736380216, -1.3096093124461117, 1.5699675479998403, 1.4717495643663174,0.44719412480241927, 0.28643193850174137, -0.5334807880800889, 0.24666205209616515, 0.002610818431600825, 0.6103469699937946,1.0,-8738.896328176113, -2832.331124177109, 21514.48001033559, -76.60111764692101, 220.7843345438646, 37.86970915462692,1.0,769
1299.402,-0.32982324541295593, -2.0421345352807094, -1.3640561286213604, -1.3069079281903422, 1.5699961410636936, 1.478433939531798,0.4471941248024193, 0.2864319385017414, -0.5334807880800889, 0.24666205209616515, 0.0026108184316008254, 0.6103469699937947,1.0,-8736.008032502157, -2830.8028771897043, 21514.686545108154, -76.66098923669833, 220.92450475080966, 37.899881317939844,1.0,769
1299.4099999999999,-0.3248602078270393, -2.0389556641870445, -1.3699767904900195, -1.3041704301605694, 1.5700251163772931, 1.4852076755549803,0.4471941248024193, 0.2864319385017414, -0.533480788080089, 0.24666205209616518, 0.002610818431600826, 0.6103469699937947,1.0,-8738.722387627573, -2831.8978353137127, 21514.504778444418, -76.62013508992382, 220.75287063622864, 37.84975146023831,1.0,769
1299.418,-0.31983169658021104, -2.0357348566130558, -1.375975559243999, -1.3013968183567934, 1.570054473940639, 1.492070772435865,0.4471941248024193, 0.28643193850174137, -0.533480788080089, 0.24666205209616515, 0.002610818431600826, 0.6103469699937946,1.0,-8739.642048704613, -2831.28292448115, 21514.379529729908, -76.61585976816119, 220.71175232654173, 37.85492642473636,1.0,769
1299.426,-0.3147377116724712, -2.032472112558743, -1.3820524348832972, -1.2985870927790142, 1.570084213753731, 1.4990232301744517,0.4471941248024193, 0.2864319385017414, -0.5334807880800889, 0.24666205209616515, 0.0026108184316008254, 0.6103469699937947,1.0,-8739.413616008707, -2831.3742761349076, 21513.87575428588, -76.6281793828432, 220.75039603772404, 37.90195743505751,1.0,769
1299.434,-0.3095782531038198, -2.029167432024108, -1.3882074174079149, -1.2957412534272317, 1.570114335816569, 1.5060650487707405,0.44719412480241927, 0.28643193850174137, -0.5334807880800888, 0.24666205209616512, 0.0026108184316008254, 0.6103469699937946,1.0,-8737.84311275571, -2831.013449033877, 21513.527542424657, -76.64667624570262, 220.80346240511625, 37.88324861718982,1.0,769
1299.442,-0.3043533208742577, -2.0258208150091477, -1.394440506817852, -1.292859300301446, 1.5701448401291531, 1.5131962282247313,0.4471941248024193, 0.2864319385017414, -0.5334807880800889, 0.24666205209616515, 0.002610818431600826, 0.6103469699937946,1.0,-8737.866602562, -2831.25037947268, 21513.928364352832, -76.62921179646116, 220.83379379436553, 37.90624917583162,1.0,769
1299.45,-0.2990629149837831, -2.022432261513864, -1.4007517031131087, -1.289941233401657, 1.5701757266914835, 1.5204167685364245,0.44719412480241927, 0.28643193850174137, -0.5334807880800889, 0.24666205209616512, 0.0026108184316008254, 0.6103469699937946,1.0,-8737.27398360378, -2831.261409376697, 21513.959676878876, -76.63533594050665, 220.83671617542257, 37.919735654195534,1.0,769
1299.4579999999999,-0.29370703543239784, -2.0190017715382567, -1.4071410062936849, -1.2869870527278646, 1.5702069955035602, 1.5277266697058196,0.4471941248024193, 0.28643193850174137, -0.5334807880800889, 0.24666205209616515, 0.0026108184316008254, 0.6103469699937947,1.0,-8740.561910880413, -2831.194894651928, 21513.932320654458, -76.65588931266942, 220.68199827619623, 37.88957245716972,1.0,769
1299.466,-0.288285682220101, -2.015529345082326, -1.4136084163595815, -1.28399675828007, 1.5702386465653828, 1.535125931732917,0.4471941248024193, 0.2864319385017414, -0.5334807880800889, 0.24666205209616515, 0.0026108184316008254, 0.6103469699937946,1.0,-8739.367668635743, -2831.108338659159, 21514.56818560461, -76.61858041683703, 220.7320479081236, 37.84304963710102,1.0,769
1299.474,-0.28279885534689253, -2.012014982146071, -1.4201539333107966, -1.2809703500582712, 1.570270679876952, 1.5426145546177163,0.4471941248024193, 0.2864319385017414, -0.5334807880800889, 0.24666205209616515, 0.002610818431600826, 0.6103469699937947,1.0,-8739.143648129684, -2830.8743382657967, 21514.43888379038, -76.63431016067045, 220.71041014498468, 37.78915275872234,1.0,769
1299.482,-0.2772465548127734, -2.0084586827294926, -1.4267775571473313, -1.27790782806247, 1.5703030954382668, 1.5501925383602178,0.4471941248024193, 0.2864319385017414, -0.5334807880800889, 0.24666205209616518, 0.002610818431600826, 0.6103469699937946,1.0,-8738.006144349798, -2830.89438922058, 21514.73043499204, -76.6382075531476, 220.79523398443956, 37.847964132475,1.0,769
1299.49,-0.27162878061774176, -2.0048604468325903, -1.4334792878691864, -1.2748091922926648, 1.570335893249328, 1.5578598829604213,0.44719412480241927, 0.28643193850174137, -0.5334807880800889, 0.24666205209616512, 0.002610818431600826, 0.6103469699937947,1.0,-8737.03330002101, -2832.3271700144287, 21514.569644881012, -76.60050731057095, 220.87623115061376, 37.89317998604321,1.0,769
1299.498,-0.26594553276179944, -2.001220274455364, -1.4402591254763601, -1.271674442748857, 1.5703690733101354, 1.565616588418327,0.44719412480241927, 0.28643193850174137, -0.5334807880800889, 0.24666205209616512, 0.002610818431600825, 0.6103469699937946,1.0,-8739.616771241812, -2830.335233407981, 21513.43472465153, -76.65023841522529, 220.76046062078814, 37.917578719201686,1.0,769
1299.5059999999999,-0.26019681124494554, -1.997538165597815, -1.4471170699688534, -1.2685035794310462, 1.570402635620689, 1.5734626547339348,0.44719412480241927, 0.2864319385017414, -0.5334807880800889, 0.24666205209616515, 0.0026108184316008254, 0.6103469699937946,1.0,-8738.298644669436, -2831.2948173326895, 21513.62699693995, -76.63135807155942, 220.80266105726292, 37.85451814983196,1.0,769
1299.514,-0.25438261606718005, -1.993814120259941, -1.454053121346666, -1.265296602339232, 1.5704365801809888, 1.5813980819072448,0.4471941248024193, 0.2864319385017414, -0.5334807880800889, 0.24666205209616518, 0.002610818431600826, 0.6103469699937947,1.0,-8739.352820575778, -2830.768797956078, 21513.908813008296, -76.63065219030946, 220.73301191724943, 37.814173688679546,1.0,769
1299.522,-0.24850294722850297, -1.990048138441744, -1.4610672796097992, -1.2620535114734146, 1.5704709069910345, 1.5894228699382569,0.4471941248024193, 0.2864319385017414, -0.5334807880800889, 0.24666205209616515, 0.0026108184316008254, 0.6103469699937947,1.0,-8736.26624190347, -2831.8104016278376, 21514.69035663487, -76.62547905587857, 220.8545725804264, 37.83288478048789,1.0,769
1299.53,-0.2425638041944005, -1.9862440628558922, -1.4681523876884297, -1.2587776160015505, 1.5705055810246173, 1.5975288305360755,0.4471941248024193, 0.28643193850174137, -0.5334807880800889, 0.24666205209616512, 0.0026108184316008254, 0.6103469699937947,1.0,-8738.217228593496, -2831.018087552039, 21513.87608645013, -76.64280299713462, 220.82640060123572, 37.92652488979354,1.0,769
1299.538,-0.23665830041168512, -1.9824615335190865, -1.4751973657802253, -1.2555202751714365, 1.5705400586647935, 1.6055888790478026,0.4471941248024193, 0.28643193850174137, -0.5334807880800889, 0.24666205209616515, 0.0026108184316008254, 0.6103469699937948,1.0,-8739.029830365671, -2829.7949356287254, 21514.648132291215, -76.65739718918925, 220.71610369936673, 37.79688372880901,1.0,769
1299.546,-0.23081827028988222, -1.9787209406626047, -1.4821642369867014, -1.2522990481153258, 1.5705741540552234, 1.6135595667018279,0.4471941248024193, 0.28643193850174137, -0.5334807880800889, 0.24666205209616515, 0.0026108184316008254, 0.6103469699937947,1.0,-8739.016923893036, -2826.345690576796, 21514.89711747689, -76.78157445430301, 220.75498257553244, 37.863402069718006,1.0,769
1299.5539999999999,-0.22504371382899002, -1.975022284286446, -1.4890530013078571, -1.2491139348332183, 1.570607867195907, 1.621440893498151,0.4471941248024194, 0.2864319385017414, -0.5334807880800889, 0.24666205209616518, 0.0026108184316008254, 0.6103469699937947,1.0,-8737.196202506588, -2829.7109229880843, 21514.8535997994, -76.68093900256969, 220.84315372624252, 37.95079333343875,1.0,769
1299.562,-0.2193346310290094, -1.9713655643906112, -1.4958636587436942, -1.2459649353251132, 1.5706411980868447, 1.6292328594367715,0.4471941248024194, 0.28643193850174137, -0.5334807880800889, 0.24666205209616515, 0.002610818431600826, 0.6103469699937947,1.0,-8738.43148569865, -2828.3444098551163, 21514.45930425933, -76.707953031328, 220.74411020525758, 37.850747208773356,1.0,769
1299.57,-0.21369102188994038, -1.9677507809751003, -1.502596209294211, -1.2428520495910114, 1.570674146728036, 1.6369354645176906,0.4471941248024193, 0.2864319385017414, -0.5334807880800889, 0.24666205209616515, 0.002610818431600826, 0.6103469699937948,1.0,-8740.303497750227, -2827.772889498422, 21514.40867050246, -76.73469887693193, 220.71482023089771, 37.78602810740733,1.0,769
1299.578,-0.20811288641178205, -1.9641779340399133, -1.509250652959409, -1.2397752776309137, 1.5707067131194814, 1.6445487087409074,0.4471941248024193, 0.2864319385017413, -0.5334807880800888, 0.24666205209616512, 0.0026108184316008254, 0.6103469699937947,1.0,-8739.760346804418, -2828.4311857067896, 21513.477024419888, -76.70505883819834, 220.74055105639945, 37.84084553807682,1.0,769
1299.586,-0.2026002245945362, -1.9606470235850502, -1.5158269897392866, -1.2367346194448174, 1.5707388972611804, 1.6520725921064217,0.4471941248024194, 0.28643193850174137, -0.5334807880800889, 0.24666205209616512, 0.0026108184316008254, 0.6103469699937948,1.0,-8739.009128092104, -2828.4119050659974, 21513.65013962146, -76.73738772977364, 220.77148104002538, 37.89599294416038,1.0,769
1299.594,-0.19715303643820103, -1.95715804961051, -1.5223252196338457, -1.2337300750327262, 1.5707706991531334, 1.6595071146142342,0.44719412480241927, 0.28643193850174137, -0.5334807880800889, 0.24666205209616512, 0.0026108184316008254, 0.6103469699937946,1.0,-8736.378552291502, -2830.3882502581528, 21514.59036714928, -76.65797592882873, 220.89256049990763, 37.91701472088397,1.0,769
1299.6019999999999,-0.19177132194277746, -1.953711012116294, -1.5287453426430844, -1.2307616443946374, 1.5708021187953403, 1.6668522762643443,0.4471941248024193, 0.28643193850174137, -0.5334807880800889, 0.24666205209616512, 0.0026108184316008254, 0.6103469699937947,1.0,-8736.80016369689, -2829.5132538928574, 21514.767181418847, -76.67868845223418, 220.8709490388672, 37.84475565237881,1.0,769
1299.61,-0.18645508110826547, -1.9503059111024017, -1.5350873587670044, -1.2278293275305519, 1.5708331561878008, 1.6741080770567527,0.4471941248024194, 0.28643193850174137, -0.5334807880800889, 0.24666205209616515, 0.0026108184316008254, 0.6103469699937948,1.0,-8738.239820627567, -2828.844146010596, 21514.57350991981, -76.70545159825639, 220.78191056551032, 37.80907376040449,1.0,769
1299.618,-0.18120431393466507, -1.9469427465688334, -1.541351268005604, -1.2249331244404686, 1.5708638113305153, 1.681274516991459,0.44719412480241927, 0.2864319385017413, -0.5334807880800888, 0.2466620520961651, 0.0026108184316008254, 0.6103469699937947,1.0,-8739.32646869215, -2829.006538169594, 21514.136736394168, -76.70125912521851, 220.74495853449145, 37.832713224069124,1.0,769
1299.626,-0.17601902042197626, -1.943621518515588, -1.547537070358885, -1.2220730351243896, 1.5708940842234833, 1.6883515960684627,0.4471941248024193, 0.28643193850174137, -0.5334807880800889, 0.24666205209616515, 0.002610818431600826, 0.6103469699937948,1.0,-8737.942505723493, -2829.8789378136735, 21514.07785214643, -76.68828059002215, 220.7577548815035, 37.84304958560611,1.0,769
1299.634,-0.17089920057019814, -1.9403422269426667, -1.5536447658268457, -1.2192490595823138, 1.5709239748667057, 1.6953393142877649,0.4471941248024193, 0.28643193850174137, -0.5334807880800888, 0.24666205209616512, 0.0026108184316008254, 0.6103469699937946,1.0,-8737.665307297899, -2828.402037212896, 21514.84004479241, -76.71675164563828, 220.8444362073696, 37.866422722068165,1.0,769
1299.642,-0.1658448543793316, -1.93710487185007, -1.5596743544094869, -1.2164611978142403, 1.5709534832601815, 1.7022376716493648,0.4471941248024194, 0.28643193850174137, -0.5334807880800889, 0.24666205209616515, 0.0026108184316008254, 0.6103469699937947,1.0,-8736.751603239858, -2829.2212772957746, 21514.163037338796, -76.69731079023506, 220.87543868298786, 37.894451637504886,1.0,769
1299.6499999999999,-0.16085598184937666, -1.9339094532377956, -1.5656258361068085, -1.213709449820171, 1.5709826094039114, 1.7090466681532621,0.44719412480241927, 0.2864319385017413, -0.5334807880800888, 0.24666205209616512, 0.002610818431600825, 0.6103469699937947,1.0,-8737.446255475, -2828.430651379832, 21513.299169364833, -76.71925200803929, 220.8249176819287, 37.84108159360821,1.0,769
1299.658,-0.1559325829803333, -1.930755971105846, -1.5714992109188106, -1.210993815600104, 1.571011353297895, 1.715766303799458,0.4471941248024193, 0.2864319385017413, -0.5334807880800888, 0.24666205209616515, 0.0026108184316008254, 0.6103469699937947,1.0,-8739.579203787427, -2829.163279306248, 21513.82408887893, -76.69699092260461, 220.75124507889296, 37.8222250065528,1.0,769
1299.666,-0.15107465777220153, -1.9276444254542202, -1.5772944788454932, -1.2083142951540404, 1.5710397149421325, 1.7223965785879511,0.4471941248024193, 0.2864319385017413, -0.5334807880800888, 0.2466620520961651, 0.002610818431600825, 0.6103469699937947,1.0,-8739.989671995492, -2829.121335597276, 21514.380617794213, -76.70293237579281, 220.69929016773068, 37.824243578018724,1.0,769
1299.674,-0.14628220622498045, -1.9245748162829175, -1.5830116398868563, -1.205670888481981, 1.5710676943366237, 1.7289374925187424,0.44719412480241927, 0.28643193850174137, -0.5334807880800888, 0.24666205209616515, 0.002610818431600825, 0.6103469699937948,1.0,-8736.642076993008, -2830.027242042135, 21514.83093220119, -76.6638992791195, 220.85893433657543, 37.862239700708216,1.0,769
1299.682,-0.14155522833867185, -1.9215471435919387, -1.5886506940429008, -1.2030635955839237, 1.571095291481369, 1.735389045591832,0.4471941248024193, 0.28643193850174137, -0.5334807880800888, 0.24666205209616515, 0.002610818431600826, 0.6103469699937947,1.0,-8736.764611176648, -2828.792623405757, 21514.650460191933, -76.70429910558497, 220.86919813153105, 37.87342160930845,1.0,769
1299.69,-0.13689372411327394, -1.9185614073812838, -1.594211641313624, -1.2004924164598698, 1.5711225063763676, 1.7417512378072186,0.4471941248024194, 0.2864319385017413, -0.5334807880800889, 0.24666205209616512, 0.002610818431600826, 0.6103469699937947,1.0,-8736.926053303674, -2829.1696273311927, 21514.00171265408, -76.68712508780393, 220.86630296567296, 37.8787275059432,1.0,769
1299.6979999999999,-0.13229769354878762, -1.9156176076509528, -1.5996944816990286, -1.1979573511098183, 1.5711493390216207, 1.748024069164904,0.44719412480241927, 0.2864319385017413, -0.5334807880800888, 0.24666205209616512, 0.0026108184316008254, 0.6103469699937947,1.0,-8740.933358945395, -2828.7502840270063, 21514.370261168184, -76.69769239653908, 220.66938825123282, 37.820267081553,1.0,769
1299.706,-0.1277671366452129, -1.9127157444009448, -1.6050992151991146, -1.1954583995337709, 1.5711757894171272, 1.754207539664887,0.4471941248024194, 0.28643193850174137, -0.5334807880800888, 0.24666205209616518, 0.0026108184316008254, 0.6103469699937948,1.0,-8737.533425708305, -2828.6146253179277, 21513.76426327133, -76.7067128215892, 220.8200911747561, 37.8713187491295,1.0,769
1299.714,-0.12330205340254885, -1.9098558176312608, -1.6104258418138802, -1.1929955617317258, 1.5712018575628877, 1.7603016493071677,0.4471941248024193, 0.28643193850174137, -0.5334807880800889, 0.24666205209616507, 0.002610818431600825, 0.6103469699937948,1.0,-8736.425556009244, -2829.0892708152987, 21514.06194015036, -76.69458691752064, 220.8936418777351, 37.8571536761861,1.0,769
1299.722,-0.11890244382079729, -1.9070378273419015, -1.6156743615433253, -1.190568837703685, 1.571227543458902, 1.7663063980917464,0.4471941248024192, 0.2864319385017413, -0.5334807880800889, 0.24666205209616507, 0.0026108184316008245, 0.6103469699937947,1.0,-8735.696447632205, -2829.8757372226364, 21514.336711132542, -76.68083997265617, 220.91167620131915, 37.85210012464435,1.0,769
1299.73,-0.11456830789995642, -1.9042617735328644, -1.620844774387452, -1.1881782274496473, 1.5712528471051703, 1.7722217860186227,0.4471941248024194, 0.2864319385017413, -0.533480788080089, 0.24666205209616515, 0.0026108184316008254, 0.6103469699937947,1.0,-8739.243932495112, -2829.7780516287185, 21513.95230913453, -76.70128099514619, 220.7438890868885, 37.852866915860574,1.0,769
1299.7379999999998,-0.11029964564002714, -1.901527656204152, -1.625937080346259, -1.185823730969612, 1.5712777685016923, 1.7780478130877972,0.4471941248024193, 0.2864319385017413, -0.5334807880800889, 0.24666205209616515, 0.002610818431600826, 0.6103469699937947,1.0,-8737.076584383896, -2829.3367734445646, 21513.486110135887, -76.6871276143601, 220.86247111966594, 37.86581610961892,1.0,769
1299.7459999999999,-0.10609645704100945, -1.8988354753557637, -1.6309512794197456, -1.18350534826358, 1.571302307648468, 1.7837844792992699,0.4471941248024193, 0.2864319385017413, -0.5334807880800888, 0.24666205209616507, 0.0026108184316008254, 0.6103469699937947,1.0,-8738.733695186513, -2829.0451412951634, 21513.716746798564, -76.69796118202564, 220.78029200346742, 37.837843538824046,1.0,769
1299.754,-0.10195874210290246, -1.8961852309876983, -1.6358873716079145, -1.1812230793315521, 1.5713264645454978, 1.7894317846530399,0.44719412480241927, 0.28643193850174137, -0.5334807880800889, 0.2466620520961651, 0.0026108184316008254, 0.6103469699937947,1.0,-8738.832252782864, -2828.3133059655893, 21514.438166864184, -76.70914859975213, 220.78557963948077, 37.83729330460517,1.0,769
1299.762,-0.09788650082570793, -1.8935769230999568, -1.640745356910763, -1.1789769241735257, 1.5713502391927812, 1.7949897291491081,0.44719412480241927, 0.2864319385017413, -0.5334807880800888, 0.2466620520961651, 0.002610818431600825, 0.6103469699937947,1.0,-8736.41460361273, -2829.5035804633035, 21514.60213145961, -76.67671273441891, 220.90285372931783, 37.81672556305887,1.0,769
1299.77,-0.09387973320942411, -1.8910105516925393, -1.6455252353282912, -1.1767668827895044, 1.5713736315903184, 1.8004583127874738,0.44719412480241943, 0.2864319385017413, -0.5334807880800889, 0.2466620520961652, 0.0026108184316008254, 0.6103469699937947,1.0,-8736.478391813167, -2829.340851146736, 21514.88854166176, -76.67830551508212, 220.8660192215703, 37.87324381349828,1.0,769
1299.778,-0.08993843925405187, -1.8884861167654456, -1.6502270068605007, -1.1745929551794845, 1.5713966417381096, 1.8058375355681378,0.4471941248024193, 0.2864319385017413, -0.5334807880800889, 0.2466620520961651, 0.002610818431600825, 0.6103469699937947,1.0,-8739.627313900945, -2828.826976810694, 21514.657835374077, -76.69633143975301, 220.75747412782454, 37.84271091925396,1.0,769
1299.7859999999998,-0.08606261895959122, -1.886003618318675, -1.6548506715073898, -1.1724551413434687, 1.5714192696361546, 1.8111273974911,0.44719412480241927, 0.28643193850174137, -0.5334807880800889, 0.24666205209616515, 0.002610818431600825, 0.6103469699937948,1.0,-8736.476343883667, -2831.267410258628, 21514.450574483413, -76.64620051874414, 220.88111864991276, 37.84526425889959,1.0,769
1299.7939999999999,-0.08225227232604215, -1.8835630563522283, -1.6593962292689604, -1.1703534412814562, 1.5714415152844534, 1.8163278985563598,0.4471941248024193, 0.2864319385017413, -0.5334807880800888, 0.24666205209616515, 0.0026108184316008254, 0.6103469699937947,1.0,-8738.943584709019, -2829.9099825076464, 21513.936532568187, -76.6698585538042, 220.76817519999815, 37.85776223737645,1.0,769
1299.802,-0.07850739935340467, -1.8811644308661055, -1.6638636801452105, -1.168287854993447, 1.5714633786830061, 1.8214390387639172,0.4471941248024193, 0.28643193850174137, -0.5334807880800889, 0.24666205209616507, 0.002610818431600826, 0.6103469699937948,1.0,-8738.206359470423, -2828.3063268834967, 21514.419430398197, -76.72042353258198, 220.81915070198727, 37.818395183208,1.0,769
1299.81,-0.07482800004167789, -1.8788077418603066, -1.668253024136142, -1.1662583824794401, 1.5714848598318127, 1.8264608181137727,0.4471941248024194, 0.28643193850174126, -0.5334807880800888, 0.24666205209616507, 0.0026108184316008254, 0.6103469699937948,1.0,-8737.06070164439, -2829.7945003324567, 21513.90832129268, -76.66850844344992, 220.88228356641025, 37.853985892304536,1.0,769
1299.818,-0.07121407439086269, -1.8764929893348317, -1.672564261241753, -1.1642650237394374, 1.571505958730873, 1.8313932366059258,0.4471941248024195, 0.28643193850174137, -0.5334807880800889, 0.24666205209616518, 0.002610818431600826, 0.6103469699937948,1.0,-8740.17793390376, -2828.0399469526546, 21514.32657348567, -76.71166769326726, 220.73070495294343, 37.87953706653127,1.0,769
1299.826,-0.06766562240095908, -1.8742201732896806, -1.6767973914620455, -1.162307778773437, 1.5715266753801873, 1.8362362942403774,0.4471941248024193, 0.28643193850174137, -0.5334807880800888, 0.24666205209616518, 0.0026108184316008254, 0.6103469699937948,1.0,-8734.059856754033, -2829.750525929945, 21514.335785581512, -76.64886458416706, 221.0032523910299, 37.85471170068993,1.0,769
1299.8339999999998,-0.06418264407196705, -1.8719892937248526, -1.6809524147970176, -1.16038664758144, 1.571547009779755, 1.8409899910171266,0.44719412480241943, 0.2864319385017413, -0.5334807880800888, 0.24666205209616507, 0.002610818431600825, 0.6103469699937947,1.0,-8739.84446972754, -2828.643056580766, 21514.040368293663, -76.70593416823468, 220.72638523227198, 37.83640465123298,1.0,769
1299.8419999999999,-0.060765139403886614, -1.8698003506403484, -1.6850293312466702, -1.158501630163446, 1.571566961929577, 1.8456543269361734,0.4471941248024193, 0.28643193850174137, -0.5334807880800887, 0.2466620520961651, 0.0026108184316008245, 0.6103469699937947,1.0,-8736.268112750055, -2829.8899750945457, 21513.750159135427, -76.69148991246436, 220.92020394792968, 37.84126728561813,1.0,769
1299.85,-0.05741310839671687, -1.8676533440361682, -1.6890281408110033, -1.1566527265194555, 1.5715865318296527, 1.8502293019975184,0.44719412480241927, 0.28643193850174126, -0.5334807880800888, 0.24666205209616515, 0.002610818431600825, 0.6103469699937948,1.0,-8737.70398311611, -2830.8942211812773, 21514.210024878164, -76.65043804430982, 220.81146692983725, 37.82127173262319,1.0,769
1299.858,-0.054126551050458716, -1.865548273912311, -1.6929488434900168, -1.1548399366494682, 1.5716057194799822, 1.8547149162011614,0.44719412480241943, 0.2864319385017413, -0.5334807880800887, 0.24666205209616515, 0.0026108184316008254, 0.6103469699937946,1.0,-8738.728234263519, -2829.0869204425035, 21514.644081341252, -76.6898254941861, 220.7972914000365, 37.845024220930185,1.0,769
1299.866,-0.05090546736511303, -1.8634851402687787, -1.696791439283711, -1.153063260553484, 1.5716245248805656, 1.8591111695471016,0.4471941248024194, 0.28643193850174137, -0.5334807880800888, 0.2466620520961651, 0.002610818431600826, 0.6103469699937947,1.0,-8735.588752888503, -2830.9099841961015, 21514.24831394008, -76.6232714535067, 220.9141614971433, 37.819220690181254,1.0,769
1299.874,-0.04774985734067805, -1.8614639431055693, -1.7005559281920863, -1.1513226982315032, 1.5716429480314027, 1.8634180620353407,0.44719412480241927, 0.2864319385017413, -0.5334807880800889, 0.2466620520961651, 0.002610818431600825, 0.6103469699937947,1.0,-8740.102816341576, -2827.4326177527237, 21514.410470094008, -76.74108570408876, 220.7121691144331, 37.78447828117257,1.0,769
1299.8819999999998,-0.04465972097715376, -1.8594846824226838, -1.7042423102151414, -1.1496182496835257, 1.571660988932494, 1.8676355936658768,0.4471941248024194, 0.28643193850174137, -0.5334807880800889, 0.24666205209616512, 0.002610818431600825, 0.6103469699937947,1.0,-8735.266118511252, -2830.350701108204, 21514.35907489938, -76.66014881595586, 220.92612718459287, 37.844245988350394,1.0,769
1299.8899999999999,-0.04163505827454195, -1.8575473582201223, -1.707850585352877, -1.1479499149095505, 1.5716786475838387, 1.8717637644387115,0.4471941248024193, 0.28643193850174126, -0.5334807880800889, 0.24666205209616515, 0.0026108184316008245, 0.6103469699937948,1.0,-8739.340317146201, -2828.06112120947, 21514.40198171989, -76.71441220201157, 220.76010681206924, 37.85475584301943,1.0,769
1299.898,-0.03867586923284083, -1.8556519704978847, -1.711380753605293, -1.1463176939095794, 1.5716959239854376, 1.8758025743538438,0.4471941248024192, 0.28643193850174126, -0.5334807880800888, 0.24666205209616504, 0.0026108184316008245, 0.6103469699937948,1.0,-8734.945564641079, -2829.9551150198686, 21513.490376413185, -76.66607964725199, 220.92366418873587, 37.857763250184064,1.0,769
1299.906,-0.0357821538520513, -1.85379851925597, -1.7148328149723895, -1.1447215866836107, 1.5717128181372897, 1.8797520234112737,0.44719412480241943, 0.2864319385017413, -0.5334807880800889, 0.2466620520961651, 0.0026108184316008245, 0.6103469699937947,1.0,-8739.784999080292, -2827.984296238101, 21513.948516039618, -76.7234510793063, 220.73370937271739, 37.83708458581046,1.0,769
1299.914,-0.03295391213217336, -1.8519870044943794, -1.7182067694541665, -1.1431615932316461, 1.5717293300393962, 1.8836121116110018,0.4471941248024193, 0.2864319385017413, -0.5334807880800889, 0.24666205209616512, 0.0026108184316008254, 0.6103469699937947,1.0,-8735.760031697764, -2831.3251686183075, 21513.812800032312, -76.63148624357717, 220.91868778219265, 37.806272262783864,1.0,769
1299.922,-0.030191144073207, -1.8502174262131126, -1.721502617050624, -1.141637713553683, 1.5717454596917564, 1.887382838953028,0.44719412480241927, 0.28643193850174137, -0.5334807880800889, 0.24666205209616507, 0.002610818431600826, 0.6103469699937948,1.0,-8738.965349337452, -2829.1713716588847, 21514.107279289772, -76.68282617872362, 220.79619050728166, 37.83721597386608,1.0,769
1299.9299999999998,-0.027493849675152227, -1.8484897844121697, -1.724720357761762, -1.140149947649725, 1.5717612070943705, 1.8910642054373517,0.4471941248024194, 0.2864319385017412, -0.5334807880800888, 0.24666205209616504, 0.002610818431600825, 0.6103469699937947,1.0,-8737.273419691592, -2830.8419501919307, 21514.17130874742, -76.63195042047388, 220.85137517446822, 37.822082904349884,1.0,769
1299.9379999999999,-0.02486202893800815, -1.8468040790915499, -1.7278599915875805, -1.1386982955197693, 1.5717765722472383, 1.8946562110639733,0.44719412480241927, 0.2864319385017412, -0.5334807880800888, 0.24666205209616507, 0.0026108184316008245, 0.6103469699937948,1.0,-8737.254758446334, -2829.3410093810744, 21514.013260473046, -76.67158616343994, 220.87988733150308, 37.83007655461819,1.0,769
1299.946,-0.02229568186177655, -1.8451603102512548, -1.7309215185280786, -1.1372827571638169, 1.57179155515036, 1.8981588558328926,0.44719412480241927, 0.2864319385017413, -0.5334807880800889, 0.24666205209616518, 0.0026108184316008254, 0.6103469699937947,1.0,-8738.562632384881, -2829.150585519932, 21514.07167768324, -76.68560706632869, 220.76106009718904, 37.845452945712054,1.0,769
1299.954,-0.019794808446455647, -1.8435584778912828, -1.7339049385832581, -1.1359033325818668, 1.5718061558037357, 1.9015721397441103,0.4471941248024195, 0.28643193850174137, -0.5334807880800889, 0.24666205209616507, 0.002610818431600825, 0.6103469699937947,1.0,-8736.56546552373, -2830.097033660096, 21514.196981182504, -76.65219977577587, 220.91016179501247, 37.84815581657122,1.0,769
1299.962,-0.01735940869204633, -1.8419985820116347, -1.736810251753118, -1.134560021773921, 1.571820374207365, 1.904896062797626,0.4471941248024194, 0.28643193850174137, -0.5334807880800888, 0.2466620520961651, 0.0026108184316008245, 0.6103469699937948,1.0,-8738.113024692306, -2828.3802955894416, 21514.47801326921, -76.71075866246764, 220.79778800391807, 37.82940695126567,1.0,769
1299.97,-0.014989482598548598, -1.8404806226123096, -1.7396374580376577, -1.1332528247399782, 1.5718342103612484, 1.908130624993439,0.4471941248024192, 0.28643193850174126, -0.5334807880800888, 0.24666205209616512, 0.0026108184316008245, 0.6103469699937948,1.0,-8736.349708663076, -2829.990352156102, 21514.414665413107, -76.65541191983755, 220.90436205790758, 37.84636593353096,1.0,769
1299.9779999999998,-0.012685030165961564, -1.8390045996933093, -1.7423865574368786, -1.131981741480038, 1.5718476642653851, 1.9112758263315504,0.4471941248024194, 0.2864319385017412, -0.5334807880800887, 0.24666205209616512, 0.002610818431600825, 0.6103469699937948,1.0,-8737.466277688423, -2829.8612810608984, 21514.49437732269, -76.67299434369048, 220.85037773426097, 37.835108303043654,1.0,769
1299.9859999999999,-0.010446051394286116, -1.837570513254633, -1.74505754995078, -1.1307467719941018, 1.571860735919776, 1.9143316668119597,0.4471941248024193, 0.28643193850174126, -0.5334807880800887, 0.24666205209616504, 0.0026108184316008254, 0.6103469699937949,1.0,-8739.25745689612, -2829.5738341162614, 21514.50252517464, -76.68102375559928, 220.7936882731467, 37.82029615922559,1.0,769
1299.994,-0.008272546283523141, -1.8361783632962796, -1.7476504355793612, -1.129547916282168, 1.5718734253244209, 1.9172981464346661,0.4471941248024192, 0.28643193850174137, -0.5334807880800888, 0.24666205209616512, 0.0026108184316008254, 0.6103469699937947,1.0,-8737.175543679135, -2830.1615144352463, 21514.20506146561, -76.66547922566465, 220.8606871277529, 37.83320787967767,1.0,769
1300.002,-0.006164514833670864, -1.8348281498182502, -1.7501652143226236, -1.1283851743442375, 1.5718857324793194, 1.920175265199671,0.4471941248024195, 0.28643193850174137, -0.5334807880800887, 0.24666205209616515, 0.002610818431600825, 0.6103469699937948,1.0,-8737.18612357268, -2828.895035213878, 21514.10390205654, -76.6857188697835, 220.8647220960877, 37.851894836584904,1.0,769
1300.01,-0.004121957044729285, -1.8335198728205437, -1.7526018861805666, -1.127258546180311, 1.5718976573844718, 1.9229630231069736,0.44719412480241943, 0.28643193850174126, -0.5334807880800888, 0.24666205209616504, 0.0026108184316008254, 0.6103469699937949,1.0,-8738.270129352497, -2829.686137803549, 21513.7691165959, -76.67773315007094, 220.82266591559699, 37.852754688445856,1.0,769
1300.018,-0.00214487291670018, -1.8322535323031621, -1.754960451153189, -1.126168031790387, 1.571909200039878, 1.9256614201565745,0.44719412480241927, 0.2864319385017413, -0.5334807880800887, 0.2466620520961651, 0.002610818431600825, 0.610346969993795,1.0,-8737.296727987581, -2829.951073922799, 21513.742470114656, -76.66141296271525, 220.858251243432, 37.84700562974467,1.0,769
1300.0259999999998,-0.00023326244958266074, -1.8310291282661035, -1.7572409092404921, -1.1251136311744663, 1.571920360445538, 1.9282704563484732,0.44719412480241943, 0.28643193850174126, -0.5334807880800886, 0.24666205209616507, 0.002610818431600824, 0.6103469699937949,1.0,-8736.980602584317, -2829.337534511942, 21514.23574735712, -76.67502566367449, 220.85724982508265, 37.83031821757535,1.0,769
1300.0339999999999,0.001612874356624161, -1.8298466607093697, -1.7594432604424766, -1.1240953443325479, 1.571931138601452, 1.9307901316826692,0.44719412480241943, 0.2864319385017414, -0.5334807880800887, 0.24666205209616524, 0.0026108184316008263, 0.6103469699937948,1.0,-8738.175806285111, -2829.578692138851, 21514.252036607708, -76.68449234333508, 220.8007844266864, 37.8328326132216,1.0,769
1300.042,0.003393537501919397, -1.828706129632959, -1.7615675047591406, -1.1231131712646336, 1.5719415345076198, 1.9332204461591636,0.44719412480241916, 0.28643193850174137, -0.533480788080089, 0.246662052096165, 0.0026108184316008254, 0.6103469699937947,1.0,-8737.500124175222, -2830.215984014352, 21513.887901497874, -76.66282701136754, 220.84606504836563, 37.85651852220971,1.0,769
1300.05,0.005108726986303269, -1.8276075350368721, -1.763613642190485, -1.1221671119707226, 1.5719515481640411, 1.935561399777956,0.4471941248024194, 0.28643193850174115, -0.5334807880800889, 0.246662052096165, 0.002610818431600825, 0.6103469699937947,1.0,-8737.312773603273, -2829.7112414863414, 21514.14572764124, -76.67202430810099, 220.84097428043754, 37.840061295978074,1.0,769
1300.058,0.0067584428097754445, -1.8265508769211083, -1.765581672736511, -1.121257166450814, 1.5719611795707167, 1.937812992539046,0.44719412480241927, 0.2864319385017412, -0.5334807880800889, 0.2466620520961651, 0.002610818431600825, 0.6103469699937949,1.0,-8737.047546381358, -2829.1756590057093, 21514.257415437463, -76.69299840480858, 220.84938601804026, 37.83658258001819,1.0,769
1300.066,0.008342684972336256, -1.8255361552856684, -1.7674715963972165, -1.1203833347049095, 1.571970428727646, 1.939975224442434,0.44719412480241905, 0.2864319385017412, -0.5334807880800889, 0.24666205209616515, 0.002610818431600824, 0.6103469699937949,1.0,-8737.021395551263, -2829.941669725099, 21514.169458065015, -76.67037048403105, 220.85769053984842, 37.84466355942155,1.0,769
1300.0739999999998,0.009861453473985704, -1.8245633701305533, -1.7692834131726034, -1.1195456167330073, 1.571979295634829, 1.9420480954881196,0.4471941248024193, 0.2864319385017412, -0.5334807880800887, 0.2466620520961649, 0.0026108184316008236, 0.6103469699937949,1.0,-8737.828960664869, -2830.2523208068997, 21514.31321104312, -76.65230205315137, 220.83531372730272, 37.83054780884433,1.0,769
1300.0819999999999,0.011314748314723677, -1.8236325214557603, -1.771017123062669, -1.1187440125351094, 1.571987780292266, 1.9440316056761033,0.44719412480241927, 0.28643193850174137, -0.5334807880800889, 0.24666205209616507, 0.002610818431600824, 0.6103469699937947,1.0,-8737.19213288995, -2829.1293609662616, 21514.283800007128, -76.68765689097091, 220.86237129194706, 37.836745447329804,1.0,769
1300.09,0.01270256949455062, -1.822743609261292, -1.772672726067416, -1.1179785221112137, 1.5719958826999567, 1.9459257550063853,0.44719412480241966, 0.2864319385017411, -0.5334807880800888, 0.24666205209616512, 0.002610818431600826, 0.6103469699937948,1.0,-8737.309905257545, -2829.564603567501, 21514.792880895708, -76.67578638464252, 220.86894582244423, 37.827257659981115,1.0,769
1300.098,0.014024917013465643, -1.8218966335471478, -1.7742502221868444, -1.1172491454613214, 1.5720036028579014, 1.9477305434789645,0.4471941248024194, 0.2864319385017411, -0.5334807880800887, 0.24666205209616515, 0.002610818431600825, 0.6103469699937948,1.0,-8738.234352394498, -2829.6068866504183, 21514.22771203371, -76.676029152616, 220.84201993084127, 37.83392619454423,1.0,769
1300.106,0.015281790871469414, -1.8210915943133266, -1.7757496114209523, -1.1165558825854323, 1.5720109407660998, 1.949445971093842,0.44719412480241927, 0.2864319385017412, -0.5334807880800888, 0.24666205209616496, 0.002610818431600825, 0.610346969993795,1.0,-8738.506575086929, -2829.9101666861807, 21513.802429863874, -76.6660923195819, 220.83401884761548, 37.83885952334285,1.0,769
1300.114,0.01647319106856182, -1.8203284915598292, -1.7771708937697408, -1.1158987334835464, 1.572017896424552, 1.9510720378510176,0.44719412480241955, 0.28643193850174115, -0.5334807880800885, 0.24666205209616496, 0.002610818431600821, 0.6103469699937949,1.0,-8737.127571097491, -2829.826441543715, 21513.964091368172, -76.66857935683376, 220.87556095576394, 37.83474734401619,1.0,769
1300.1219999999998,0.017599117604742642, -1.8196073252866558, -1.7785140692332098, -1.1152776981556638, 1.572024469833258, 1.9526087437504904,0.4471941248024195, 0.28643193850174137, -0.5334807880800887, 0.24666205209616515, 0.002610818431600827, 0.6103469699937947,1.0,-8736.759295284863, -2829.7443409991074, 21514.582232732137, -76.6659086476613, 220.87664671311063, 37.84124941946851,1.0,769
1300.1299999999999,0.01865957048001199, -1.8189280954938063, -1.7797791378113583, -1.1146927766017836, 1.5720306609922179, 1.9540560887922616,0.4471941248024194, 0.28643193850174115, -0.5334807880800888, 0.24666205209616496, 0.002610818431600828, 0.610346969993795,1.0,-8737.255189291769, -2829.882869055661, 21514.484401216632, -76.6614982867683, 220.85934151407912, 37.84966397274471,1.0,769
1300.138,0.019654549694370083, -1.8182908021812798, -1.7809660995041892, -1.1141439688219075, 1.5720364699014318, 1.9554140729763303,0.4471941248024197, 0.28643193850174103, -0.5334807880800885, 0.24666205209616493, 0.0026108184316008263, 0.6103469699937948,1.0,-8739.120957267725, -2829.3317201626296, 21513.95511436494, -76.67786511636865, 220.79496735522957, 37.83769553118802,1.0,769
1300.146,0.0205840552478167, -1.8176954453490772, -1.7820749543116996, -1.1136312748160346, 1.5720418965608993, 1.9566826963026975,0.4471941248024195, 0.28643193850174115, -0.5334807880800885, 0.24666205209616504, 0.0026108184316008263, 0.6103469699937951,1.0,-8738.279049874674, -2829.5030940866163, 21513.93709104387, -76.67355770207223, 220.82822039808622, 37.84515235571993,1.0,769
1300.154,0.021448087140352068, -1.8171420249971995, -1.7831057022338896, -1.1131546945841642, 1.5720469409706208, 1.9578619587713624,0.4471941248024191, 0.2864319385017412, -0.5334807880800884, 0.24666205209616515, 0.0026108184316008254, 0.6103469699937952,1.0,-8737.687053738955, -2829.1133594121757, 21514.406758572182, -76.67923749843598, 220.83888895988173, 37.83911470878951,1.0,769
1300.162,0.022246645371975626, -1.8166305411256438, -1.784058343270761, -1.112714228126297, 1.5720516031305962, 1.9589518603823248,0.4471941248024197, 0.2864319385017412, -0.5334807880800881, 0.2466620520961647, 0.002610818431600824, 0.6103469699937953,1.0,-8736.516925211452, -2830.6738651873084, 21514.62788585118, -76.65529369376239, 220.8901185401005, 37.84341487193814,1.0,769
1300.1699999999998,0.022979729942688154, -1.816160993734413, -1.784932877422313, -1.1123098754424339, 1.5720558830408253, 1.9599524011355853,0.4471941248024197, 0.286431938501741, -0.5334807880800885, 0.24666205209616504, 0.002610818431600826, 0.610346969993795,1.0,-8736.5967108205, -2830.538448890855, 21514.67424105857, -76.65874978509439, 220.8934144981299, 37.85628628536753,1.0,769
1300.1779999999999,0.023647340852489318, -1.815733382823506, -1.7857293046885445, -1.1119416365325732, 1.5720597807013081, 1.9608635810311439,0.4471941248024193, 0.2864319385017411, -0.5334807880800884, 0.2466620520961652, 0.0026108184316008254, 0.6103469699937952,1.0,-8737.70701951732, -2829.940475299898, 21514.002864747166, -76.67008206068223, 220.8456980119393, 37.84654339903241,1.0,769
1300.186,0.024249478101378674, -1.8153477083929221, -1.7864476250694574, -1.1116095113967157, 1.5720632961120449, 1.961685400069,0.44719412480242, 0.28643193850174103, -0.5334807880800879, 0.24666205209616524, 0.0026108184316008228, 0.6103469699937952,1.0,-8738.224958729297, -2829.6248614772103, 21513.899190909833, -76.6808727351573, 220.82727362925596, 37.84410842527694,1.0,769
1300.194,0.02478614168935689, -1.8150039704426622, -1.7870878385650508, -1.1113135000348615, 1.5720664292730355, 1.9624178582491545,0.4471941248024196, 0.2864319385017412, -0.5334807880800878, 0.2466620520961647, 0.002610818431600822, 0.6103469699937957,1.0,-8738.125299814505, -2829.472220673777, 21513.971928397594, -76.69360397533805, 220.83019676149138, 37.84469097141289,1.0,769
1300.202,0.025257331616423295, -1.814702168972726, -1.7876499451753247, -1.1110536024470106, 1.5720691801842799, 1.9630609555716063,0.44719412480241855, 0.28643193850174103, -0.5334807880800888, 0.24666205209616462, 0.0026108184316008176, 0.6103469699937956,1.0,-8737.532807701748, -2830.2997942238217, 21514.161379882844, -76.66864889170955, 220.8420055328778, 37.84824557639948,1.0,769
1300.21,0.025663047882578782, -1.814442303983113, -1.7881339449002782, -1.110829818633162, 1.5720715488457782, 1.9636146920363562,0.4471941248024202, 0.28643193850174037, -0.5334807880800891, 0.24666205209616504, 0.0026108184316008176, 0.6103469699937945,1.0,-8737.328654320658, -2830.3419242088285, 21514.08122660551, -76.66442338555814, 220.85016716915362, 37.849641879623675,1.0,769
1300.2179999999998,0.02600329048782224, -1.8142243754738248, -1.788539837739913, -1.1106421485933176, 1.5720735352575304, 1.9640790676434043,0.44719412480241943, 0.28643193850174037, -0.533480788080089, 0.24666205209616532, 0.002610818431600814, 0.6103469699937948,1.0,-8737.027750733823, -2830.0325476256676, 21514.227653473863, -76.6718992521266, 220.86193085718617, 37.853692548719636,1.0,769
1300.2259999999999,0.026278059432154777, -1.8140483834448595, -1.7888676236942276, -1.1104905923274764, 1.5720751394195362, 1.9644540823927499,0.4471941248024186, 0.28643193850174054, -0.5334807880800891, 0.2466620520961643, 0.0026108184316008106, 0.6103469699937958,1.0,-8737.123474789385, -2830.1146695376246, 21514.073249430992, -76.67136661992265, 220.85669367455733, 37.84680302841588,1.0,769
1300.234,0.026487354715576172, -1.8139143278962182, -1.7891173027632234, -1.1103751498356385, 1.572076361331796, 1.9647397362843937,0.4471941248024204, 0.28643193850174015, -0.5334807880800878, 0.24666205209616407, 0.002610818431600797, 0.6103469699937958,1.0,-8737.799915476387, -2830.1741332461997, 21513.954469402317, -76.67653504031608, 220.8388390104784, 37.84822860855252,1.0,769
1300.242,0.026631176338085316, -1.8138222088279008, -1.789288874946899, -1.110295821117803, 1.5720772009943098, 1.9649360293183353,0.44719412480242055, 0.28643193850174137, -0.5334807880800893, 0.24666205209616548, 0.002610818431600844, 0.6103469699937932,1.0,-8737.675408688585, -2830.315691538546, 21514.32148735632, -76.67454570689463, 220.84700943604548, 37.84991238450962,1.0,769
1300.25,0.02670952429968354, -1.8137720262399064, -1.7893823402452549, -1.1102526061739706, 1.5720776584070772, 1.9650429614945746,0.4471941248024138, 0.2864319385017327, -0.5334807880800858, 0.24666205209615816, 0.0026108184316008466, 0.6103469699938084,1.0,-8737.119707386451, -2829.802701993478, 21514.069797868553, -76.66473896299823, 220.85591414069, 37.84764148157731,1.0,769
1300.258,0.026725414012806196, -1.8137656420097592, -1.7894064607245426, -1.1102348815526764, 1.5720777429545392, 1.96506464961209,0.00023572575078520085, -0.3441341808950973, -0.46904314690175086, 0.8133691610168562, -0.0007447065697660134, 0.0004354726096500533,1.0,-8736.904463895271, -2829.324463733192, 21514.308903935664, -76.68654178269401, 220.8621617974801, 37.85551993275948,1.0,769
1300.2659999999998,0.026725459365892556, -1.8138318497560828, -1.7894966737328915, -1.110078423897547, 1.5720775996776597, 1.9650647333705176,0.00023582756905132123, -0.34425299804458226, -0.46893589146142634, 0.8133807244033112, -0.0007449977761362258, 0.0004353956936760451,1.0,-8737.152481049394, -2830.381310828391, 21512.316529464963, -76.6772026157719, 220.88160150348443, 37.8515535175778,1.0,769
1300.274,0.026725561242295234, -1.8139805510125901, -1.789699101771042, -1.109727211770406, 1.5720772778568224, 1.9650649213310232,0.0002360559955898452, -0.344519690801141, -0.4686950765172144, 0.8134066060474427, -0.0007456513582251965, 0.00043522271078513466,1.0,-8739.851723319098, -2830.1581665651775, 21510.939606244916, -76.67211384380678, 220.7305001037509, 37.851029645371256,1.0,769
1300.282,0.026725719801916147, -1.8142119314122542, -1.7900135637862542, -1.1091812405915809, 1.5720767770354949, 1.9650652133615643,0.0002364107025655338, -0.3449342053235872, -0.46832058233645335, 0.813446632282902, -0.0007466669324468777, 0.00043495276458008317,1.0,-8737.166567743703, -2831.2673101150394, 21511.80105366988, -76.65017298302035, 220.8411093657548, 37.847428390794136,1.0,769
1300.29,0.026725935292904453, -1.814526279497418, -1.7904397782934751, -1.108440503304644, 1.572076096504395, 1.9650656092557732,0.00023689120326467701, -0.3454964572858635, -0.4678122232079275, 0.8135005330479218, -0.0007480439540390128, 0.00043458453892033453,1.0,-8736.76383539475, -2831.407477622165, 21512.34522807847, -76.65255463265737, 220.86641454003518, 37.847110998614994,1.0,769
1300.298,0.02672620805110723, -1.8149239866834375, -1.7909773633289667, -1.1075049904591587, 1.5720752353020286, 1.9650661087315182,0.00023749683537952317, -0.3462063313258309, -0.46716974791852134, 0.813567941689859, -0.0007497816625109167, 0.00043411621944115374,1.0,-8738.015327328541, -2830.970400851552, 21512.38404093419, -76.65484993756823, 220.82080251879364, 37.84747461115728,1.0,769
1300.306,0.026726538499328722, -1.8154055472084245, -1.7916258363865412, -1.106374690324703, 1.5720741922154222, 1.9650667114289362,0.00023822676166073995, -0.3470636800906786, -0.46639284045059987, 0.8136483947642555, -0.0007518790992878529, 0.0004335455184908134,1.0,-8739.162643118689, -2831.0124436511105, 21511.941733911965, -76.63765155955068, 220.7883289417735, 37.85129694458831,1.0,769
1300.3139999999999,0.026726927146397555, -1.8159715580682176, -1.7923846143356803, -1.1050495890377592, 1.5720729657810513, 1.965067416907984,0.00023907997042390647, -0.3480683231364962, -0.4654811208433962, 0.8137413317575212, -0.0007543350895196696, 0.0004328696798961638,1.0,-8738.508913169735, -2830.480531865047, 21512.01499290949, -76.66174068821311, 220.80095041098656, 37.85073153469588,1.0,769
1300.322,0.026727374586042737, -1.8166227189355384, -1.7932530133205598, -1.1035296707835638, 1.5720715542859867, 1.9650682246454403,0.00024005528069698142, -0.34922004553000413, -0.4644341462552711, 0.8138460947834703, -0.0007571482416707943, 0.00043208547363082767,1.0,-8737.126490106422, -2830.4093839205552, 21512.973427689874, -76.66852101141671, 220.85537120787274, 37.850302441450424,1.0,769
1300.33,0.026727881495585883, -1.817359832061948, -1.7942302486388702, -1.1018149180153198, 1.572069955769249, 1.9650691340314113,0.0002411513384102711, -0.3505185962774503, -0.46325141219879523, 0.8139619282248839, -0.0007603169393570774, 0.0004311891934630131,1.0,-8737.534777937994, -2830.4359283455424, 21513.138744147516, -76.66598188156567, 220.84829055449552, 37.84779495203475,1.0,769
1300.338,0.026728448634453346, -1.8181838021610268, -1.7953154345991624, -1.0999053117136741, 1.5720681680233919, 1.9650701443653298,0.0002423666236698487, -0.35196368649334586, -0.461932353975737, 0.8140879783514638, -0.0007638393320240468, 0.00043017667211421183,1.0,-8737.393682140464, -2831.3164470584443, 21512.865834884116, -76.64843541024743, 220.8580404600471, 37.849726771984194,1.0,769
1300.346,0.026729076842502295, -1.8190956362709167, -1.7965075843552247, -1.0978008316898134, 1.572066188596323, 1.9650712548514209,0.00024369944721765044, -0.3535549873774847, -0.460476348295999, 0.8142232929050836, -0.0007677133228019226, 0.00042904326647793075,1.0,-8738.289081421673, -2831.160528766545, 21512.56903386532, -76.64990901311327, 220.8099018720706, 37.8473559249108,1.0,769
1300.354,0.026729767038180426, -1.8200964435940534, -1.7978056097159323, -1.0955014569358728, 1.572064014793369, 1.9650724645936826,0.0002451479548365799, -0.35529212795584275, -0.458882715097234, 0.8143668206741841, -0.0007719365641672707, 0.00042778387326459496,1.0,-8738.741672473148, -2830.1054235767897, 21512.675908889556, -76.6781438607319, 220.79415553768462, 37.84748389689318,1.0,769
1300.3619999999999,0.02673052021651043, -1.8211874353116535, -1.799208320928793, -1.0930071660269176, 1.572061643679611, 1.9650737725903231,0.0002467101298804337, -0.35717469264090423, -0.45715071955517556, 0.8145174110527011, -0.0007765064394439325, 0.0004263929257794253,1.0,-8735.12048604413, -2832.218500949396, 21512.55742066804, -76.61765094030505, 220.93134856803226, 37.84559934935632,1.0,769
1300.37,0.026731337446916754, -1.8223699243701663, -1.800714426435369, -1.0903179375790737, 1.5720590720824916, 1.96507517772772,0.00024838379477840105, -0.35920221857831136, -0.4552795742962425, 0.8146738136060884, -0.0007814200535556612, 0.0004248643949140852,1.0,-8739.947729746294, -2830.019185745452, 21512.410585359987, -76.68815110914241, 220.73986377083264, 37.84288056988976,1.0,769
1300.378,0.026732219870885636, -1.8236453252365727, -1.8023225325965972, -1.0874337507689145, 1.5720562965947251, 1.9650766787738432,0.00025016661395094934, -0.3613741928120871, -0.45326844180961606, 0.8148346776481324, -0.0007866742184041862, 0.0004231917989234733,1.0,-8738.21318768204, -2831.068111263101, 21512.33822314316, -76.64554394909945, 220.83865279983462, 37.84670574640535,1.0,769
1300.386,0.02673316869947988, -1.8250151536190655, -1.8040311433859726, -1.0843545859195993, 1.5720533135775188, 1.9650782743711994,0.0002520560962301802, -0.3636900492722092, -0.4511164370610562, 0.8149985518427343, -0.000792265437889987, 0.0004213682029837261,1.0,-8738.144790235216, -2830.184264782866, 21512.54845795576, -76.6824017085213, 220.78989882827761, 37.843313471433106,1.0,769
1300.394,0.0267341852107059, -1.826481026149235, -1.8058386600484884, -1.081080425159759, 1.572050119164134, 1.9650799630292484,0.00025404960052345844, -0.36614916559198296, -0.4488226303116143, 0.8151638838438229, -0.0007981898921764687, 0.00041938622976049687,1.0,-8737.84998678692, -2830.0389030590986, 21512.416103948486, -76.66779916269081, 220.85229059205466, 37.84837109109159,1.0,769
1300.402,0.026735270746740356, -1.8280446600214981, -1.8077433807231724, -1.0776112531615292, 1.572046709263811, 1.965081743116332,0.00025614433695360936, -0.36875085978475425, -0.44638605013545, 0.8153290199825732, -0.0008044434199680886, 0.0004172380560287606,1.0,-8737.986513316288, -2831.0372882223337, 21512.36775178196, -76.64834789532478, 220.81807650896303, 37.84976174487488,1.0,769
1300.4099999999999,0.026736426711026898, -1.829707872585077, -1.809743500027067, -1.0739470579646095, 1.572043079566076, 1.9650836128511007,0.00025833737090611683, -0.3714943867613997, -0.44380568664601117, 0.8154922050250057, -0.0008110215026986691, 0.00041491542843557176,1.0,-8737.64694430812, -2831.389115522047, 21512.72129514633, -76.65803767592897, 220.8368162338761, 37.85198709361174,1.0,769
1300.418,0.026737654565249205, -1.83147258088335, -1.8118371085984641, -1.0700878318936713, 1.5720392255454638, 1.9650855702934638,0.0002606256299267698, -0.37437893474981937, -0.4410804949171635, 0.8156515820004752, -0.000817919243675079, 0.000412409668488987,1.0,-8737.419516201822, -2830.8290535106717, 21512.83882867556, -76.65065530856072, 220.86613795338945, 37.84838922977974,1.0,769
1300.426,0.026738955826187377, -1.8333408011349466, -1.8140221925972586, -1.0660335725769263, 1.572035142466687, 1.965087613335031,0.00026300590609371175, -0.37740362158941054, -0.43820939860657826, 0.8158051921301738, -0.0008251313503472099, 0.00040971167447755724,1.0,-8738.193504307845, -2830.305734700869, 21512.446360546248, -76.65833097115589, 220.84223312422256, 37.85279088313524,1.0,769
1300.434,0.02674033206246607, -1.8353146481504332, -1.8162966331603432, -1.0617842840740401, 1.57203082539028, 1.9650897396890954,0.00026547486327406364, -0.3805674909513632, -0.4351912937700726, 0.8159509748602009, -0.0008326521133254676, 0.00040681194350962533,1.0,-8738.904984361945, -2830.3787898888804, 21512.950100833183, -76.65942411395949, 220.77697104922584, 37.848042705379754,1.0,769
1300.442,0.026741784891205385, -1.8373963346778979, -1.8186582058100154, -1.0573399781221564, 1.5720262691787534, 1.9650919468801462,0.00026802904080850537, -0.3838695084959926, -0.43202505286208265, 0.8160867680179422, -0.0008404753851105968, 0.00040370056888408844,1.0,-8738.284686286954, -2831.0784803072, 21512.80548500894, -76.64416175060819, 220.8149180694852, 37.850272143919284,1.0,769
1300.45,0.026743315974579088, -1.8395881706701775, -1.8211045798135324, -1.052700675509115, 1.5720214685032998, 1.965094232232911,0.00027066486091043793, -0.387308557982668, -0.4287095289174048, 0.816210308108559, -0.0008485945587092069, 0.00040036725910756103,1.0,-8738.40170399805, -2830.353406816879, 21512.45770390474, -76.66627289206525, 220.80968573287043, 37.85580770521432,1.0,769
1300.4579999999999,0.02674492701629292, -1.8418925624658886, -1.8236333174920398, -1.0478664075834967, 1.5720164178510876, 1.9650965928609614,0.00027337863546730157, -0.39088343736891834, -0.42524355989997453, 0.8163192307631257, -0.0008570025452227745, 0.0003968013527999037,1.0,-8737.77384006989, -2830.39842802333, 21512.24234483431, -76.66129943590133, 220.8309506414452, 37.848513103243306,1.0,769
1300.466,0.02674661747296524, -1.8443087469388688, -1.8262383848209227, -1.0428439730956232, 1.572011118696014, 1.9650990224032578,0.00027616287592986715, -0.3945878791787706, -0.4216308403548819, 0.8164109626603699, -0.0008656801707037456, 0.0003929970891389231,1.0,-8737.656663140198, -2830.8459949121216, 21512.524787529313, -76.65791161683629, 220.83800175110747, 37.85164963699634,1.0,769
1300.474,0.026748342942876265, -1.8467733858650925, -1.8288481514587662, -1.0377683723939715, 1.572005709933947, 1.9651014533262943,0.0002789404411093921, -0.39832141872333454, -0.4179677932182008, 0.8164814618197689, -0.0008743887758044404, 0.0003890497266289387,1.0,-8738.43229989128, -2830.6197797210125, 21513.899813456468, -76.66872469647672, 220.79627683977532, 37.8455880489241,1.0,769
1300.482,0.026750085407639148, -1.84926097401169, -1.8314348711041895, -1.0326928695417141, 1.572000247728848, 1.9651038591688306,0.00028168195892182025, -0.4020445239375008, -0.4142928480634915, 0.8165296256077859, -0.0008830349455101592, 0.00038499958118849595,1.0,-8735.377721998115, -2832.0294963206934, 21515.2990619857, -76.61515276578695, 220.93792911675814, 37.845884015726426,1.0,769
1300.49,0.02675184466771408, -1.8517714797169695, -1.8339985136843149, -1.027617526273815, 1.5719947323986152, 1.965106239334342,0.00028438772425481984, -0.4057569615069387, -0.4106062279436337, 0.8165554438370529, -0.0008916174613537532, 0.0003808471554257075,1.0,-8738.899763153544, -2830.6435745496547, 21514.973097422055, -76.66997734630769, 220.79549769200867, 37.85052149946037,1.0,769
1300.498,0.026753620525571807, -1.8543048700074287, -1.8365390485384765, -1.0225424062248099, 1.5719891642682353, 1.9651085932275858,0.0002870580366490911, -0.4094585021030882, -0.40690815560100996, 0.8165589099955226, -0.0009001351129492128, 0.0003765929708705406,1.0,-8737.631614079586, -2830.7127819062725, 21514.98242270975, -76.64171374733903, 220.86401765020958, 37.849577309508646,1.0,769
1300.5059999999999,0.026755412785676704, -1.8568611105769524, -1.8390564444374293, -1.0174675749304098, 1.5719835436698528, 1.9651109202547086,0.00028969320154448975, -0.41314892045494095, -0.4031988533281872, 0.8165400211802246, -0.0009085867002329578, 0.00037223756877083016,1.0,-8739.307349288503, -2830.4162612897026, 21514.78673133845, -76.66609423023843, 220.78792089200238, 37.85304951625321,1.0,769
1300.514,0.026757221254470474, -1.8594401657664648, -1.8415506696026593, -1.012393099828535, 1.5719778709428358, 1.9651132198233527,0.0002922935288843515, -0.4168279954216682, -0.39947854282716183, 0.8164987780265328, -0.0009169710316659618, 0.0003677815111790964,1.0,-8737.620293660846, -2831.138451949095, 21515.236737871237, -76.64924030387309, 220.85860057478573, 37.848878200920836,1.0,769
1300.522,0.026759045740357167, -1.8620419985439502, -1.8440216917256782, -1.0073190502600067, 1.5719721464338412, 1.9651154913427464,0.0002948593347284395, -0.4204955100522537, -0.39574744507308196, 0.8164351846371043, -0.0009252869267978018, 0.000363225379619094,1.0,-8737.435516177084, -2831.6356851195324, 21514.326755674734, -76.63520122379657, 220.85864929270986, 37.84974781212185,1.0,769
1300.53,0.02676088605368966, -1.8646665704848377, -1.8464694779873074, -1.0022454974688584, 1.5719663704968756, 1.9651177342238366,0.00029739093904982637, -0.4241512516546793, -0.3920057801739534, 0.8163492485033976, -0.0009335332145277178, 0.00035856977520539645,1.0,-8737.799547543616, -2830.7826460047236, 21513.58283097951, -76.65591598591604, 220.83175431785594, 37.85348821696343,1.0,769
1300.538,0.026762742006751602, -1.8673138417527868, -1.848893995076926, -0.997172514602326, 1.5719605434933575, 1.9651199478793684,0.00029988866761610243, -0.4277950118459736, -0.3882537672373845, 0.8162409804290943, -0.0009417087348102816, 0.00035381531758968025,1.0,-8738.367366984556, -2830.387553492813, 21513.65492341194, -76.67215415965188, 220.8269631366391, 37.85289306179416,1.0,769
1300.546,0.02676461341374615, -1.8699837710808511, -1.8512952092117256, -0.9921001767104167, 1.5719546657921724, 1.9651221317240175,0.0003023528498593094, -0.43142658661239014, -0.3844916242331373, 0.816110394446055, -0.0009498123377983528, 0.0003489626446043301,1.0,-8738.161727388338, -2830.4922746597204, 21514.12020040525, -76.6660088972684, 220.79974134267178, 37.85467167867162,1.0,769
1300.5539999999999,0.026766500090779865, -1.872676315753064, -1.8536730861559372, -0.9870285607450908, 1.5719487377697283, 1.9651242851744983,0.0003047838204284622, -0.4350457763483987, -0.3807195678637957, 0.8159575077332821, -0.0009578428862675653, 0.00034401241616080724,1.0,-8738.664459427031, -2830.3892918606343, 21514.175254546353, -76.67107221861633, 220.805383128227, 37.854675391971426,1.0,769
1300.562,0.026768401855848136, -1.87539143158644, -1.8560275912400517, -0.981957745559054, 1.5719427598100082, 1.965126407649671,0.00030718191883324724, -0.4386523859122124, -0.37693781342967786, 0.8157823405259327, -0.0009657992528662703, 0.0003389653076886465,1.0,-8737.857665293654, -2831.055257730428, 21514.84459484621, -76.64776069773896, 220.83961147126405, 37.85215780036151,1.0,769
1300.57,0.026770318528822567, -1.8781290729134081, -1.858358689380025, -0.9768878119041036, 1.5719367323046194, 1.9651284985706692,0.0003095474877229248, -0.4422462246559961, -0.37314657470256346, 0.8155849160296601, -0.0009736803226351881, 0.0003338220139781034,1.0,-8737.808062294926, -2830.7835599661885, 21514.863158584198, -76.64984984166352, 220.86047965991753, 37.851740287183986,1.0,769
1300.578,0.026772249931435236, -1.8808891925646911, -1.8606663450964653, -0.9718188424290783, 1.5719306556528425, 1.9651305573610096,0.00031188087441153786, -0.44582710646924784, -0.3693460637960272, 0.8153652603258364, -0.0009814849921701422, 0.00032858324738260954,1.0,-8738.58667992274, -2830.3230029034166, 21515.185477602867, -76.66738843663344, 220.7974015730186, 37.856096664801925,1.0,769
1300.586,0.02677419588726448, -1.8836717418526376, -1.8629505225338212, -0.9667509216773222, 1.5719245302616722, 1.9651325834467142,0.00031418243001890973, -0.44939484980305106, -0.36553649104260605, 0.8151234022803177, -0.0009892121707636683, 0.0003232497379241214,1.0,-8737.708940487222, -2831.1220100918727, 21514.588335368746, -76.64081337385201, 220.84153227488457, 37.8541130860404,1.0,769
1300.594,0.026776156221723472, -1.886476670555024, -1.865211185479553, -0.9616841360837167, 1.5719183565458614, 1.9651345762564396,0.00031645251023823534, -0.4529492777014254, -0.36171806486957714, 0.8148593734456183, -0.0009968607800867504, 0.00031782223587934367,1.0,-8738.639151988667, -2831.0014173373456, 21514.61051382026, -76.66253112279011, 220.80871169715545, 37.85563108839938,1.0,769
1300.6019999999999,0.026778130762046232, -1.8893039268993412, -1.8674482973832758, -0.9566185739712569, 1.5719121349279583, 1.9651365352215904,0.00031869147295666246, -0.45649021782448795, -0.35789099167788485, 0.8145732079627691, -0.0010044297538404083, 0.0003123015045351848,1.0,-8738.178786070455, -2830.6663439264403, 21513.98162421736, -76.66475430398242, 220.81568329119602, 37.848226312529846,1.0,769
1300.61,0.02678011933727267, -1.8921534575475647, -1.8696618213759102, -0.9515543255471215, 1.571905865838342, 1.9651384597764514,0.0003208996805936487, -0.46001750246238515, -0.35405547572611734, 0.8142649424629367, -0.0010119180390187777, 0.0003066883272395826,1.0,-8738.165469662546, -2830.081576990313, 21513.645129644807, -76.67144319995259, 220.82560522197053, 37.85653271903584,1.0,769
1300.618,0.026782121778236332, -1.8950252075814404, -1.871851720288812, -0.9464914828982636, 1.5718995497152557, 1.9651403493583095,0.00032307749896780345, -0.46353096855283005, -0.3502117190138482, 0.813934615964372, -0.0010193245957477491, 0.00030098350324387317,1.0,-8737.0267394619, -2831.125111535095, 21513.890959504442, -76.64986139262354, 220.86466584449397, 37.85384714790098,1.0,769
1300.626,0.02678413791755195, -1.8979191204882735, -1.8740179566728798, -0.9414301399865064, 1.5718931870048365, 1.9651422034075865,0.0003252252966194288, -0.467030457687572, -0.3463599211700687, 0.8135822697704949, -0.0010266483970442746, 0.0002951878478735593,1.0,-8737.621660216899, -2830.6601518664884, 21514.160798835816, -76.65606476725631, 220.8499470254352, 37.854979443620124,1.0,769
1300.634,0.026786167589600646, -1.9008351381472623, -1.8761604928176538, -0.9363703926431208, 1.571886778161139, 1.9651440213679687,0.0003273434451205406, -0.4705158161189984, -0.34250027934321603, 0.8132079473645816, -0.001033888429952256, 0.0002893021930702996,1.0,-8738.508734355642, -2831.0030521553663, 21514.32880632098, -76.65688119057322, 220.80183548286334, 37.85336360512693,1.0,769
1300.642,0.026788210630519952, -1.9037732008163584, -1.878279290770398, -0.9313123385628757, 1.5718803236461605, 1.9651458026865283,0.0003294323190975245, -0.47398689476090927, -0.33863298809454484, 0.812811694303813, -0.00104104369466469, 0.0002833273873480438,1.0,-8739.017926614692, -2830.054428410629, 21514.52246484337, -76.6817289448197, 220.7918254722327, 37.85297334716296,1.0,769
1300.6499999999999,0.02679026687818922, -1.9067332471196883, -1.8803743123551584, -0.9262560772975581, 1.571873823929861, 1.9651475468138733,0.0003314922960508189, -0.4774435491842963, -0.33475823929484744, 0.8123935581124425, -0.0010481132053322224, 0.000277264292411115,1.0,-8737.76198466851, -2830.8222373808103, 21515.248530150275, -76.6615171930884, 220.85230963454995, 37.854257709278016,1.0,769
1300.658,0.026792336172218253, -1.9097152140355362, -1.8824455191917986, -0.9212017102489582, 1.5718672794901776, 1.9651492532042691,0.00033352375561661513, -0.4808856396096195, -0.33087622202414485, 0.8119535881735767, -0.0010550959896448977, 0.00027111378951553316,1.0,-8736.576262501456, -2831.5177313556087, 21515.106773298, -76.6297157539262, 220.8965663533748, 37.85291133608217,1.0,769
1300.666,0.026794418353933393, -1.9127190368849032, -1.8844928727150245, -0.9161493406612813, 1.5718606908130397, 1.965150921315772,0.00033552708038220964, -0.4843130308951151, -0.3269871224746427, 0.8114918356198908, -0.0010619910899956004, 0.00026487677004795535,1.0,-8737.586233192973, -2831.000691280875, 21514.84745885844, -76.65286176707761, 220.84384624200192, 37.855971991078064,1.0,769
1300.674,0.026796513266367637, -1.9157446493206614, -1.8865163341933702, -0.9110990736130145, 1.5718540583923764, 1.9651525506103764,0.00033750265458580434, -0.48772559251924297, -0.3230911238574458, 0.8110083532244095, -0.001068797562558416, 0.0002585541451263148,1.0,-8737.00240749564, -2831.0663582549832, 21514.001521613725, -76.64781007087424, 220.86013308689212, 37.85516497558754,1.0,769
1300.682,0.026798620754246848, -1.918791983317294, -1.8885158647481575, -0.9060510160082158, 1.5718473827301243, 1.9651541405541384,0.0003394508648324774, -0.491123198563364, -0.3191884063112671, 0.8105031952886151, -0.001075514477864156, 0.000252146836923298,1.0,-8737.280226654624, -2830.9304531706757, 21513.816614686675, -76.64981601300292, 220.85268105260593, 37.85681095022301,1.0,769
1300.69,0.026800740663978414, -1.9218609691612611, -1.890491425372442, -0.9010052765672114, 1.5718406643362266, 1.9651556906173289,0.00034137209974429203, -0.49450572768423123, -0.315279146817136, 0.8099764175326963, -0.0010821409211820027, 0.00024565578189352926,1.0,-8737.86281433105, -2830.6619025007167, 21513.82771897654, -76.66113869440377, 220.83468653667666, 37.85349677099063,1.0,769
1300.6979999999999,0.02680287284363961, -1.9249515354419797, -1.8924429769499067, -0.8959619658167224, 1.5718339037286353, 1.965157200274562,0.00034326674941291037, -0.4978730630848, -0.3113635191154692, 0.8094280769845712, -0.001088675992512832, 0.00023908193326966121,1.0,-8738.375980090654, -2831.026582743025, 21513.78509671956, -76.662041754722, 220.79743443944272, 37.85587533564234,1.0,769
1300.706,0.02680501714296634, -1.9280636090434395, -1.8943704802737251, -0.8909211960793773, 1.5718271014333052, 1.9651586690049385,0.00034513520605234136, -0.5012250924885651, -0.3074416936241043, 0.8088582318650775, -0.0010951188052115094, 0.0002324262550715431,1.0,-8737.246313881476, -2831.383682318713, 21514.104983991347, -76.64590938408608, 220.85900270980693, 37.85138706333592,1.0,769
1300.714,0.026807173413342697, -1.931197115136464, -1.8962738960653969, -0.8858830814626213, 1.5718202579841836, 1.9651600962921874,0.0003469778621740673, -0.504561708095678, -0.3035138373656017, 0.8082669414796437, -0.0011014684888715144, 0.0002256897261775958,1.0,-8738.118610074178, -2830.911244780753, 21514.90031721038, -76.65751063726407, 220.81746625384432, 37.85566321845354,1.0,769
1300.722,0.026809341507786126, -1.9343519771716275, -1.8981531849935225, -0.8808477378470281, 1.5718133739231999, 1.965161481624806,0.00034879511328294395, -0.5078828065450284, -0.29958011389502726, 0.8076542661053323, -0.001107724187716726, 0.0002188733373823493,1.0,-8738.131876432763, -2830.818173791493, 21515.323127985303, -76.65956621383981, 220.82582383745523, 37.85210899251331,1.0,769
1300.73,0.02681152128093999, -1.9375281168728336, -1.900008307692552, -0.87581528287396, 1.5718064498002484, 1.9651628244962054,0.0003505873547639865, -0.5111882888746053, -0.29564068322951853, 0.8070202668774211, -0.0011138850599920732, 0.00021197809403969761,1.0,-8738.025058421374, -2831.142406755038, 21515.191709762916, -76.65347082096534, 220.81771895341575, 37.85455987591445,1.0,769
1300.7379999999998,0.026813684427931975, -1.9406843359692836, -1.9018159088187048, -0.8708502854434839, 1.5717995756824361, 1.9651641080165625,0.00035233251104309636, -0.514435991029288, -0.2917463042414488, 0.8063735392341522, -0.0011198732099029205, 0.0002050949849293368,1.0,-8738.339204798667, -2830.686830446434, 21515.183396019525, -76.66884043829054, 220.80994618501035, 37.85481279787015,1.0,769
1300.7459999999999,0.02681577537483721, -1.9437393364599451, -1.9035321324698895, -0.8660779291605216, 1.5717929284881127, 1.9651653025362683,0.0003539886624938756, -0.5175450377111668, -0.28799580607216335, 0.8057320386483623, -0.0011255437524494102, 0.0001984042184025861,1.0,-8736.272951853867, -2831.6665378364696, 21516.261358849675, -76.6449903509529, 220.8945267449041, 37.85467687984388,1.0,769
1300.754,0.026817791299874952, -1.9466886096226608, -1.9051583657915785, -0.8615013363903898, 1.5717865175844088, 1.9651664115278116,0.0003555576211731005, -0.5205148816139232, -0.28439253680294435, 0.8050985659123817, -0.0011309025751135506, 0.00019191977363060178,1.0,-8738.314560031858, -2830.3445970482953, 21516.12615433626, -76.68112444350811, 220.820074405764, 37.85981542863067,1.0,769
1300.762,0.026819730922294924, -1.949529887088687, -1.9066971293064103, -0.8571202549706802, 1.5717803474140504, 1.965167439255246,0.0003570421723804744, -0.5233471310369889, -0.28093715184789886, 0.8044753848305047, -0.001135959324337548, 0.00018565035802792871,1.0,-8738.143754018396, -2830.9379911607984, 21515.873340591257, -76.66122234784154, 220.84466102812382, 37.85509852744818,1.0,769
1300.77,0.02682159303699691, -1.9522610078338989, -1.9081508432055907, -0.8529344257262119, 1.5717744221501024, 1.9651683898786518,0.0003584449249730847, -0.5260433411035828, -0.27763025510332034, 0.8038646544920568, -0.0011407233641178335, 0.00017960415768140307,1.0,-8737.31089402139, -2831.490001757771, 21515.91864273523, -76.64704323954365, 220.87464017272112, 37.854415096699256,1.0,769
1300.778,0.02682337651146359, -1.9548799169539688, -1.909521826584145, -0.8489435844585795, 1.5717687457052856, 1.9651692674434817,0.00035976831879518757, -0.5286050111475867, -0.27447240265620027, 0.8032684303782428, -0.0011452037611535614, 0.0001737888626234689,1.0,-8738.105743256196, -2830.5793988323812, 21516.08483769955, -76.67858328227078, 220.81265274080636, 37.85971567993329,1.0,769
1300.7859999999998,0.026825080282893075, -1.9573846644300188, -1.9108122967072658, -0.8451474639141594, 1.5717633217411842, 1.9651700758705348,0.0003610146315412241, -0.5310335823994922, -0.27146410619353245, 0.8026886654513847, -0.0011494092617470772, 0.0001682116763786994,1.0,-8737.511759460618, -2830.944844195654, 21516.16495428874, -76.64812310448852, 220.86108259008836, 37.85554929448054,1.0,769
1300.7939999999999,0.02682670335551382, -1.9597734038930135, -1.912024368309039, -0.8415457957209895, 1.5717581536772984, 1.9651708189465533,0.0003621859859726074, -0.5333304359181019, -0.26860583614047956, 0.8021272112290264, -0.0011533482816170272, 0.00016287933829350256,1.0,-8739.65189712574, -2829.9891590617744, 21516.096575243548, -76.686974659208, 220.75472415803029, 37.85721348510597,1.0,769
1300.802,0.026828244798078105, -1.9620443913949108, -1.9131600529245576, -0.838138312285496, 1.5717532446999039, 1.9651715003154342,0.00036328435499301677, -0.5354968907575235, -0.26589802453473027, 0.8015858188278624, -0.0011570288864336292, 0.00015779813615792614,1.0,-8738.60159480675, -2830.6911455798972, 21515.942569942355, -76.6659032674201, 220.80688765838107, 37.85817695035516,1.0,769
1300.81,0.026829703741529428, -1.9641959841942525, -1.9142212582561733, -0.8349247486406455, 1.571748597770676, 1.96517212347002,0.0003643115733198485, -0.5375342023466455, -0.2633410676539975, 0.801066139969653, -0.0011604587817409492, 0.0001529739258944758,1.0,-8739.057635192434, -2830.513935427475, 21516.164431366975, -76.68616766365213, 220.77305886157512, 37.858196369632566,1.0,769
1300.818,0.026831079376830155, -1.9662266395635948, -1.9152097875744456, -0.8319048442375712, 1.5717442156350505, 1.9651726917444694,0.0003652693354218782, -0.5394435610573677, -0.26093532840829314, 0.8005697279462746, -0.0011636452975024095, 0.00014841214368752154,1.0,-8737.12712882812, -2831.265541673689, 21516.453746317555, -76.65239841576943, 220.8747113931538, 37.86036817488241,1.0,769
1300.826,0.02683237095294681, -1.968134913625767, -1.9161273391541318, -0.8290783446733077, 1.5717401008302887, 1.9651732083071762,0.0003661592074908137, -0.5412260909484107, -0.25868113851406405, 0.8000980385343298, -0.0011665953782588518, 0.00014411782141306154,1.0,-8737.514716034995, -2831.3491847310324, 21516.33752993136, -76.65603652325868, 220.85786355542376, 37.85830969640094,1.0,769
1300.8339999999998,0.02683357777498922, -1.9699194602256593, -1.916975505745417, -0.8264450033477759, 1.5717362556932029, 1.96517367615423,0.00036698263053485053, -0.5428828486582142, -0.2565788004637982, 0.7996524308619114, -0.0011693155725893746, 0.00014009560111149938,1.0,-8736.243510588456, -2831.4819641799504, 21516.373638613477, -76.64815064119966, 220.89847823264802, 37.85848923282296,1.0,769
1300.8419999999999,0.026834699202489112, -1.9715790298437943, -1.9177557740804332, -0.8240045830436893, 1.571732682367531, 1.965174098103383,0.0003677409256242367, -0.5444148224407804, -0.25462858930172594, 0.7992341682191318, -0.0011718120227551957, 0.00013634974870155688,1.0,-8737.780344247465, -2830.6419075962003, 21516.11631371952, -76.66007453542576, 220.8518390351643, 37.85606339238271,1.0,769
