dlisjak-bit/sensor_synchronization/realtime_sync/robot_reference.csv
t,q0,q1,q2,q3,q4,q5,qd0,qd1,qd2,qd3,qd4,qd5,ss,f0,f1,f2,f3,f4,f5,tsf,do
21070.184999999998,0.7269052265214492, -1.4236082758443267, -1.475760690277415, -1.8154121901861862, 1.572113514246569, 2.3201682575762455,0.0, 0.0, 0.0, 0.0, 0.0, 0.0,1.0,-8787.704539356464, -2845.56238258315, 21690.54574088391, -76.92658465867058, 222.19201811088732, 38.185909736855194,1.0,769
21070.193,0.7269052265214492, -1.4236082758443267, -1.475760690277415, -1.8154121901861862, 1.572113514246569, 2.3201682575762455,0.0, 0.0, 0.0, 0.0, 0.0, 0.0,1.0,-8788.025413188572, -2845.6129966745657, 21690.52595064802, -76.92303175301944, 222.19079615030847, 38.18665848444655,1.0,769
21070.200999999997,0.7269052265214492, -1.4236082758443267, -1.475760690277415, -1.8154121901861862, 1.572113514246569, 2.3201682575762455,0.0, 0.0, 0.0, 0.0, 0.0, 0.0,1.0,-8787.592329870884, -2845.522553452385, 21690.563514470992, -76.9193778776307, 222.19741377088826, 38.189618701614165,1.0,769
21070.209,0.7269052265214492, -1.4236082758443267, -1.475760690277415, -1.8154121901861862, 1.572113514246569, 2.3201682575762455,0.0, 0.0, 0.0, 0.0, 0.0, 0.0,1.0,-8787.740097137754, -2845.723025885465, 21690.332435403598, -76.92738997293401, 222.20456770463784, 38.18858176867886,1.0,769
21070.217,0.7269052265214492, -1.4236082758443267, -1.475760690277415, -1.8154121901861862, 1.572113514246569, 2.3201682575762455,0.0, 0.0, 0.0, 0.0, 0.0, 0.0,1.0,-8787.716538861527, -2845.6618419003944, 21690.27185081276, -76.92038107400037, 222.19293557229258, 38.190941331824064,1.0,769
21070.225,0.7269052265214492, -1.4236082758443267, -1.475760690277415, -1.8154121901861862, 1.572113514246569, 2.3201682575762455,0.0, 0.0, 0.0, 0.0, 0.0, 0.0,1.0,-8787.71022212077, -2846.2484628914845, 21690.205076641487, -76.91512724994772, 222.19695652885196, 38.193298426979055,1.0,769
21070.233,0.7269052265214492, -1.4236082758443267, -1.475760690277415, -1.8154121901861862, 1.572113514246569, 2.3201682575762455,0.0, 0.0, 0.0, 0.0, 0.0, 0.0,1.0,-8787.328679237025, -2845.5867284875458, 21690.282696089136, -76.91956082267492, 222.1937225355453, 38.1928479260462,1.0,769
21070.240999999998,0.7269052265214492, -1.4236082758443267, -1.475760690277415, -1.8154121901861862, 1.572113514246569, 2.3201682575762455,0.0, 0.0, 0.0, 0.0, 0.0, 0.0,1.0,-8787.626574373691, -2845.755043658677, 21690.153540469844, -76.9212301529671, 222.1881062781216, 38.18863944657795,1.0,769
21070.249,0.7269052265214492, -1.4236082758443267, -1.475760690277415, -1.8154121901861862, 1.572113514246569, 2.3201682575762455,0.0, 0.0, 0.0, 0.0, 0.0, 0.0,1.0,-8787.703559102141, -2845.730610286546, 21690.32497451744, -76.92312110367999, 222.195959637756, 38.19500456047342,1.0,769
21070.256999999998,0.7269052265214492, -1.4236082758443267, -1.475760690277415, -1.8154121901861862, 1.572113514246569, 2.3201682575762455,0.0, 0.0, 0.0, 0.0, 0.0, 0.0,1.0,-8787.52309159856, -2845.758116209601, 21690.560234897068, -76.91861418137833, 222.19094103520507, 38.18977023591734,1.0,769
21070.265,0.7269052265214492, -1.4236082758443267, -1.475760690277415, -1.8154121901861862, 1.572113514246569, 2.3201682575762455,0.0, 0.0, 0.0, 0.0, 0.0, 0.0,1.0,-8787.618071524734, -2845.406388838326, 21690.45619214035, -76.92633120754604, 222.19372059963115, 38.18925001064002,1.0,769
21070.272999999997,0.7269052265214492, -1.4236082758443267, -1.475760690277415, -1.8154121901861862, 1.572113514246569, 2.3201682575762455,0.0, 0.0, 0.0, 0.0, 0.0, 0.0,1.0,-8787.840660593001, -2845.7333575385474, 21690.43774197036, -76.9252361089037, 222.18722561523987, 38.19207451616268,1.0,769
21070.281,0.7269052265214492, -1.4236082758443267, -1.475760690277415, -1.8154121901861862, 1.572113514246569, 2.3201682575762455,0.0, 0.0, 0.0, 0.0, 0.0, 0.0,1.0,-8787.794524823339, -2845.7583692820126, 21690.52698295561, -76.91629629491956, 222.19525039210117, 38.192191027542066,1.0,769
21070.289,0.7269052265214492, -1.4236082758443267, -1.475760690277415, -1.8154121901861862, 1.572113514246569, 2.3201682575762455,0.0, 0.0, 0.0, 0.0, 0.0, 0.0,1.0,-8787.786996668976, -2845.7639777285567, 21690.330503953155, -76.91865960768999, 222.19071857311968, 38.192969291198125,1.0,769
21070.297,0.7269052265214492, -1.4236082758443267, -1.475760690277415, -1.8154121901861862, 1.572113514246569, 2.3201682575762455,0.0, 0.0, 0.0, 0.0, 0.0, 0.0,1.0,-8787.575867411573, -2845.888330397096, 21690.378718508353, -76.9236937351373, 222.1932723440023, 38.196459715506904,1.0,769
21070.305,0.7269052265214492, -1.4236082758443267, -1.475760690277415, -1.8154121901861862, 1.572113514246569, 2.3201682575762455,0.0, 0.0, 0.0, 0.0, 0.0, 0.0,1.0,-8787.428774078071, -2845.655165763571, 21690.074577051666, -76.91278312271723, 222.1873822451899, 38.191555226063485,1.0,769
21070.313,0.7269052265214492, -1.4236082758443267, -1.475760690277415, -1.8154121901861862, 1.572113514246569, 2.3201682575762455,0.0, 0.0, 0.0, 0.0, 0.0, 0.0,1.0,-8787.528351426834, -2846.106243709736, 21690.238054520138, -76.92531022118095, 222.1934486475467, 38.18791782691349,1.0,769
21070.321,0.7269052265214492, -1.4236082758443267, -1.475760690277415, -1.8154121901861862, 1.572113514246569, 2.3201682575762455,0.0, 0.0, 0.0, 0.0, 0.0, 0.0,1.0,-8787.42719536088, -2845.797672299056, 21690.344719506385, -76.92389911785696, 222.1894573023904, 38.18738074057521,1.0,769
21070.328999999998,0.7269052265214492, -1.4236082758443267, -1.475760690277415, -1.8154121901861862, 1.572113514246569, 2.3201682575762455,0.0, 0.0, 0.0, 0.0, 0.0, 0.0,1.0,-8787.466760776895, -2845.871753217408, 21690.511277433565, -76.92411070196192, 222.18956860322544, 38.19461077138564,1.0,769
21070.337,0.7269052265214492, -1.4236082758443267, -1.475760690277415, -1.8154121901861862, 1.572113514246569, 2.3201682575762455,0.0, 0.0, 0.0, 0.0, 0.0, 0.0,1.0,-8787.747414410855, -2845.788050120994, 21690.453851834758, -76.92169024516494, 222.19157261102475, 38.19142732831588,1.0,769
21070.344999999998,0.7269052265214492, -1.4236082758443267, -1.475760690277415, -1.8154121901861862, 1.572113514246569, 2.3201682575762455,0.0, 0.0, 0.0, 0.0, 0.0, 0.0,1.0,-8787.55004871566, -2845.5284983064157, 21690.46128638686, -76.92022381470116, 222.1905824815476, 38.19134491027185,1.0,769
21070.353,0.7269052265214492, -1.4236082758443267, -1.475760690277415, -1.8154121901861862, 1.572113514246569, 2.3201682575762455,0.0, 0.0, 0.0, 0.0, 0.0, 0.0,1.0,-8787.799670761266, -2845.695325372745, 21690.558797383754, -76.92182342748185, 222.19172722623279, 38.19929285016465,1.0,769
21070.361,0.7269052265214492, -1.4236082758443267, -1.475760690277415, -1.8154121901861862, 1.572113514246569, 2.3201682575762455,0.0, 0.0, 0.0, 0.0, 0.0, 0.0,1.0,-8787.523459334105, -2845.8789560665837, 21690.383113380274, -76.92608299104603, 222.19360577164332, 38.19262825520332,1.0,769
21070.369,0.7269052265214492, -1.4236082758443267, -1.475760690277415, -1.8154121901861862, 1.572113514246569, 2.3201682575762455,0.0, 0.0, 0.0, 0.0, 0.0, 0.0,1.0,-8787.620411090082, -2845.7388105651407, 21690.204744885545, -76.92082323938072, 222.18770637643405, 38.19613908489907,1.0,769
21070.377,0.7269052265214492, -1.4236082758443267, -1.475760690277415, -1.8154121901861862, 1.572113514246569, 2.3201682575762455,0.0, 0.0, 0.0, 0.0, 0.0, 0.0,1.0,-8787.796095680349, -2845.667286364639, 21690.190270267576, -76.92223991488581, 222.19935348172356, 38.19282813755967,1.0,769
21070.385,0.7269052265214492, -1.4236082758443267, -1.475760690277415, -1.8154121901861862, 1.572113514246569, 2.3201682575762455,0.0, 0.0, 0.0, 0.0, 0.0, 0.0,1.0,-8787.396465558344, -2845.8333119073304, 21690.196129280153, -76.9220516510781, 222.1892663579448, 38.1935998285235,1.0,769
21070.393,0.7269052265214492, -1.4236082758443267, -1.475760690277415, -1.8154121901861862, 1.572113514246569, 2.3201682575762455,0.0, 0.0, 0.0, 0.0, 0.0, 0.0,1.0,-8787.787501825036, -2845.7656820802176, 21690.13838573483, -76.92247954829472, 222.20185198535938, 38.19140049566758,1.0,769
21070.400999999998,0.7269052265214492, -1.4236082758443267, -1.475760690277415, -1.8154121901861862, 1.572113514246569, 2.3201682575762455,0.0, 0.0, 0.0, 0.0, 0.0, 0.0,1.0,-8787.659720394768, -2845.630138908484, 21690.184681692022, -76.91232558717118, 222.19455758189878, 38.19408944296217,1.0,769
21070.409,0.7269052265214492, -1.4236082758443267, -1.475760690277415, -1.8154121901861862, 1.572113514246569, 2.3201682575762455,0.0, 0.0, 0.0, 0.0, 0.0, 0.0,1.0,-8787.70866696124, -2845.7382765053053, 21690.434777192557, -76.92252674906393, 222.19989753893458, 38.19535464181692,1.0,769
21070.416999999998,0.7269052265214492, -1.4236082758443267, -1.475760690277415, -1.8154121901861862, 1.572113514246569, 2.3201682575762455,0.0, 0.0, 0.0, 0.0, 0.0, 0.0,1.0,-8787.650766659832, -2845.754723966941, 21690.405619965823, -76.92637180007708, 222.19432113568945, 38.19479490617712,1.0,769
21070.425,0.7269052265214492, -1.4236082758443267, -1.475760690277415, -1.8154121901861862, 1.572113514246569, 2.3201682575762455,0.0, 0.0, 0.0, 0.0, 0.0, 0.0,1.0,-8787.520468061202, -2845.678561080291, 21690.33749744943, -76.92146913039167, 222.1853046586187, 38.19897884328071,1.0,769
21070.432999999997,0.7269052265214492, -1.4236082758443267, -1.475760690277415, -1.8154121901861862, 1.572113514246569, 2.3201682575762455,0.0, 0.0, 0.0, 0.0, 0.0, 0.0,1.0,-8787.897491751968, -2845.808385743, 21690.523253673087, -76.92539564222147, 222.19680808713855, 38.196340324870874,1.0,769
21070.441,0.7269052265214492, -1.4236082758443267, -1.475760690277415, -1.8154121901861862, 1.572113514246569, 2.3201682575762455,0.0, 0.0, 0.0, 0.0, 0.0, 0.0,1.0,-8787.840095543886, -2845.618201184827, 21690.461825055314, -76.91983769808215, 222.19891921397493, 38.1984176405293,1.0,769
21070.449,0.7269052265214492, -1.4236082758443267, -1.475760690277415, -1.8154121901861862, 1.572113514246569, 2.3201682575762455,0.0, 0.0, 0.0, 0.0, 0.0, 0.0,1.0,-8787.821438229328, -2845.869643441507, 21690.48095347057, -76.92131482851337, 222.1958109049341, 38.19584196141142,1.0,769
21070.457,0.7269052265214492, -1.4236082758443267, -1.475760690277415, -1.8154121901861862, 1.572113514246569, 2.3201682575762455,0.0, 0.0, 0.0, 0.0, 0.0, 0.0,1.0,-8787.724103923738, -2845.859855137497, 21690.353045620777, -76.9235382316673, 222.19646187797895, 38.19732174593511,1.0,769
21070.465,0.7269052265214492, -1.4236082758443267, -1.475760690277415, -1.8154121901861862, 1.572113514246569, 2.3201682575762455,0.0, 0.0, 0.0, 0.0, 0.0, 0.0,1.0,-8787.48598492568, -2845.7817414472565, 21690.35066885017, -76.92380763186614, 222.19461104193277, 38.196064355404786,1.0,769
21070.472999999998,0.7269052265214492, -1.4236082758443267, -1.475760690277415, -1.8154121901861862, 1.572113514246569, 2.3201682575762455,0.0, 0.0, 0.0, 0.0, 0.0, 0.0,1.0,-8787.498243936789, -2845.931373255602, 21690.246349906498, -76.92382351306722, 222.19269329411316, 38.194922170433756,1.0,769
21070.481,0.7269052265214492, -1.4236082758443267, -1.475760690277415, -1.8154121901861862, 1.572113514246569, 2.3201682575762455,0.0, 0.0, 0.0, 0.0, 0.0, 0.0,1.0,-8787.850258381686, -2845.7508076070844, 21690.405520746903, -76.91804267836653, 222.1965509661552, 38.19558969772538,1.0,769
21070.488999999998,0.7269052265214492, -1.4236082758443267, -1.475760690277415, -1.8154121901861862, 1.572113514246569, 2.3201682575762455,0.0, 0.0, 0.0, 0.0, 0.0, 0.0,1.0,-8787.619879124413, -2845.726358996436, 21690.576876074894, -76.92154204489603, 222.19584583731194, 38.19130104598227,1.0,769
21070.497,0.7269052265214492, -1.4236082758443267, -1.475760690277415, -1.8154121901861862, 1.572113514246569, 2.3201682575762455,0.0, 0.0, 0.0, 0.0, 0.0, 0.0,1.0,-8787.778000250064, -2845.7186776969584, 21690.496249682805, -76.92037235751559, 222.1938954830964, 38.19112654982274,1.0,769
21070.504999999997,0.7269052265214492, -1.4236082758443267, -1.475760690277415, -1.8154121901861862, 1.572113514246569, 2.3201682575762455,0.0, 0.0, 0.0, 0.0, 0.0, 0.0,1.0,-8787.733206416824, -2845.7518267552714, 21690.542623321388, -76.92075328114987, 222.19186070747367, 38.198112983329224,1.0,769
21070.513,0.7269052265214492, -1.4236082758443267, -1.475760690277415, -1.8154121901861862, 1.572113514246569, 2.3201682575762455,0.0, 0.0, 0.0, 0.0, 0.0, 0.0,1.0,-8787.659944261863, -2845.792169425543, 21690.519852052894, -76.92546548581595, 222.1892719890045, 38.19953987822336,1.0,769
21070.521,0.7269052265214492, -1.4236082758443267, -1.475760690277415, -1.8154121901861862, 1.572113514246569, 2.3201682575762455,0.0, 0.0, 0.0, 0.0, 0.0, 0.0,1.0,-8787.93313900822, -2845.828872204276, 21690.61039258683, -76.9221038241638, 222.19976800665762, 38.19814798703834,1.0,769
21070.529,0.7269052265214492, -1.4236082758443267, -1.475760690277415, -1.8154121901861862, 1.572113514246569, 2.3201682575762455,0.0, 0.0, 0.0, 0.0, 0.0, 0.0,1.0,-8787.708842943528, -2845.720913644719, 21690.49706316585, -76.92023697594627, 222.1958250233671, 38.19772821731402,1.0,769
21070.537,0.7269052265214492, -1.4236082758443267, -1.475760690277415, -1.8154121901861862, 1.572113514246569, 2.3201682575762455,0.0, 0.0, 0.0, 0.0, 0.0, 0.0,1.0,-8787.600844272927, -2845.7993730683256, 21690.458422922606, -76.92219750231394, 222.19585395739864, 38.195371248814695,1.0,769
21070.545,0.7269052265214492, -1.4236082758443267, -1.475760690277415, -1.8154121901861862, 1.572113514246569, 2.3201682575762455,0.0, 0.0, 0.0, 0.0, 0.0, 0.0,1.0,-8787.480045950173, -2845.8060404279267, 21690.328410525457, -76.92282327569728, 222.18947693186254, 38.194493894061594,1.0,769
21070.553,0.7269052265214492, -1.4236082758443267, -1.475760690277415, -1.8154121901861862, 1.572113514246569, 2.3201682575762455,0.0, 0.0, 0.0, 0.0, 0.0, 0.0,1.0,-8787.639261575632, -2845.858633333516, 21690.278451255246, -76.92492026992832, 222.19615949845598, 38.19766956345944,1.0,769
21070.560999999998,0.7269052265214492, -1.4236082758443267, -1.475760690277415, -1.8154121901861862, 1.572113514246569, 2.3201682575762455,0.0, 0.0, 0.0, 0.0, 0.0, 0.0,1.0,-8787.630702877601, -2845.7125235511676, 21690.407485544863, -76.9188692654694, 222.19230412682515, 38.19499287173659,1.0,769
21070.569,0.7269052265214492, -1.4236082758443267, -1.475760690277415, -1.8154121901861862, 1.572113514246569, 2.3201682575762455,0.0, 0.0, 0.0, 0.0, 0.0, 0.0,1.0,-8787.833402401411, -2845.9549326840042, 21690.441566712117, -76.9292796205691, 222.19996919455173, 38.19619888078461,1.0,769
21070.576999999997,0.7269052265214492, -1.4236082758443267, -1.475760690277415, -1.8154121901861862, 1.572113514246569, 2.3201682575762455,0.0, 0.0, 0.0, 0.0, 0.0, 0.0,1.0,-8787.795113438302, -2845.769511308232, 21690.57229259789, -76.9204929165445, 222.19850505516825, 38.195933617699524,1.0,769
21070.585,0.7269052265214492, -1.4236082758443267, -1.475760690277415, -1.8154121901861862, 1.572113514246569, 2.3201682575762455,0.0, 0.0, 0.0, 0.0, 0.0, 0.0,1.0,-8787.735835535594, -2845.5577335541293, 21690.51201258356, -76.91871651431401, 222.1926268110846, 38.195573812243566,1.0,769
21070.593,0.7269052265214492, -1.4236082758443267, -1.475760690277415, -1.8154121901861862, 1.572113514246569, 2.3201682575762455,0.0, 0.0, 0.0, 0.0, 0.0, 0.0,1.0,-8787.965037889024, -2845.7035671636404, 21690.600651300414, -76.92519512518058, 222.2001735535125, 38.19776921458714,1.0,769
21070.601,0.7269052265214492, -1.4236082758443267, -1.475760690277415, -1.8154121901861862, 1.572113514246569, 2.3201682575762455,0.0, 0.0, 0.0, 0.0, 0.0, 0.0,1.0,-8787.825548880406, -2845.7099658994757, 21690.554080442347, -76.92213291030004, 222.19537344694174, 38.2017641961657,1.0,769
21070.609,0.7269052265214492, -1.4236082758443267, -1.475760690277415, -1.8154121901861862, 1.572113514246569, 2.3201682575762455,0.0, 0.0, 0.0, 0.0, 0.0, 0.0,1.0,-8787.972005908377, -2845.5816633769273, 21690.516586576123, -76.92218724129228, 222.19856635179923, 38.19536925770876,1.0,769
21070.617,0.7269052265214492, -1.4236082758443267, -1.475760690277415, -1.8154121901861862, 1.572113514246569, 2.3201682575762455,0.0, 0.0, 0.0, 0.0, 0.0, 0.0,1.0,-8787.772963141197, -2845.6504375001887, 21690.309896536874, -76.92180026637112, 222.19775659384106, 38.19753116723615,1.0,769
21070.625,0.7269052265214492, -1.4236082758443267, -1.475760690277415, -1.8154121901861862, 1.572113514246569, 2.3201682575762455,0.0, 0.0, 0.0, 0.0, 0.0, 0.0,1.0,-8787.721132700091, -2845.8540300839786, 21690.483775183136, -76.92934295406576, 222.19749870209375, 38.199201419447434,1.0,769
21070.632999999998,0.7269052265214492, -1.4236082758443267, -1.475760690277415, -1.8154121901861862, 1.572113514246569, 2.3201682575762455,0.0, 0.0, 0.0, 0.0, 0.0, 0.0,1.0,-8787.78733399254, -2845.9350931773315, 21690.453147662425, -76.92468671412036, 222.1973339456602, 38.1958227707712,1.0,769
21070.641,0.7269052265214492, -1.4236082758443267, -1.475760690277415, -1.8154121901861862, 1.572113514246569, 2.3201682575762455,0.0, 0.0, 0.0, 0.0, 0.0, 0.0,1.0,-8787.31984700049, -2845.784263201005, 21690.463638617133, -76.9223567806838, 222.18441432593914, 38.200277891565264,1.0,769
21070.648999999998,0.7269052265214492, -1.4236082758443267, -1.475760690277415, -1.8154121901861862, 1.572113514246569, 2.3201682575762455,0.0, 0.0, 0.0, 0.0, 0.0, 0.0,1.0,-8787.813350488404, -2845.723674820011, 21690.33246946045, -76.9225156529622, 222.19853555661314, 38.19972198591876,1.0,769
21070.657,0.7269052265214492, -1.4236082758443267, -1.475760690277415, -1.8154121901861862, 1.572113514246569, 2.3201682575762455,0.0, 0.0, 0.0, 0.0, 0.0, 0.0,1.0,-8787.66835126039, -2845.689579564644, 21690.419405413126, -76.9204327769551, 222.1897303987961, 38.20130915327803,1.0,769
21070.664999999997,0.7269052265214492, -1.4236082758443267, -1.475760690277415, -1.8154121901861862, 1.572113514246569, 2.3201682575762455,0.0, 0.0, 0.0, 0.0, 0.0, 0.0,1.0,-8787.678064941274, -2845.6589772711995, 21690.514826640316, -76.92112424339538, 222.19215443069896, 38.195859442673395,1.0,769
21070.673,0.7269052265214492, -1.4236082758443267, -1.475760690277415, -1.8154121901861862, 1.572113514246569, 2.3201682575762455,0.0, 0.0, 0.0, 0.0, 0.0, 0.0,1.0,-8787.736158399655, -2845.748369096217, 21690.44295806287, -76.9223148882651, 222.19570037692995, 38.19912920452208,1.0,769
21070.681,0.7269101358363615, -1.4236104978818052, -1.475761446699118, -1.8154092010618612, 1.5721135090123755, 2.320172533623481,0.6512238113742177, -0.29475471461252023, -0.10033983012407638, 0.3965092829467934, -0.0006943191709252335, 0.5672204427394248,1.0,-8787.592813765024, -2845.5399908434256, 21690.51019570584, -76.92287171736643, 222.19304324537472, 38.19637729810401,1.0,769
21070.689,0.7269844372237149, -1.4236441279239536, -1.4757728949730522, -1.815363961331208, 1.5721134297940227, 2.320237250645639,0.6512238113742177, -0.2947547146125203, -0.10033983012407639, 0.39650928294679344, -0.0006943191709252336, 0.567220442739425,1.0,-8787.601074722406, -2847.0995618643474, 21690.099733768337, -76.88544570437995, 222.20485682615026, 38.189861339880736,1.0,769
21070.697,0.7271480994687703, -1.423718204174686, -1.475798111867121, -1.8152643126416192, 1.5721132553012718, 2.3203798015927615,0.6512238113742177, -0.29475471461252023, -0.10033983012407639, 0.39650928294679344, -0.0006943191709252336, 0.5672204427394248,1.0,-8787.8533514831, -2847.6760116128034, 21690.485622632823, -76.85453607704181, 222.18210854319324, 38.137777421779106,1.0,769
21070.704999999998,0.727401122571528, -1.4238327266340018, -1.4758370973813246, -1.8151102549930949, 1.5721129855341227, 2.3206001864648482,0.6512238113742177, -0.2947547146125203, -0.10033983012407639, 0.3965092829467935, -0.0006943191709252336, 0.5672204427394248,1.0,-8787.121089596645, -2846.3360670121447, 21689.868383674013, -76.90355723969435, 222.21633833662253, 38.15568249645452,1.0,769
21070.713,0.7277435065319876, -1.4239876953019017, -1.4758898515156638, -1.8149017883856349, 1.5721126204925757, 2.320898405261899,0.6512238113742176, -0.29475471461252023, -0.10033983012407638, 0.3965092829467934, -0.0006943191709252335, 0.5672204427394248,1.0,-8787.945887805301, -2847.1788765352994, 21689.61674637735, -76.8822587928617, 222.18577316214936, 38.14877287118449,1.0,769
21070.720999999998,0.7281752513501495, -1.4241831101783848, -1.4759563742701367, -1.8146389128192393, 1.5721121601766306, 2.3212744579839137,0.6512238113742177, -0.2947547146125203, -0.10033983012407639, 0.39650928294679344, -0.0006943191709252337, 0.5672204427394248,1.0,-8787.665763675637, -2848.050586676237, 21689.714386424377, -76.85403511935709, 222.1738984358655, 38.1608055269198,1.0,769
21070.729,0.7286963570260133, -1.424418971263452, -1.4760366656447452, -1.814321628293908, 1.5721116045862875, 2.321728344630893,0.6512238113742177, -0.29475471461252023, -0.10033983012407638, 0.39650928294679344, -0.0006943191709252336, 0.5672204427394248,1.0,-8787.346513336759, -2847.1965350302544, 21690.030240567918, -76.87389261489687, 222.2029466974879, 38.16071415838476,1.0,769
21070.736999999997,0.7293068235595794, -1.4246952785571025, -1.4761307256394876, -1.8139499348096413, 1.5721109537215463, 2.322260065202836,0.6512238113742177, -0.2947547146125203, -0.10033983012407639, 0.39650928294679344, -0.0006943191709252336, 0.567220442739425,1.0,-8787.154272823016, -2846.759081994276, 21690.19177523871, -76.89054696950231, 222.22001266835446, 38.160649361813654,1.0,769
21070.745,0.7300066509508475, -1.4250120320593371, -1.4762385542543655, -1.8135238323664389, 1.572110207582407, 2.3228696196997434,0.6512238113742177, -0.2947547146125203, -0.10033983012407639, 0.39650928294679344, -0.0006943191709252336, 0.567220442739425,1.0,-8787.297754420299, -2846.784298641468, 21690.19206419329, -76.87841080728802, 222.2001755936032, 38.158664844643425,1.0,769
21070.753,0.7307958391998177, -1.4253692317701558, -1.476360151489379, -1.8130433209643, 1.5721093661688696, 2.3235570081216146,0.6512238113742177, -0.29475471461252023, -0.10033983012407639, 0.3965092829467934, -0.0006943191709252336, 0.5672204427394248,1.0,-8788.152287899951, -2846.896792620071, 21690.01931668551, -76.88415408515996, 222.17840011185655, 38.16226969246489,1.0,769
21070.761,0.7316743883064901, -1.4257668776895578, -1.4764955173445262, -1.8125084006032264, 1.5721084294809342, 2.3243222304684505,0.6512238113742177, -0.29475471461252023, -0.10033983012407638, 0.3965092829467934, -0.0006943191709252335, 0.5672204427394248,1.0,-8788.155623838973, -2846.972795897401, 21690.068970571778, -76.87879590670067, 222.1756901772115, 38.16623632964624,1.0,769
21070.769,0.7326422982708646, -1.426204969817543, -1.476644651819809, -1.8119190712832172, 1.5721073975186008, 2.3251652867402504,0.6512238113742177, -0.2947547146125203, -0.10033983012407639, 0.39650928294679344, -0.0006943191709252336, 0.567220442739425,1.0,-8787.21365125176, -2846.5062037675607, 21690.14981670282, -76.89394216092546, 222.2057388758438, 38.159795990111434,1.0,769
21070.777,0.7336995690929412, -1.4266835081541123, -1.4768075549152258, -1.8112753330042715, 1.5721062702818693, 2.326086176937014,0.6512238113742177, -0.29475471461252023, -0.10033983012407638, 0.3965092829467935, -0.0006943191709252335, 0.567220442739425,1.0,-8787.63553384411, -2847.4288883178733, 21690.22876239249, -76.86441302336996, 222.19816210770097, 38.165169014273715,1.0,769
21070.785,0.7348462007727198, -1.4272024926992657, -1.476984226630778, -1.810577185766391, 1.5721050477707397, 2.327084901058742,0.6512238113742176, -0.29475471461252023, -0.10033983012407638, 0.3965092829467934, -0.0006943191709252334, 0.5672204427394248,1.0,-8787.715101395428, -2848.1298266707136, 21690.257872813338, -76.85465551429124, 222.20596067509683, 38.168101976397054,1.0,769
21070.792999999998,0.7360821933102006, -1.4277619234530023, -1.477174666966465, -1.8098246295695741, 1.572103729985212, 2.3281614591054343,0.6512238113742176, -0.29475471461252023, -0.10033983012407638, 0.39650928294679344, -0.0006943191709252335, 0.5672204427394248,1.0,-8787.057101215365, -2847.848372591241, 21690.2522045394, -76.85785088807546, 222.21763978532323, 38.165321412172204,1.0,769
21070.801,0.7374075467053836, -1.4283618004153222, -1.4773788759222874, -1.8090176644138225, 1.5721023169252863, 2.329315851077091,0.6512238113742176, -0.29475471461252023, -0.10033983012407637, 0.3965092829467934, -0.0006943191709252334, 0.5672204427394248,1.0,-8787.860336694972, -2847.129049317691, 21690.07578973401, -76.88966565826232, 222.18498355472758, 38.173909676907755,1.0,769
21070.808999999997,0.7388222609582685, -1.4290021235862262, -1.4775968534982438, -1.8081562902991344, 1.5721008085909625, 2.3305480769737112,0.6512238113742176, -0.29475471461252023, -0.10033983012407638, 0.3965092829467934, -0.0006943191709252335, 0.5672204427394248,1.0,-8788.302845038192, -2846.2823654949816, 21689.264509016004, -76.89746694495383, 222.16676671245983, 38.16437554379786,1.0,769
21070.817,0.7403263360688557, -1.4296828929657144, -1.4778285996943357, -1.8072405072255115, 1.5720992049822406, 2.331858136795296,0.6512238113742176, -0.29475471461252023, -0.10033983012407638, 0.3965092829467934, -0.0006943191709252335, 0.5672204427394248,1.0,-8788.026039138882, -2847.4979443322845, 21689.46945445685, -76.86071343135399, 222.18300220816224, 38.16468368445089,1.0,769
21070.825,0.7419197720371449, -1.4304041085537857, -1.4780741145105614, -1.8062703151929522, 1.5720975060991207, 2.3332460305418445,0.6512238113742177, -0.2947547146125203, -0.1003398301240764, 0.3965092829467935, -0.0006943191709252336, 0.567220442739425,1.0,-8786.899660335126, -2847.014604852111, 21690.617330802983, -76.87771641175249, 222.23860746326613, 38.18324556475554,1.0,769
21070.833,0.7436025688631362, -1.4311657703504412, -1.4783333979469226, -1.8052457142014573, 1.5720957119416028, 2.3347117582133574,0.6512238113742177, -0.2947547146125203, -0.10033983012407639, 0.39650928294679344, -0.0006943191709252336, 0.5672204427394248,1.0,-8787.834860924797, -2847.2192580605106, 21690.44149570614, -76.86803588157028, 222.1752444884429, 38.16812628186179,1.0,769
21070.841,0.7453747265468297, -1.43196787835568, -1.4786064500034186, -1.8041667042510277, 1.5720938225096868, 2.3362553198098346,0.6512238113742177, -0.29475471461252023, -0.10033983012407639, 0.39650928294679344, -0.0006943191709252336, 0.5672204427394248,1.0,-8787.625285154649, -2846.8581454982414, 21689.612294578477, -76.89657894451076, 222.16940205798994, 38.17663465218075,1.0,769
21070.849,0.7472362450882253, -1.4328104325695028, -1.4788932706800493, -1.8030332853416606, 1.5720918378033726, 2.3378767153312756,0.6512238113742177, -0.2947547146125203, -0.10033983012407639, 0.3965092829467934, -0.0006943191709252336, 0.5672204427394248,1.0,-8787.406093558568, -2846.8765886147103, 21689.623638231136, -76.88816529120945, 222.18306058440015, 38.168802517964906,1.0,769
21070.857,0.7491871244873229, -1.4336934329919089, -1.4791938599768155, -1.8018454574733598, 1.5720897578226605, 2.3395759447776814,0.6512238113742177, -0.29475471461252023, -0.10033983012407638, 0.3965092829467935, -0.0006943191709252336, 0.5672204427394248,1.0,-8787.976906552252, -2847.8054045838, 21690.504268550896, -76.87135618630069, 222.180959642461, 38.177023733576334,1.0,769
21070.864999999998,0.7512273647441227, -1.434616879622899, -1.4795082178937156, -1.8006032206461224, 1.5720875825675502, 2.3413530081490506,0.6512238113742177, -0.29475471461252023, -0.10033983012407639, 0.39650928294679344, -0.0006943191709252336, 0.5672204427394248,1.0,-8787.62405723696, -2846.894365900047, 21690.02393903122, -76.88662056577928, 222.17645631335415, 38.17604366758971,1.0,769
21070.873,0.7533569658586245, -1.4355807724624725, -1.4798363444307512, -1.7993065748599495, 1.572085312038042, 2.3432079054453845,0.6512238113742176, -0.2947547146125203, -0.10033983012407639, 0.39650928294679344, -0.0006943191709252336, 0.5672204427394248,1.0,-8786.872207985441, -2847.3099405860603, 21690.109297020826, -76.87499527734133, 222.21468392806258, 38.17561204109958,1.0,769
21070.880999999998,0.7555759278308286, -1.43658511151063, -1.4801782395879215, -1.797955520114841, 1.5720829462341357, 2.3451406366666823,0.6512238113742177, -0.2947547146125203, -0.10033983012407639, 0.3965092829467935, -0.0006943191709252336, 0.567220442739425,1.0,-8788.980940986221, -2847.1057324719322, 21689.935823800286, -76.88562258703627, 222.12479827957003, 38.173423477590774,1.0,769
21070.889,0.7578842506607347, -1.4376298967673709, -1.4805339033652256, -1.7965500564107968, 1.5720804851558312, 2.347151201812944,0.6512238113742177, -0.29475471461252023, -0.10033983012407638, 0.39650928294679344, -0.0006943191709252335, 0.5672204427394248,1.0,-8787.195342868206, -2847.21492392477, 21689.694969870154, -76.86817729188158, 222.20071929515728, 38.18387558567926,1.0,769
21070.897,0.7602819343483429, -1.4387151282326958, -1.4809033357626653, -1.795090183747817, 1.5720779288031288, 2.3492396008841703,0.6512238113742177, -0.2947547146125203, -0.1003398301240764, 0.3965092829467935, -0.0006943191709252336, 0.567220442739425,1.0,-8786.798368271124, -2847.000443370476, 21689.988714386454, -76.87363841348653, 222.21034376351895, 38.16238202258765,1.0,769
21070.905,0.7627689788936532, -1.4398408059066048, -1.4812865367802406, -1.7935759021259017, 1.5720752771760282, 2.3514058338803605,0.6512238113742177, -0.2947547146125203, -0.10033983012407639, 0.39650928294679344, -0.0006943191709252336, 0.5672204427394248,1.0,-8788.50316177664, -2847.04579645579, 21689.812973874436, -76.89258642222157, 222.15299013843776, 38.16798909914351,1.0,769
21070.913,0.7653453842966657, -1.441006929789097, -1.4816835064179497, -1.7920072115450498, 1.5720725302745295, 2.3536499008015146,0.6512238113742177, -0.29475471461252023, -0.10033983012407639, 0.39650928294679344, -0.0006943191709252336, 0.567220442739425,1.0,-8786.46568780868, -2848.508781604567, 21689.771969477213, -76.81687305388385, 222.24125214552004, 38.1605186989386,1.0,769
21070.921,0.7680111505573802, -1.4422134998801726, -1.4820942446757943, -1.7903841120052633, 1.572069688098633, 2.3559718016476334,0.6512238113742176, -0.29475471461252023, -0.10033983012407639, 0.39650928294679344, -0.0006943191709252336, 0.5672204427394248,1.0,-8789.023620804885, -2844.4130242962756, 21689.550319603848, -76.9638756751718, 222.11367976221914, 38.159486407016686,1.0,769
21070.929,0.7707662776757969, -1.4434605161798322, -1.4825187515537737, -1.788706603506541, 1.5720667506483383, 2.358371536418716,0.6512238113742177, -0.2947547146125203, -0.10033983012407639, 0.39650928294679344, -0.0006943191709252336, 0.567220442739425,1.0,-8785.672222579464, -2849.2298480458176, 21689.917534903776, -76.80572466545124, 222.26348552105128, 38.16385459622089,1.0,769
21070.936999999998,0.7736107656519157, -1.444747978688076, -1.4829570270518877, -1.7869746860488824, 1.5720637179236454, 2.3608491051147626,0.6512238113742177, -0.2947547146125203, -0.10033983012407639, 0.39650928294679344, -0.0006943191709252336, 0.5672204427394248,1.0,-8789.164850252666, -2845.687604655205, 21690.29683787287, -76.90841187980132, 222.10967737543274, 38.16708601591057,1.0,769
21070.945,0.7765446144857365, -1.446075887404903, -1.4834090711701364, -1.785188359632289, 1.5720605899245546, 2.363404507735774,0.6512238113742176, -0.29475471461252023, -0.10033983012407638, 0.3965092829467934, -0.0006943191709252335, 0.5672204427394248,1.0,-8785.57001924001, -2849.398338287039, 21690.240927286966, -76.79731424171689, 222.24697061361945, 38.1478907331705,1.0,769
21070.952999999998,0.7795678241772596, -1.447444242330313, -1.4838748839085198, -1.78334762425676, 1.5720573666510658, 2.366037744281749,0.6512238113742177, -0.2947547146125203, -0.10033983012407639, 0.39650928294679344, -0.0006943191709252336, 0.5672204427394248,1.0,-8788.81741104448, -2844.3450975989426, 21689.847102522777, -76.9688160146531, 222.1240462778149, 38.17733918327713,1.0,769
21070.961,0.7826803947264847, -1.4488530434643074, -1.4843544652670388, -1.7814524799222946, 1.5720540481031786, 2.368748814752688,0.6512238113742177, -0.29475471461252023, -0.10033983012407639, 0.3965092829467935, -0.0006943191709252336, 0.567220442739425,1.0,-8785.98839299337, -2850.224182980479, 21690.1345371082, -76.76875091755704, 222.2270307378464, 38.176464999184105,1.0,769
21070.968999999997,0.7858823261334118, -1.4503022908068859, -1.4848478152456916, -1.7795029266288944, 1.5720506342808938, 2.3715377191485913,0.6512238113742177, -0.2947547146125203, -0.10033983012407639, 0.3965092829467935, -0.0006943191709252336, 0.5672204427394248,1.0,-8788.895400733316, -2844.155435092831, 21690.22156758879, -76.97190515730895, 222.12950145521893, 38.17977123417421,1.0,769
21070.977,0.7891736183980411, -1.4517919843580476, -1.48535493384448, -1.7774989643765577, 1.5720471251842105, 2.374404457469459,0.6512238113742176, -0.29475471461252023, -0.10033983012407637, 0.39650928294679333, -0.0006943191709252335, 0.5672204427394248,1.0,-8786.324503732892, -2850.844582395075, 21690.31381659652, -76.73164199195264, 222.22169563309058, 38.14243716108177,1.0,769
21070.985,0.7925542715203726, -1.4533221241177934, -1.485875821063403, -1.7754405931652864, 1.5720435208131294, 2.377349029715291,0.6512238113742177, -0.29475471461252023, -0.10033983012407638, 0.39650928294679344, -0.0006943191709252336, 0.5672204427394248,1.0,-8788.10999680091, -2844.1181880495105, 21689.57795853063, -76.98285410459832, 222.15049680717988, 38.16001428544959,1.0,769
21070.993,0.796024285500406, -1.4548927100861224, -1.4864104769024609, -1.7733278129950785, 1.5720398211676503, 2.3803714358860866,0.6512238113742177, -0.29475471461252023, -0.10033983012407639, 0.3965092829467934, -0.0006943191709252335, 0.5672204427394248,1.0,-8787.447771264338, -2849.5480433539315, 21689.94562842768, -76.7880977190396, 222.17493194201631, 38.157203811508396,1.0,769
21071.001,0.7995836603381418, -1.4565037422630356, -1.4869589013616533, -1.771160623865935, 1.5720360262477728, 2.3834716759818466,0.6512238113742177, -0.2947547146125203, -0.10033983012407639, 0.39650928294679344, -0.0006943191709252335, 0.5672204427394248,1.0,-8787.55929740187, -2846.542785636824, 21689.77239946982, -76.90794052369716, 222.19037516692265, 38.176317202751534,1.0,769
21071.009,0.8032323960335795, -1.458155220648532, -1.4875210944409814, -1.768939025777856, 1.5720321360534975, 2.3866497500025705,0.6512238113742176, -0.29475471461252023, -0.10033983012407638, 0.3965092829467934, -0.0006943191709252335, 0.5672204427394248,1.0,-8789.07916088248, -2845.802228097252, 21689.793584414547, -76.90522588779973, 222.13668680460722, 38.157161570576136,1.0,769
21071.017,0.8069704925867194, -1.4598471452426125, -1.4880970561404432, -1.766663018730842, 1.5720281505848241, 2.389905657948259,0.6512238113742178, -0.2947547146125203, -0.1003398301240764, 0.3965092829467935, -0.0006943191709252337, 0.567220442739425,1.0,-8786.87714333656, -2848.523265448155, 21689.89918713044, -76.81956513102224, 222.22522847290657, 38.18121032917222,1.0,769
21071.024999999998,0.8107979499975614, -1.4615795160452763, -1.4886867864600406, -1.7643326027248918, 1.5720240698417527, 2.393239399818911,0.6512238113742177, -0.2947547146125203, -0.10033983012407638, 0.39650928294679344, -0.0006943191709252335, 0.5672204427394248,1.0,-8787.43271524954, -2846.2989360345227, 21689.90315637465, -76.89749355680266, 222.17811760913162, 38.1618978138778,1.0,769
21071.033,0.8147147682661054, -1.4633523330565241, -1.4892902853997727, -1.7619477777600059, 1.572019893824283, 2.396650975614528,0.6512238113742176, -0.29475471461252023, -0.10033983012407638, 0.39650928294679344, -0.0006943191709252336, 0.5672204427394248,1.0,-8788.956380108742, -2846.866808055879, 21690.034993431018, -76.86646446263134, 222.13176953742646, 38.18200173440587,1.0,769
21071.040999999997,0.8187209473923517, -1.4651655962763561, -1.4899075529596395, -1.7595085438361844, 1.5720156225324156, 2.4001403853351087,0.6512238113742177, -0.29475471461252023, -0.10033983012407639, 0.39650928294679344, -0.0006943191709252335, 0.5672204427394248,1.0,-8786.25693973983, -2847.981151657449, 21689.877356932997, -76.8613704490401, 222.2364612583081, 38.17263903108835,1.0,769
21071.049,0.8228164873763, -1.4670193057047705, -1.490538589139641, -1.7570149009534273, 1.5720112559661499, 2.4037076289806536,0.6512238113742177, -0.2947547146125203, -0.10033983012407639, 0.39650928294679344, -0.0006943191709252337, 0.5672204427394248,1.0,-8787.980145940737, -2847.750862494948, 21689.76839906674, -76.8585858862377, 222.1414652350922, 38.17600763004421,1.0,769
21071.057,0.8270013882179503, -1.4689134613417698, -1.491183393939778, -1.7544668491117346, 1.572006794125486, 2.4073527065511624,0.6512238113742176, -0.29475471461252023, -0.10033983012407638, 0.39650928294679344, -0.0006943191709252335, 0.5672204427394248,1.0,-8788.440890537933, -2847.58741909577, 21690.213687397834, -76.86888878282409, 222.1374437245915, 38.15662588054121,1.0,769
21071.065,0.8312756499173029, -1.4708480631873524, -1.491841967360049, -1.7518643883111062, 1.5720022370104243, 2.4110756180466355,0.6512238113742177, -0.29475471461252023, -0.10033983012407639, 0.3965092829467934, -0.0006943191709252336, 0.5672204427394248,1.0,-8786.96384644186, -2846.908391942671, 21690.270321753076, -76.8766199965537, 222.1823228377852, 38.17144840494589,1.0,769
21071.073,0.8356392724743575, -1.472823111241519, -1.4925143094004554, -1.7492075185515423, 1.5719975846209644, 2.414876363467073,0.6512238113742176, -0.29475471461252023, -0.10033983012407638, 0.39650928294679344, -0.0006943191709252335, 0.5672204427394248,1.0,-8787.544188781198, -2847.680965332217, 21689.971459651188, -76.85757480851629, 222.19848690243458, 38.15773847184195,1.0,769
21071.081,0.8400922558891143, -1.474838605504269, -1.4932004200609965, -1.7464962398330428, 1.5719928369571066, 2.418754942812474,0.6512238113742177, -0.2947547146125203, -0.10033983012407639, 0.39650928294679344, -0.0006943191709252336, 0.5672204427394248,1.0,-8787.746293705735, -2847.4809237997824, 21689.75941872659, -76.85208653087454, 222.17779001685187, 38.16262905822941,1.0,769
21071.089,0.8446346001615731, -1.4768945459756022, -1.4939002993416723, -1.7437305521556077, 1.5719879940188506, 2.4227113560828397,0.6512238113742177, -0.2947547146125203, -0.10033983012407639, 0.3965092829467935, -0.0006943191709252336, 0.567220442739425,1.0,-8787.99098346591, -2846.286186152528, 21689.75155866047, -76.88031810208145, 222.14083940981914, 38.14821618767553,1.0,769
21071.096999999998,0.8492663052917341, -1.4789909326555195, -1.4946139472424829, -1.740910455519236, 1.5719830558061965, 2.4267456032781696,0.6512238113742178, -0.2947547146125203, -0.1003398301240764, 0.3965092829467935, -0.0006943191709252337, 0.567220442739425,1.0,-8786.968904664622, -2846.1624959245064, 21689.68365777768, -76.8866938888682, 222.16324758858957, 38.12890244059827,1.0,769
21071.105,0.8539873712795971, -1.481127765544021, -1.495341363763428, -1.7380359499239297, 1.5719780223191444, 2.4308576843984633,0.6512238113742177, -0.29475471461252023, -0.10033983012407639, 0.39650928294679344, -0.0006943191709252336, 0.567220442739425,1.0,-8787.512569572345, -2848.185658689189, 21689.738575489253, -76.82335559360652, 222.15260527762734, 38.16441334806149,1.0,769
21071.112999999998,0.8587977981251623, -1.4833050446411056, -1.4960825489045089, -1.735107035369687, 1.5719728935576942, 2.4350475994437213,0.6512238113742177, -0.29475471461252023, -0.10033983012407639, 0.39650928294679344, -0.0006943191709252336, 0.567220442739425,1.0,-8787.06536263141, -2848.254919675551, 21689.580383736673, -76.83127891162437, 222.1703485115442, 38.16512433107056,1.0,769
21071.121,0.8636975858284297, -1.4855227699467743, -1.4968375026657244, -1.7321237118565094, 1.571967669521846, 2.4393153484139436,0.6512238113742177, -0.2947547146125203, -0.10033983012407639, 0.39650928294679344, -0.0006943191709252336, 0.5672204427394248,1.0,-8786.637455613714, -2848.0000309282905, 21689.565338039087, -76.84904284287413, 222.19759738304958, 38.17041277200806,1.0,769
21071.129,0.868686734389399, -1.4877809414610264, -1.4976062250470745, -1.7290859793843962, 1.5719623502115996, 2.4436609313091298,0.6512238113742176, -0.2947547146125203, -0.10033983012407639, 0.39650928294679344, -0.0006943191709252336, 0.5672204427394248,1.0,-8788.044469346341, -2846.027913424181, 21689.627549208686, -76.89814580685822, 222.13986157395783, 38.14625348424951,1.0,769
21071.137,0.8737351051095346, -1.4900659179082663, -1.4983840723118922, -1.7260121884398254, 1.571956967760111, 2.448058097114455,0.6512238113742176, -0.2947547146125203, -0.1003398301240764, 0.3965092829467935, -0.0006943191709252337, 0.567220442739425,1.0,-8788.062158268483, -2847.26213829696, 21690.017279634467, -76.85126227065354, 222.13023566101037, 38.163695058984274,1.0,769
21071.145,0.8787098220438696, -1.4923175574285779, -1.4991505710844928, -1.722983242922103, 1.5719516638365183, 2.452391109963052,0.6512238113742176, -0.2947547146125203, -0.10033983012407639, 0.39650928294679344, -0.0006943191709252336, 0.5672204427394248,1.0,-8786.931427752148, -2843.0932747310226, 21690.63076799408, -76.97561655063078, 222.19698262871754, 38.17201963533475,1.0,769
21071.153,0.8835951781205025, -1.4945287507403053, -1.4999033012369587, -1.7200087063633154, 1.5719464551873232, 2.456646288886685,0.6512238113742176, -0.2947547146125203, -0.1003398301240764, 0.39650928294679344, -0.0006943191709252337, 0.567220442739425,1.0,-8787.643398989012, -2842.707244430031, 21691.071869905307, -76.99544359376335, 222.19478195519042, 38.1811720140486,1.0,769
21071.161,0.8883911733394332, -1.4966994978434487, -1.500642262769289, -1.7170885787634633, 1.5719413418125265, 2.4608236338853535,0.6512238113742176, -0.29475471461252034, -0.1003398301240764, 0.3965092829467935, -0.0006943191709252337, 0.5672204427394251,1.0,-8788.720362981894, -2845.6783024311135, 21691.325940738134, -76.89195131656862, 222.1240094217883, 38.153407087657655,1.0,769
21071.168999999998,0.8930978077006618, -1.4988297987380097, -1.5013674556814856, -1.7142228601225478, 1.5719363237121278, 2.464923144959058,0.6512238113742177, -0.29475471461252034, -0.1003398301240764, 0.3965092829467935, -0.0006943191709252338, 0.567220442739425,1.0,-8786.476115575117, -2843.8543740174855, 21691.573655456585, -76.94356638041009, 222.2023293301728, 38.1649177794888,1.0,769
21071.177,0.8977150812041884, -1.5009196534239857, -1.5020788799735465, -1.711411550440567, 1.571931400886127, 2.4689448221077988,0.6512238113742176, -0.29475471461252023, -0.1003398301240764, 0.39650928294679344, -0.0006943191709252336, 0.567220442739425,1.0,-8785.256282706567, -2843.146290314895, 21691.63215972111, -76.99084871995092, 222.26764394823988, 38.18259202370746,1.0,769
21071.184999999998,0.9022429938500128, -1.5029690619013785, -1.5027765356454728, -1.7086546497175226, 1.5719265733345242, 2.472888665331575,0.6512238113742176, -0.2947547146125203, -0.10033983012407639, 0.3965092829467935, -0.0006943191709252336, 0.567220442739425,1.0,-8787.90885841988, -2843.8235223890697, 21690.799593856846, -76.9647253206146, 222.1563381143377, 38.17566620050667,1.0,769
21071.193,0.9066815456381352, -1.504978024170188, -1.5034604226972643, -1.705952157953413, 1.5719218410573197, 2.4767546746303872,0.6512238113742176, -0.2947547146125203, -0.1003398301240764, 0.39650928294679344, -0.0006943191709252337, 0.567220442739425,1.0,-8788.555499629158, -2844.3081856245353, 21690.65771063017, -76.96842688601487, 222.13464957762403, 38.16310424590111,1.0,769
21071.200999999997,0.9110307365685554, -1.5069465402304134, -1.5041305411289203, -1.7033040751482398, 1.5719172040545133, 2.480542850004235,0.6512238113742176, -0.29475471461252034, -0.1003398301240764, 0.3965092829467935, -0.0006943191709252336, 0.567220442739425,1.0,-8787.011063561145, -2845.01061280919, 21690.666774212612, -76.9325422405507, 222.18274899477694, 38.16060015072782,1.0,769
21071.209,0.9152905666412735, -1.5088746100820547, -1.5047868909404425, -1.7007104013020022, 1.5719126623261048, 2.484253191453119,0.6512238113742176, -0.2947547146125203, -0.1003398301240764, 0.3965092829467935, -0.0006943191709252337, 0.567220442739425,1.0,-8786.31781812462, -2845.774642202603, 21690.547726432174, -76.90471526549283, 222.22802542082337, 38.15905151883939,1.0,769
21071.217,0.9194610358562895, -1.5107622337251128, -1.505429472131829, -1.6981711364146994, 1.5719082158720945, 2.487885698977039,0.6512238113742176, -0.29475471461252023, -0.10033983012407639, 0.39650928294679344, -0.0006943191709252335, 0.5672204427394248,1.0,-8787.368282903926, -2845.2577917844274, 21689.90937666941, -76.92675722256848, 222.16480081406957, 38.167558429866205,1.0,769
21071.225,0.9235421442136034, -1.5126094111595876, -1.506058284703082, -1.695686280486333, 1.5719038646924821, 2.4914403725759944,0.6512238113742176, -0.2947547146125203, -0.10033983012407642, 0.3965092829467935, -0.0006943191709252337, 0.567220442739425,1.0,-8787.822021666057, -2844.8005450108603, 21690.055525281623, -76.94315197787589, 222.12432007021943, 38.14704607774058,1.0,769
21071.233,0.9275338917132151, -1.5144161423854783, -1.5066733286541982, -1.6932558335169023, 1.571899608787268, 2.4949172122499856,0.6512238113742175, -0.29475471461252023, -0.10033983012407639, 0.3965092829467934, -0.0006943191709252336, 0.567220442739425,1.0,-8786.072708793916, -2843.3497190852513, 21690.226039535966, -76.96599271532207, 222.19943775452072, 38.167612789905945,1.0,769
21071.240999999998,0.931436278355125, -1.5161824274027849, -1.5072746039851808, -1.6908797955064063, 1.5718954481564518, 2.498316217999013,0.6512238113742176, -0.2947547146125203, -0.10033983012407639, 0.39650928294679344, -0.0006943191709252336, 0.567220442739425,1.0,-8785.66454962013, -2846.011676609949, 21690.59559834989, -76.88194157852561, 222.25025058100402, 38.14180012080146,1.0,769
21071.249,0.9352493041393325, -1.5179082662115082, -1.5078621106960286, -1.6885581664548468, 1.5718913828000338, 2.5016373898230757,0.6512238113742176, -0.29475471461252034, -0.10033983012407642, 0.39650928294679344, -0.0006943191709252337, 0.567220442739425,1.0,-8787.523158698195, -2842.620645097646, 21690.908778488432, -76.99173403282055, 222.15173661927628, 38.16000966020155,1.0,769
21071.256999999998,0.938974823069197, -1.5195940744754566, -1.508443806650586, -1.686282566589755, 1.5718874135628043, 2.5048830436365463,0.64976326425131, -0.2938538470948121, -0.10447500401640675, 0.39974167668113936, -0.000691160804505243, 0.5663468060594379,1.0,-8787.377733338657, -2844.017849126354, 21691.126833585357, -76.94096285723356, 222.1659923902148, 38.17762462450813,1.0,769
21071.265,0.9426232323473933, -1.5212421538064103, -1.5090656561086844, -1.6840046946184444, 1.571883545556214, 2.5080662935206295,0.6449160894807526, -0.2909046123359896, -0.11776172839542838, 0.41007269768694055, -0.0006808831658099955, 0.5634091216741991,1.0,-8785.76195865635, -2845.043397386469, 21690.648055642443, -76.91685450849542, 222.25790689670265, 38.176075498237424,1.0,769
21071.272999999997,0.9462054322624802, -1.5228548351284719, -1.5097796558548264, -1.6816701845563067, 1.571879785199545, 2.5112012486475175,0.636676753920538, -0.2859951514645239, -0.13902078892065672, 0.4264109282819168, -0.0006639816409214791, 0.5582973974272166,1.0,-8788.56846175274, -2843.6771534770633, 21690.294120720377, -76.9682222231121, 222.1319633994621, 38.1681173227841,1.0,769
21071.281,0.949729742923118, -1.524433789660086, -1.5106306796778952, -1.6792324606256646, 1.5718761388264042, 2.5142991696509216,0.6250489208796676, -0.27923567264394805, -0.16669907072510395, 0.44731302790921074, -0.0006410919931980469, 0.5508750761410265,1.0,-8788.129379517983, -2845.404989163085, 21689.66563664245, -76.91683328175691, 222.17555537101714, 38.1693492463113,1.0,769
21071.289,0.953202083643435, -1.5259800825885304, -1.5116568295840835, -1.6766523318882713, 1.5718726126380347, 2.5173686534687554,0.6101367727562115, -0.2707890460759496, -0.1990498049297522, 0.4711948205753182, -0.0006130224599098037, 0.5410736100382253,1.0,-8786.594198970875, -2846.9807549405996, 21689.18660276257, -76.88543600683619, 222.21573787788776, 38.16120282839418,1.0,769
21071.297,0.956626153508622, -1.5274942270110845, -1.512889791982973, -1.673897581634038, 1.571869212657141, 2.5204158196513213,0.5922098323535926, -0.26089077303486363, -0.234295896756837, 0.49651477684654727, -0.0005807640657457532, 0.528962844496694,1.0,-8786.680405318379, -2844.62214506484, 21688.2176133865, -76.94716886607787, 222.18660303942397, 38.16033376698553,1.0,769
21071.305,0.9600036119405249, -1.5289762378761953, -1.5143551938736142, -1.6709425567697629, 1.571865944681713, 2.5234444966694967,0.5717104985655045, -0.2498436090475059, -0.270788690626682, 0.5219274640161705, -0.0005454404616896983, 0.5147719754193484,1.0,-8787.229186440725, -2844.1185431718995, 21687.68641041006, -76.95814098625866, 222.1444319421925, 38.16717166609769,1.0,769
21071.313,0.9633342592632379, -1.5304256859246452, -1.5160729590306028, -1.6677677572078533, 1.5718628142388509, 2.526456408222919,0.549209009108258, -0.23799053504196485, -0.3071344211214195, 0.5463829091535242, -0.0005082127574980458, 0.4988625814910356,1.0,-8786.91792951478, -2845.2218543537047, 21687.333777008134, -76.92008813888398, 222.15186444863963, 38.155507669103514,1.0,769
21071.321,0.9666162172686971, -1.5318417516307177, -1.5180576641901586, -1.6643594252550562, 1.5718598265385895, 2.5294513595481742,0.5253289377107152, -0.2256776993842902, -0.3422665149649465, 0.5691617058881505, -0.00047017269342829946, 0.4816715140282061,1.0,-8786.23191431066, -2844.181029201609, 21687.732594776502, -76.97541903308746, 222.20820465920383, 38.1696736050734,1.0,769
21071.328999999998,0.9698461097822737, -1.5332232791433649, -1.5203188952362066, -1.6607091350011833, 1.5718569864277225, 2.532427423726979,0.5006710854096211, -0.21322008467041093, -0.37545888302305025, 0.5898538155638391, -0.00043225626277965557, 0.4636470384961841,1.0,-8786.382847674118, -2844.9582767045094, 21688.015147020724, -76.93477858258831, 222.17051854970572, 38.1680066384898,1.0,769
21071.337,0.9730192432283674, -1.534568830227375, -1.5228616033864535, -1.6568133817078383, 1.5718542983436277, 2.5353811279943725,0.47575606599711895, -0.20087827314106388, -0.40629210288254375, 0.6083013837206256, -0.0003951953267313142, 0.44519667852120764,1.0,-8786.649433827906, -2845.0021278131862, 21687.526911414487, -76.93831113850021, 222.1738945155987, 38.1866142357994,1.0,769
21071.344999999998,0.9761297871959997, -1.535876738204541, -1.5256864613784664, -1.6526731711971445, 1.5718517662680895, 2.538307640046896,0.45099339485827533, -0.18884859547810431, -0.4345927731595182, 0.6245281602295546, -0.0003595080092351531, 0.42665528841437533,1.0,-8786.972647064502, -2845.6993934270276, 21688.27189845496, -76.91451674480453, 222.17597499694955, 38.162402837914755,1.0,769
21071.353,0.979170955004407, -1.5371451618948235, -1.5287902196557548, -1.6482936092404685, 1.5718493936811262, 2.541200954350784,0.4266746124680902, -0.17726440210695935, -0.4603654594113156, 0.6386726824226872, -0.0003255178238827593, 0.4082730083743366,1.0,-8786.078437497683, -2845.5676716663365, 21687.97643020987, -76.90794672099946, 222.2016458359086, 38.166332031745156,1.0,769
21071.361,0.9821351842686338, -1.538372139557521, -1.5321660625538431, -1.6436834909471498, 1.5718471835148122, 2.544054078450149,0.40298293945993097, -0.16620431174633982, -0.4837305375895403, 0.650934369791843, -0.00029338834461153603, 0.39021789350498626,1.0,-8787.539625437437, -2845.318541853281, 21688.3247354754, -76.93458306208137, 222.1826761767693, 38.16894725966998,1.0,769
21071.369,0.9850143174651265, -1.539555642832437, -1.5358039644863544, -1.6388548901532296, 1.571845138107103, 2.546859219275166,0.3800114628543868, -0.15570348434995313, -0.5048743369799038, 0.6615349642010037, -0.0002631623205880842, 0.3725869546895399,1.0,-8786.441991973186, -2845.265318617221, 21688.28995557645, -76.90936520176004, 222.1794075355898, 38.15214172700445,1.0,769
21071.377,0.9877997824973264, -1.5406936306810461, -1.5396910461310886, -1.6338227488101706, 1.571843259155661, 2.5496079694502605,0.35778373960833854, -0.14576511857928154, -0.5240128257839767, 0.670693746283924, -0.0002347981466465421, 0.3554204944242777,1.0,-8785.976400904243, -2844.267256571792, 21688.484009203792, -76.95519253076696, 222.20524561280263, 38.16443004978157,1.0,769
21071.385,0.9904827732612629, -1.541784103327661, -1.5438119306160987, -1.6286044663735906, 1.5718415476716776, 2.552291493602293,0.336273132504765, -0.1363706301028255, -0.5413672231428308, 0.678613359834928, -0.00020820032195136386, 0.3387164386527294,1.0,-8786.80629968923, -2843.8059000823996, 21688.936248973212, -76.97211089470485, 222.1644515997313, 38.17751057144727,1.0,769
21071.393,0.9930544302111469, -1.542825156200598, -1.548149099705772, -1.6232194891919862, 1.5718400039336997, 2.5549007146687477,0.3154191962742123, -0.12748792349917268, -0.5571488591302897, 0.6854729741573433, -0.00018324310088452486, 0.32244298236318925,1.0,-8785.166045529244, -2845.5469640181946, 21689.14883998585, -76.9108841706514, 222.22802543875997, 38.18125964256117,1.0,769
21071.400999999998,0.9955060209249644, -1.543815033873349, -1.5526832499869077, -1.6176888998954597, 1.5718386274414533, 2.5574265002059158,0.2951407427496819, -0.11907775332483321, -0.5715505958342635, 0.6914260914884421, -0.00015978795636772885, 0.3065489871302793,1.0,-8785.85593025475, -2844.493657178551, 21689.659201780265, -76.93106875892119, 222.19956381531455, 38.16520656129424,1.0,769
21071.409,0.9978291206700691, -1.544752184005743, -1.5573936490547933, -1.6120350067844464, 1.571837416869668, 2.559859848697083,0.2753459236660835, -0.11109845529032873, -0.5847425785860619, 0.6966010495806043, -0.0001376960606775754, 0.2909722170656376,1.0,-8786.340599168316, -2842.648049890281, 21688.634594762338, -76.99155004797194, 222.1734702000149, 38.16886051617183,1.0,769
21071.416999999998,1.0000157929687765, -1.5456353112851167, -1.5622584916992892, -1.6062809332184411, 1.5718363700219016, 2.5621920758607155,0.2559399728245459, -0.10350942467465958, -0.5968706544639911, 0.7011029345767985, -0.00011683708777760308, 0.27564581010912315,1.0,-8785.947986378547, -2843.71146346722, 21688.675285446596, -76.97447880568595, 222.19434809518407, 38.181863226732844,1.0,769
21071.425,1.0020587701639565, -1.5464634313674797, -1.5672552560909025, -1.6004502070047248, 1.571835483784364, 2.5644150009586464,0.23683132145285363, -0.09627371458683803, -0.6080563100096216, 0.7050161299084411, -9.709550797226251e-05, 0.2605034895302111,1.0,-8786.641691672334, -2842.689289445285, 21689.082190623823, -76.99542293508378, 222.1509931496484, 38.172182281936955,1.0,769
21071.432999999997,1.003951633984627, -1.5472359248186827, -1.5723610599668651, -1.594566349787093, 1.571834754079743, 2.5665211331042603,0.2179367628667298, -0.08936007877152778, -0.6183973883079226, 0.7084070872800949, -7.837533197215469e-05, 0.2454840247260437,1.0,-8784.899518185994, -2846.176054069425, 21689.988636898997, -76.88929619760651, 222.23617117199814, 38.16747748374979,1.0,769
21071.441,1.0056889961115478, -1.5479525910555836, -1.577553016817217, -1.5886524664345778, 1.5718341758210275, 2.568503857570682,0.19918626481228446, -0.08274472350773414, -0.6279691483883564, 0.7113271483831085, -6.0604042609108974e-05, 0.23053541076040096,1.0,-8786.108475024092, -2843.809487575214, 21690.387733836345, -76.96009965775801, 222.20895368068932, 38.178542060950946,1.0,769
21071.449,1.0072666787428126, -1.5486137022872164, -1.5828085920708812, -1.5827308344301798, 1.571833742865332, 2.5703576220989595,0.1805279427867892, -0.07641297426460773, -0.6368254486429492, 0.7138154057142581, -4.373625625889518e-05, 0.2156191824723426,1.0,-8785.24530253107, -2844.2285960300796, 21690.637206400464, -76.94580482652421, 222.22988705694542, 38.1627261714969,1.0,769
21071.457,1.0086818951594434, -1.5492200574559538, -1.5881059592817426, -1.576822493259595, 1.571833447967722, 2.572078123206254,0.16193362368087919, -0.07036100803813534, -0.6449999945911554, 0.7159016946340596, -2.7757484000727485e-05, 0.20071522088882573,1.0,-8787.029698048978, -2842.4724062763707, 21689.881461494126, -76.99011194816748, 222.17682186461752, 38.17351763143094,1.0,769
21071.465,1.0099334302909833, -1.5497730361786815, -1.5934243563147295, -1.570946833799936, 1.571833282735038, 2.5736624924940217,0.14340533943095798, -0.064597748550597, -0.6525077084138657, 0.7176098719915238, -1.2688202893062451e-05, 0.18582734304910414,1.0,-8786.355061614735, -2843.1998814271255, 21690.252253884242, -76.96583222135345, 222.20723309337058, 38.16098637172473,1.0,769
21071.472999999998,1.0110218212810897, -1.5502746526879578, -1.59874444153189, -1.5651211877084643, 1.5718332375797193, 2.5751094829562033,0.12498297801658963, -0.05914696224398113, -0.6593463626543403, 0.7189615621517693, 1.4117171666830444e-06, 0.1709898776658993,1.0,-8785.695726372194, -2842.3178000875787, 21690.72415606184, -76.99210542524438, 222.23647568158339, 38.17475259585265,1.0,769
21071.481,1.0119495380531285, -1.550727609773185, -1.604048649978468, -1.5593604168113142, 1.5718333016736294, 2.5764196552874084,0.10675316006284513, -0.05404951997677337, -0.6654986713130212, 0.7199805287478833, 1.4438374755398386e-05, 0.1562752978014502,1.0,-8785.190783302218, -2843.442030904638, 21691.303924029693, -76.97576947899151, 222.26211138367017, 38.16848609428541,1.0,769
21071.488999999998,1.0127211638757658, -1.5511353527217766, -1.6093215495689908, -1.5536765024922214, 1.5718334629018802, 2.577595564191102,0.0888591755011135, -0.049365693873022316, -0.6709350330555734, 0.7206977360175266, 2.6239360506992227e-05, 0.14180278286099118,1.0,-8786.110552222839, -2843.052576813794, 21691.098130331215, -76.9726687359061, 222.20934803315316, 38.1701755859892,1.0,769
21071.497,1.0133435759285632, -1.5515021232603212, -1.6145501972733367, -1.5480781350812487, 1.571833707816656, 2.578641944687791,0.07151147878030113, -0.045177233515967974, -0.6756170450533232, 0.7211569613994765, 3.661009897465578e-05, 0.12774728996220897,1.0,-8786.313418990458, -2844.361259926929, 21691.24918265317, -76.93565170976782, 222.22995951152888, 38.172478725199994,1.0,769
21071.504999999997,1.013826125867569, -1.5518330134957532, -1.6197244953028207, -1.5425703032435116, 1.5718340215910387, 2.5795658984232093,0.05499778324111202, -0.04158880701243153, -0.6795017154631112, 0.7214204708712814, 4.529199772308939e-05, 0.11434830916558861,1.0,-8787.168942057562, -2843.150257231807, 21690.566249215088, -76.99656437829515, 222.17982174789125, 38.17270760433075,1.0,769
21071.513,1.0141808203909126, -1.552134019856517, -1.6248375472962726, -1.5371538833679068, 1.5718343879728316, 2.580377079976506,0.03969121245780571, -0.038728203660248324, -0.6825459678664879, 0.7215737437108215, 5.1973760888220816e-05, 0.10191695310377323,1.0,-8786.58827725006, -2844.586270774418, 21690.814286252556, -76.94541637181811, 222.20026104194454, 38.16915195967414,1.0,769
21071.521,1.0144225018043989, -1.552412097033736, -1.6298860145061145, -1.5318252289558405, 1.5718347892383844, 2.581087883168428,0.0260542812166153, -0.0367444898552518, -0.6847105599046384, 0.7217275556178424, 5.629759529377887e-05, 0.09083940963653628,1.0,-8786.94590945217, -2844.206626078203, 21690.93225727032, -76.95797331456293, 222.1928119635254, 38.176866152178974,1.0,769
21071.529,1.014569028587099, -1.5526752119223772, -1.6348704719844367, -1.5265757600099494, 1.5718352061464171, 2.5817136273695107,0.014635746036517946, -0.03580311735692171, -0.6859620249130448, 0.7220150215103572, 5.787236015267958e-05, 0.08157412253199298,1.0,-8785.402881291826, -2845.8598259436403, 21691.004617703653, -76.89724736811479, 222.24547895967322, 38.17994204871948,1.0,769
21071.537,1.0146414559569454, -1.552932397562424, -1.639795764769084, -1.521391552422835, 1.5718356178918453, 2.5822727438082596,0.00605668007312262, -0.03607685507654929, -0.6862709257822619, 0.7225807502797064, 5.629591001171473e-05, 0.07463946500492802,1.0,-8787.033810484889, -2844.224339197378, 21690.67161922852, -76.96992739242447, 222.17250219485663, 38.1823401293471,1.0,769
21071.545,1.0146642164363253, -1.553193807080035, -1.6446713640697253, -1.5162529273657839, 1.5718360020596036, 2.5827869618793398,0.0009816579488009561, -0.03773144521346507, -0.6856049914104126, 0.7235595737503495, 5.1188814339869394e-05, 0.07058831884115548,1.0,-8786.27510161901, -2844.738128107406, 21690.88516359836, -76.95295488691704, 222.20164943732743, 38.17928745666043,1.0,769
21071.553,1.0146651158640974, -1.5534706949833508, -1.6495116046958511, -1.5111342324923758, 1.5718363347356705, 2.583281327097584,-0.0001281471300872114, -0.04083745639172269, -0.6839622744256344, 0.7250210597161115, 4.241700086001635e-05, 0.06980224971450012,1.0,-8786.711434651212, -2844.717354534615, 21690.170926599432, -76.92980457738062, 222.18339596993286, 38.17094696448689,1.0,769
21071.560999999998,1.0146642350145518, -1.553771065346326, -1.6543284535255829, -1.5060154508586, 1.5718365993491785, 2.583774067782747,-0.0001216567667354234, -0.0443479102499371, -0.6820408463911, 0.7266105183828128, 3.2613863456434215e-05, 0.06993343565135757,1.0,-8787.203293059707, -2846.066889143811, 21690.161735018195, -76.90846629844978, 222.15228625609802, 38.173920439344386,1.0,769
21071.569,1.014663401259135, -1.5540956667897072, -1.6591231345797777, -1.5008946056768284, 1.5718367943148845, 2.5842668475409134,-0.00011521273146162564, -0.047873102585254644, -0.6800982373062833, 0.7281935272789012, 2.2764247184634256e-05, 0.07006230583327781,1.0,-8786.392600868769, -2846.916364830676, 21690.36893480107, -76.88727740697996, 222.1844787270016, 38.17807929018048,1.0,769
21071.576999999997,1.0146626140819215, -1.5544445276345336, -1.6638957307995037, -1.4957715856862448, 1.5718369195590303, 2.5847596657795644,-0.00010881482934223714, -0.051412908571241984, -0.6781343408382857, 0.7297698552168504, 1.2868595965272533e-05, 0.07018885252358917,1.0,-8787.351298046186, -2846.1798381328836, 21690.590853867565, -76.93088104058643, 222.137693690587, 38.18082735769781,1.0,769
21071.585,1.014661872972351, -1.5548176775316014, -1.6686463223141335, -1.4906462811079724, 1.571836975004712, 2.5852525219059963,-0.00010246332611992293, -0.05496719763106822, -0.6761490540606689, 0.7313392686660676, 2.9273720888289053e-06, 0.07031306761284496,1.0,-8786.747114253829, -2846.1541414298044, 21689.961713414206, -76.9078580510112, 222.18551223588838, 38.17920250129703,1.0,769
21071.593,1.0146611774250023, -1.5552151474281724, -1.6733749864863947, -1.4855185836333176, 1.571836960571985, 2.585745415327077,-9.615848385364585e-05, -0.05853583356652477, -0.6741422774550018, 0.7329015318830266, -7.0589442968512385e-06, 0.07043494305872486,1.0,-8786.894548546881, -2846.1509577423285, 21689.74556101229, -76.92126592999128, 222.17992865477493, 38.1774028567809,1.0,769
21071.601,1.0146605269394997, -1.5556369695350805, -1.678081797956203, -1.480388386412832, 1.5718368761779695, 2.586238345449126,-8.990056119397961e-05, -0.06211867452865624, -0.6721139150208363, 0.7344564069920347, -1.7089855151516024e-05, 0.0705544709025833,1.0,-8786.052903153393, -2846.590783366556, 21690.702530311068, -76.88846366838689, 222.2067702727964, 38.177794615867185,1.0,769
21071.609,1.0146599210204275, -1.5560831772941164, -1.6827668286832758, -1.4752555840463097, 1.5718367217369582, 2.5867313116778203,-8.368981401901978e-05, -0.06571557299268652, -0.6700638743859525, 0.7360036540689634, -2.716484204134059e-05, 0.07067164328321161,1.0,-8786.9668176929, -2845.7466520174085, 21690.230946245683, -76.91474855571502, 222.17328455448944, 38.179847865698804,1.0,769
21071.617,1.014659359177238, -1.5565538053457013, -1.6874301479885485, -1.4701200725737031, 1.5718364971605228, 2.5872243134180795,-7.752649500729944e-05, -0.06932637573505906, -0.6679920669151788, 0.7375430312290542, -3.728336840403076e-05, 0.07078645245299595,1.0,-8786.077555999578, -2846.3273806866637, 21690.379196101214, -76.904114280823, 222.2045733604799, 38.184029131116915,1.0,769
21071.625,1.0146588409241752, -1.5570488894967873, -1.6920718225944587, -1.4649817494669364, 1.571836202357621, 2.5877173500739703,-7.141085201279188e-05, -0.07295092381312103, -0.6658984078206056, 0.739074294716751, -4.7444879213267215e-05, 0.07089889078966803,1.0,-8786.888773315724, -2846.099508390933, 21690.18923115845, -76.91405692541224, 222.1676204890805, 38.18204080543936,1.0,769
21071.632999999998,1.0146583657801924, -1.5575684666889966, -1.696691916664106, -1.4598405136225994, 1.571835837234698, 2.5882104210486037,-6.534312994017143e-05, -0.07658905255086192, -0.6637828162701565, 0.7405971989984895, -5.7648798563091326e-05, 0.07100895081821859,1.0,-8786.270704579292, -2846.615447667601, 21690.22954745834, -76.89005698165462, 222.19609524910697, 38.18429557248771,1.0,769
21071.641,1.0146579332688725, -1.5581125749669544, -1.7012904918393552, -1.4546962653555209, 1.5718354016958014, 2.588703525744034,-5.9323569000687605e-05, -0.08024059152493057, -0.661645215496888, 0.742111496859389, -6.789453296994125e-05, 0.07111662521499104,1.0,-8787.121421307604, -2845.3291601280844, 21689.867252475586, -76.9233787731612, 222.16002874364438, 38.18524245447702,1.0,769
21071.648999999998,1.0146575429183504, -1.5586812534467942, -1.7058676072779146, -1.449548906393182, 1.5718348956426818, 2.589196663561161,-5.335240639029843e-05, -0.08390536455762725, -0.6594855329053673, 0.743616939502152, -7.818146745002174e-05, 0.07122190683776398,1.0,-8786.413357622869, -2846.6304428920594, 21690.241323680417, -76.90984993879482, 222.18840920269332, 38.184723330937686,1.0,769
21071.657,1.0146571942612441, -1.5592745422848182, -1.710423319689422, -1.4443983398709674, 1.5718343189749013, 2.5896898338996337,-4.7429874609603155e-05, -0.08758318971011125, -0.6573037001803645, 0.745113276649566, -8.850896803500589e-05, 0.07132478872398462,1.0,-8785.925709759105, -2847.63048922871, 21690.222216027007, -76.87072834331912, 222.21572193146943, 38.17793674117564,1.0,769
21071.664999999997,1.0146568868345764, -1.5598924826463012, -1.7149576833705593, -1.4392444703282523, 1.5718336715899492, 2.590183036157744,-4.155620124026268e-05, -0.0912738792836339, -0.6550996533916125, 0.7466002566491815, -9.887638054145675e-05, 0.07142526412009534,1.0,-8786.710280106285, -2846.2742717027777, 21689.991063908783, -76.90642511217024, 222.17058311756585, 38.184937815691114,1.0,769
21071.673,1.0146566201797134, -1.5605351166743908, -1.71947075023927, -1.4340872037052765, 1.571832953383337, 2.5906762697323518,-3.573160994197989e-05, -0.09497723982045966, -0.6528733330989508, 0.7480776265818252, -0.00010928303113320866, 0.07152332649232518,1.0,-8786.570218188554, -2846.28612767115, 21690.09366246717, -76.9094449292337, 222.18238214928715, 38.180228901459486,1.0,769
21071.681,1.0146563938422914, -1.5612024874591093, -1.723962569868073, -1.4289264473408316, 1.5718321642487174, 2.591169534018777,-2.9956319085974425e-05, -0.09869307211190782, -0.6506246844566896, 0.7495451323720421, -0.00011972822614325429, 0.07161896953947032,1.0,-8786.852418637638, -2845.416301371617, 21689.918136637705, -76.92327596347252, 222.1595616236002, 38.181764860457235,1.0,769
21071.689,1.014656207372152, -1.5618946390064306, -1.7284331895165215, -1.423762109970733, 1.5718313040779908, 2.5916628284107115,-2.4230542726136588e-05, -0.10242117121046171, -0.6483536573152526, 0.751002518901835, -0.00013021125048509152, 0.0717121872126574,1.0,-8785.861875906885, -2846.874546130073, 21689.82222477702, -76.87762104632844, 222.22548926522438, 38.18470868128449,1.0,769
21071.697,1.014656060323277, -1.562611616207401, -1.7328826541628395, -1.4185941017270487, 1.5718303727614176, 2.5921561523001326,-1.8554489857832865e-05, -0.10616132644451079, -0.6460602063217818, 0.7524495301275645, -0.00014073136924157035, 0.07180297372824249,1.0,-8786.704250399789, -2845.393732423614, 21690.062751716316, -76.94088235367246, 222.1591814538371, 38.18453467573275,1.0,769
21071.704999999998,1.0146559522537317, -1.563353464807304, -1.7373110065347674, -1.4134223341381027, 1.5718293701877277, 2.5926495050772096,-1.2928363980993114e-05, -0.10991332143879859, -0.6437442910195076, 0.7538859091985206, -0.00015128782731357285, 0.07189132358535014,1.0,-8786.150834711692, -2846.808370795162, 21690.577443192622, -76.89884958984902, 222.19197624301006, 38.18067138277104,1.0,769
21071.713,1.0146558827256011, -1.564120231374833, -1.7417182871396344, -1.4082467201292204, 1.571828296244232, 2.5931428861302193,-7.352363205164652e-06, -0.1136769341394733, -0.6414058759442963, 0.7553113985790632, -0.00016187984836959024, 0.07197723158177845,1.0,-8785.710917610646, -2847.532860690899, 21690.779912137525, -76.88133244880547, 222.2315290558568, 38.18634019135496,1.0,769
21071.720999999998,1.0146558513049317, -1.5649119632712738, -1.7461045342936945, -1.4030671740242093, 1.5718271508169386, 2.593636294845458,-1.826680676677871e-06, -0.1174519368429838, -0.6390449307203799, 0.7567257401726559, -0.00017250663563781653, 0.07206069282685584,1.0,-8787.042903692945, -2845.9669467320136, 21690.153055035807, -76.91795529353664, 222.16775159798823, 38.183978421543856,1.0,769
21071.729,1.0146558575616782, -1.5657287086196607, -1.7504697841507646, -1.3978836115475763, 1.5718259337906604, 2.594129730607155,3.6484968299062026e-06, -0.12123809622978458, -0.6366614301516975, 0.7581286754497284, -0.00018316737302361677, 0.07214170275932782,1.0,-8786.708746553188, -2846.4949404526524, 21689.9746032813, -76.9030564803709, 222.17993064765716, 38.18036070569468,1.0,769
21071.736999999997,1.0146559010696439, -1.5665705162739023, -1.75481407073016, -1.3926959498274512, 1.571824645049138, 2.5946231927973926,9.072988113571124e-06, -0.12503517340344875, -0.6342553543147363, 0.7595199455747198, -0.0001938612219691287, 0.0722202571633474,1.0,-8787.686815694198, -2844.578449528737, 21690.159277034632, -76.951457351311, 222.14032005483597, 38.181150819906264,1.0,769
21071.745,1.0146559814064324, -1.5674374357878547, -1.7591374259439885, -1.387504107399229, 1.5718232844751507, 2.5951166807960204,1.4446618235428927e-05, -0.1288429239339577, -0.6318266886438542, 0.7608992915396076, -0.00020458732417604131, 0.07229635218554134,1.0,-8786.028824655388, -2846.206656393956, 21690.067415975103, -76.90684530650171, 222.19636532929206, 38.18898545010421,1.0,769
21071.753,1.0146560981533954, -1.5683295173843286, -1.7634398796238093, -1.3823080042098974, 1.5718218519506293, 2.5956101939805847,1.9769217717000017e-05, -0.13266109790751862, -0.6293754240176904, 0.7622664542967437, -0.00021534480108916442, 0.07236998434564783,1.0,-8786.683921031412, -2845.4263028798014, 21690.0656489762, -76.93475256204087, 222.16254295139925, 38.18944978260265,1.0,769
21071.761,1.0146562508955757, -1.5692468119240246, -1.7677214595466708, -1.3771075616230775, 1.5718203473567895, 2.5961037317262297,2.5040624046897207e-05, -0.1364894399785805, -0.6269015568412164, 0.7636211748945285, -0.0002261327511697993, 0.07244115055711446,1.0,-8785.78490315704, -2846.6391657776803, 21690.230389636414, -76.90239748449682, 222.21299450478443, 38.18849667811793,1.0,769
21071.769,1.0146564392216673, -1.5701893708743544, -1.7719821914605864, -1.3719027024247055, 1.5718187705742335, 2.596597293405635,3.0260681379435725e-05, -0.14032768942760004, -0.624405089125006, 0.7649631946155465, -0.00023695025614188685, 0.07250984813905621,1.0,-8785.508334344231, -2846.6497116638147, 21690.231184084, -76.89831533978926, 222.21844772146312, 38.18375497514515,1.0,769
21071.777,1.0146566627239662, -1.5711572462781636, -1.7762220991094368, -1.366693350829424, 1.5718171214830798, 2.5970908783889386,3.542924066670521e-05, -0.14417558022617957, -0.6218860285610137, 0.7662922551157249, -0.0002477963744200456, 0.07257607483487363,1.0,-8786.828874211624, -2845.263646700896, 21689.856225953165, -76.93931633348643, 222.15493072497173, 38.186334835001134,1.0,769
21071.785,1.0146569209983212, -1.572150490722331, -1.7804412042573272, -1.3614794324876165, 1.5718153999630853, 2.5975844860436585,4.054615852138158e-05, -0.1480328411070081, -0.6193443885951372, 0.7676080985656917, -0.0002586701436533062, 0.07263982882436075,1.0,-8786.88287458902, -2845.981658576031, 21689.894853732763, -76.92350809304818, 222.1676307705407, 38.18535461347065,1.0,769
21071.792999999998,1.0146572136440948, -1.573169157306225, -1.7846395267124464, -1.3562608744930982, 1.571813605893763, 2.598078115734617,4.561130035957305e-05, -0.1518991956337801, -0.6167801884963935, 0.7689104677941342, -0.0002695705828795144, 0.07270110874037351,1.0,-8786.768345901213, -2846.1827178950543, 21689.69776756187, -76.90647545833934, 222.17153968288744, 38.18120191157789,1.0,769
21071.801,1.0146575402641163, -1.5742132996100118, -1.7888170843504119, -1.3510376053914568, 1.5718117391545128, 2.5985717668238713,5.062453739167444e-05, -0.15577436228303132, -0.6141934534222512, 0.7701991064315957, -0.0002804966898435009, 0.07275991368396935,1.0,-8786.820298161823, -2846.75858492296, 21690.658676536714, -76.91017318573844, 222.17031829251357, 38.189921295760655,1.0,769
21071.808999999997,1.0146579004646408, -1.575282971662796, -1.7929738931371508, -1.3458095551890334, 1.5718097996247475, 2.59906543867064,5.558574944796704e-05, -0.15965805452770995, -0.6115842144803292, 0.7714737590560666, -0.00029144744137286373, 0.07281624323886161,1.0,-8786.076146228148, -2846.4125260399887, 21690.29881753661, -76.89602845355799, 222.2018700331397, 38.18002493093431,1.0,769
21071.817,1.01465829385531, -1.5763782279105971, -1.797109967151326, -1.3405766553625256, 1.571807787184013, 2.599559130631241,6.049482245089885e-05, -0.16354998092735662, -0.6089525087844245, 0.7727341713409422, -0.00030242179512755905, 0.07287009748366147,1.0,-8785.62875109203, -2846.7501150888784, 21690.045003522777, -76.89213824417428, 222.21330029809127, 38.1778345908038,1.0,769
21071.825,1.0146587200491124, -1.5774991231841167, -1.8012253186063232, -1.335338838869217, 1.5718057017121254, 2.600052842059019,6.53516513965772e-05, -0.16744984521950235, -0.6062983795099415, 0.7739800902010062, -0.0003134186891782186, 0.07292147701406532,1.0,-8786.265260993407, -2846.3612070451372, 21690.49049953784, -76.90409318094055, 222.20307578966208, 38.18436025384901,1.0,769
21071.833,1.0146591786623447, -1.5786457126663285, -1.8053199578718262, -1.3300960401578266, 1.5718035430892976, 2.600546572304277,7.015613833500377e-05, -0.17135734642525666, -0.6036218759403579, 0.7752112639429825, -0.0003244370402081086, 0.07297038294393542,1.0,-8786.930183987653, -2845.741416005041, 21689.918964165234, -76.9197871489921, 222.16043765994544, 38.17620996769193,1.0,769
21071.841,1.014659669314578, -1.5798180518598475, -1.8093938934949936, -1.3248481951799613, 1.5718013111962705, 2.6010403207142194,7.490819405896742e-05, -0.17527217894761862, -0.6009230535136266, 0.7764274424134878, -0.0003354757473219043, 0.07301681693177668,1.0,-8787.303003584533, -2845.797060108276, 21689.97187314957, -76.9271295672246, 222.17446801982032, 38.18264773226986,1.0,769
21071.849,1.0146601916286175, -1.5810161965540779, -1.8134471322212597, -1.3195952414021583, 1.5717990059144484, 2.601534086632886,7.960773681749035e-05, -0.17919403268707806, -0.5982019738601162, 0.7776283771495253, -0.00034653368829754266, 0.07306078118943175,1.0,-8786.606628574224, -2846.8762868039685, 21690.49409609073, -76.89019687353513, 222.18064914565406, 38.17656368579566,1.0,769
21071.857,1.0146607452304721, -1.582240202792132, -1.8174796790147667, -1.3143371178185408, 1.571796627126034, 2.6020278694010908,8.425469388381717e-05, -0.18312259315311935, -0.5954587048385793, 0.778813821528822, -0.00035760972369802815, 0.07310227849351247,1.0,-8787.112814372178, -2846.2205467170597, 21690.720009885164, -76.92061757212556, 222.16626301822924, 38.182884442816146,1.0,769
21071.864999999998,1.0146613297493179, -1.5834901268375088, -1.8214915370784652, -1.3090737649640385, 1.571794174714166, 2.60252166835636,8.884899970969254e-05, -0.1870575415893051, -0.5926933205651778, 0.7799835309197845, -0.00036870269177118666, 0.07314131219820211,1.0,-8786.358359750337, -2846.78468218174, 21690.542192894245, -76.89715524796782, 222.2047956742, 38.17931066543801,1.0,769
21071.873,1.0146619448174676, -1.5847660251405182, -1.8254827078738822, -1.3038051249281892, 1.5717916485630552, 2.603015482832878,9.339059954612317e-05, -0.1909985550913632, -0.589905901439732, 0.78113726283183, -0.00037981141561372255, 0.073177886254454,1.0,-8787.27980417747, -2845.603653494899, 21690.17568112429, -76.93312209132651, 222.15969072132583, 38.18139969745687,1.0,769
21071.880999999998,1.014662585637509, -1.5860591519846512, -1.8294266799828893, -1.2985664653158002, 1.5717890662394751, 2.603506006332108,9.784545959013659e-05, -0.19491885573958118, -0.5871154109876432, 0.7822672185085434, -0.00039085018728340513, 0.07321181849460659,1.0,-8786.888515607763, -2845.7000983012613, 21689.661471967614, -76.92046217555543, 222.1850750350157, 38.169136627734844,1.0,769
21071.889,1.0146632316246735, -1.5873308363845382, -1.8332115357207561, -1.293508419590366, 1.5717865063271992, 2.6039791589422894,0.00010209880960318427, -0.19870529172500312, -0.584403386131733, 0.7833417478819413, -0.00040151931414128636, 0.07324222621947345,1.0,-8785.77967040013, -2847.5295906086694, 21692.356071443595, -76.89363659954893, 222.217493194847, 38.179237528309415,1.0,769
21071.897,1.0146638771938346, -1.5885741256635173, -1.836826828994126, -1.2886483916246405, 1.571783985055777, 2.604433359679377,0.00010613606875464332, -0.2023443686528303, -0.5817812651855085, 0.7843588108644387, -0.0004117712966589775, 0.07326930429923648,1.0,-8786.361862273667, -2846.8378078057767, 21692.650416398705, -76.8858744389633, 222.20408481264428, 38.182664208873234,1.0,769
21071.905,1.0146645189598984, -1.5897862916965373, -1.8402747484527735, -1.2839869209149644, 1.5717815101925574, 2.6048686066110345,0.00010996283545374076, -0.20583530034848138, -0.579251430468451, 0.7853200044323447, -0.00042160392687768907, 0.07329331638962137,1.0,-8787.364840603554, -2845.2337714913874, 21692.359094842996, -76.94045682294, 222.15781352618438, 38.18327237234388,1.0,769
21071.913,1.014665153735147, -1.590964711613804, -1.8435573911955228, -1.2795245332522773, 1.5717790891983954, 2.605284897987145,0.0001135844835267461, -0.20917738292293683, -0.5768161524825264, 0.7862268959980644, -0.0004310152689580358, 0.07331451454123958,1.0,-8786.688711443083, -2846.6268282527317, 21692.995245305072, -76.88754926828452, 222.18671799636581, 38.18418867657522,1.0,769
21071.921,1.0146657785215356, -1.5921068688890063, -1.8466767630836216, -1.2752617393205616, 1.571776729225139, 2.6056822322274265,0.00011700616027352339, -0.2123699891116429, -0.5744775903994006, 0.7870810182312181, -0.0004400036373858018, 0.07333313916699301,1.0,-8786.98350516172, -2845.7770722964206, 21692.491771870413, -76.90262368319574, 222.1812093100836, 38.183212486892614,1.0,769
21071.929,1.0146663905034528, -1.5932103543899032, -1.8496347789738117, -1.2711990334132004, 1.5717744371132445, 2.6060606079094573,0.00012023278550732562, -0.2154125626811276, -0.57223779276557, 0.7878838641751126, -0.0004485675782223671, 0.07334941904088911,1.0,-8786.011475756733, -2846.298940410693, 21692.08802312306, -76.89932482456345, 222.21451577648116, 38.18463962297312,1.0,769
21071.936999999998,1.0146669870409166, -1.594272867388236, -1.852433262881, -1.2673368922604187, 1.5717722193895347, 2.606420023757128,0.00012326904907119976, -0.21830461295483622, -0.5700986983895192, 0.7886368826572848, -0.00045670584862185265, 0.0733635713029601,1.0,-8786.304798364892, -2847.3179231738377, 21691.979673084643, -76.88874182464832, 222.2258184580735, 38.186655595725824,1.0,769
21071.945,1.0146675656631905, -1.595292216526424, -1.8550739480797311, -1.2636757739611486, 1.5717700822651013, 2.6067604786295346,0.00012611941042691612, -0.22104570946455768, -0.5680621373872567, 0.7893414739894327, -0.00046441739634207695, 0.07337580149407673,1.0,-8786.411891093157, -2845.6392200905075, 21691.42122857942, -76.92329585394222, 222.18548904347017, 38.18275822977236,1.0,769
21071.952999999998,1.0146681240628086, -1.59626632073895, -1.8575584771530274, -1.2602161170128099, 1.571768031633351, 2.6070819715103664,0.00012878809967391828, -0.22363547676457182, -0.5661298323527357, 0.789998985953244, -0.0004717013430415956, 0.07338630360537535,1.0,-8786.733383499897, -2845.6512057847312, 21691.253992826452, -76.91708383635083, 222.1795753276474, 38.182418634829844,1.0,769
21071.961,1.014668660089988, -1.5971932101268314, -1.8598884019965247, -1.2569583394327335, 1.571766073068198, 2.607384501497712,0.0001312791171510157, -0.22607358942720993, -0.5643033996272812, 0.7906107100660776, -0.00047855696047121254, 0.07339526013600568,1.0,-8787.22209389487, -2844.515174633405, 21691.244829684256, -76.95535071802814, 222.15310145308365, 38.182371873751634,1.0,769
21071.968999999997,1.0146691717474274, -1.5980710267838845, -1.8620651837852833, -1.2539028379651098, 1.5717642118223887, 2.6076680677943886,0.00013359623326030656, -0.22835976723645426, -0.5625843506419416, 0.7911778781196149, -0.00048498365519542117, 0.07340284216256084,1.0,-8785.98718336124, -2846.98429350471, 21691.764089679753, -76.8798149713578, 222.22103749725989, 38.178304591054626,1.0,769
21071.977,1.0146696571854679, -1.5988980255738774, -1.8640901929100355, -1.2510499873675958, 1.5717624528259673, 2.607932669698772,0.00013574299594258104, -0.2304937705951429, -0.5609740933077767, 0.7917016589831224, -0.0004909809504686877, 0.07340920943089206,1.0,-8786.450831857679, -2847.1662504443657, 21692.14661612011, -76.88644845657655, 222.21497210374412, 38.1867766936264,1.0,769
21071.985,1.014670114697607, -1.599672574857948, -1.865964708889157, -1.248400139771948, 1.571760800684881, 2.6081783065961033,0.0001377227289918414, -0.23247539617243093, -0.5594739334271392, 0.7921831556655051, -0.0004965484623654852, 0.07341451043188009,1.0,-8785.997646667323, -2847.182928353609, 21692.04953516427, -76.88415851949549, 222.22891550868252, 38.18313385098986,1.0,769
21071.993,1.0146705427163607, -1.600393157171891, -1.8676899202621495, -1.2459536241132732, 1.5717592596797036, 2.608404977950352,0.00013953853822086323, -0.234304472793144, -0.5580850761073781, 0.7926234026239577, -0.000501685881537916, 0.07341888250607516,1.0,-8787.06903373174, -2845.03580199534, 21692.10018231516, -76.93427030040766, 222.17527405616244, 38.18523451517825,1.0,769
21072.001,1.014670939809462, -1.6010583698531722, -1.869266924469879, -1.243710745622784, 1.5717578337644857, 2.6086126832966094,0.00014119333074662005, -0.2359808575729633, -0.5568086271569638, 0.7930233633156178, -0.000506392957738346, 0.07342245194017602,1.0,-8787.977711836285, -2843.434902808166, 21692.012561071864, -76.98919938538859, 222.14375881045385, 38.189908030398186,1.0,769
21072.009,1.0146713046763802, -1.601666925617673, -1.870696727726429, -1.2416717853792179, 1.5717565265657252, 2.6088014222340017,0.000142689815839645, -0.2375044323390543, -0.5556455944366928, 0.793383927980263, -0.0005106694626723345, 0.07342533405659835,1.0,-8785.371092659501, -2848.934001853513, 21692.35601784259, -76.81563335765483, 222.26499731178643, 38.18306754766857,1.0,769
21072.017,1.0146716361451649, -1.6022176530863197, -1.8719802448869505, -1.2398369999143704, 1.57175534138145, 2.608971194419195,0.0001440305490994255, -0.23887510029789918, -0.5545968891585316, 0.7937059116482837, -0.0005145151689545581, 0.07342763333552627,1.0,-8787.140545251794, -2844.270479721952, 21692.373962986363, -76.98596617149155, 222.1689089203901, 38.19519199182187,1.0,769
21072.024999999998,1.0146719331695966, -1.6027094972618636, -1.873118299315455, -1.2382066208685334, 1.5717542811803988, 2.6091219995604322,0.0001452179693301265, -0.2400927830014272, -0.5536633270937928, 0.7939900523741915, -0.0005179297921332476, 0.07342944350437046,1.0,-8786.176873836923, -2847.028525242931, 21692.348865022443, -76.87386139044341, 222.21230688296004, 38.18424691671427,1.0,769
21072.033,1.0146721948266433, -1.6031415199561545, -1.8741116227561117, -1.2367808546919319, 1.5717533486013135, 2.6092538374121577,0.0001462545024076499, -0.24115741756463346, -0.5528456296893279, 0.7942370096876473, -0.0005209129159696065, 0.07343084766463068,1.0,-8786.880042112613, -2846.146149779993, 21691.442739565544, -76.90978522787177, 222.1722241723819, 38.183010380143514,1.0,769
21072.040999999997,1.0146724203142137, -1.6035129001682877, -1.8749608552112162, -1.235559882388623, 1.5717525459523183, 2.6093667077702287,0.0001471427566602641, -0.2420689541490623, -0.5521444250279521, 0.7944473632886305, -0.0005234638285107612, 0.07343191844221124,1.0,-8786.805514944283, -2845.654694548931, 21691.471643946465, -76.91981913795499, 222.19261294657338, 38.18395678969358,1.0,769
21072.049,1.0146726089492115, -1.6038229344140298, -1.875666544828598, -1.2345438592996647, 1.571751875210393, 2.609460610467705,0.00014788600262860275, -0.24282735361266403, -0.551560248579848, 0.7946216120370483, -0.0005255811635020658, 0.0734327181971381,1.0,-8787.364665275905, -2845.8112072369513, 21691.469154013404, -76.92845727168455, 222.1556109253633, 38.18540467272129,1.0,769
21072.057,1.0146727601658643, -1.604071037006956, -1.87622914780086, -1.2337329149227463, 1.571751338020933, 2.609535545371231,0.00014848945598609135, -0.24343258514799593, -0.5510935434663753, 0.7947601734509906, -0.0005272619308143745, 0.07343329952907687,1.0,-8786.185214790694, -2845.9526015083065, 21691.775139879635, -76.90532975264784, 222.20414665378593, 38.185128075591535,1.0,769
21072.065,1.0146728735143524, -1.6042567402916692, -1.8766490282785115, -1.2331271527658512, 1.5717509356973827, 2.609591512378019,0.00014896474054514533, -0.24388462288970242, -0.5507446592540503, 0.7948633846349512, -0.0005284981820925498, 0.07343370674925231,1.0,-8786.418482952806, -2847.504210368582, 21692.375148514504, -76.87944832661177, 222.2011329323753, 38.18574107440034,1.0,769
21072.073,1.0146729486597128, -1.604379694829447, -1.8769264582986622, -1.2327266502329035, 1.5717506692209575, 2.6096285114134448,0.00014935276528227692, -0.24418343516739463, -0.5505138426904455, 0.7949315106676862, -0.0005292599354374091, 0.07343398342261467,1.0,-8786.77059792829, -2846.671098081354, 21692.563515361602, -76.89524859412933, 222.198611606722, 38.18815926009603,1.0,769
21072.081,1.014672985381021, -1.604439669536644, -1.8770616177306216, -1.2325314585397837, 1.5717505392404274, 2.6096465424292457,0.00015005124024410795, -0.24432884742747865, -0.5504010974834634, 0.7949648736152346, -0.0005292507020308807, 0.07343427878036748,1.0,-8786.99508813269, -2846.4020084385884, 21692.22941611803, -76.91918500780005, 222.17661580760443, 38.18866802570011,1.0,769
21072.089,1.0146729893370319, -1.60444607664496, -1.8770760504568793, -1.2325106125184604, 1.5717505253774176, 2.6096484680662706,0.0, 0.0, 0.0, 0.0, 0.0, 0.0,1.0,-8786.677388425938, -2845.2656920388717, 21692.145516808236, -76.93562754808895, 222.174058747897, 38.18468911122753,1.0,769
21072.096999999998,1.0146729893370319, -1.60444607664496, -1.8770760504568793, -1.2325106125184604, 1.5717505253774176, 2.6096484680662706,0.0, 0.0, 0.0, 0.0, 0.0, 0.0,1.0,-8786.90484287242, -2845.774000383075, 21690.434938472135, -76.91501024184112, 222.17689544543282, 38.190059630408,1.0,769
21072.105,1.0146729893370319, -1.60444607664496, -1.8770760504568793, -1.2325106125184604, 1.5717505253774176, 2.6096484680662706,0.0, 0.0, 0.0, 0.0, 0.0, 0.0,1.0,-8786.367488104866, -2846.8353989686575, 21689.97103596301, -76.8950323214276, 222.19297681724407, 38.18479254956006,1.0,769
21072.112999999998,1.0146729893370319, -1.60444607664496, -1.8770760504568793, -1.2325106125184604, 1.5717505253774176, 2.6096484680662706,0.0, 0.0, 0.0, 0.0, 0.0, 0.0,1.0,-8786.441379931026, -2846.5271152942832, 21689.730649203513, -76.90424474263827, 222.19627868805077, 38.18178896243029,1.0,769
21072.121,1.0146729893370319, -1.60444607664496, -1.8770760504568793, -1.2325106125184604, 1.5717505253774176, 2.6096484680662706,0.0, 0.0, 0.0, 0.0, 0.0, 0.0,1.0,-8786.566764425255, -2847.0326665889006, 21689.338753651627, -76.89601018841128, 222.16084195054384, 38.18148371100682,1.0,769
21072.129,1.0146729893370319, -1.60444607664496, -1.8770760504568793, -1.2325106125184604, 1.5717505253774176, 2.6096484680662706,0.0, 0.0, 0.0, 0.0, 0.0, 0.0,1.0,-8786.188826377234, -2846.274829899222, 21688.908440911844, -76.91837173763022, 222.18542136749926, 38.1822435782268,1.0,769
21072.137,1.0146729893370319, -1.60444607664496, -1.8770760504568793, -1.2325106125184604, 1.5717505253774176, 2.6096484680662706,0.0, 0.0, 0.0, 0.0, 0.0, 0.0,1.0,-8786.608182481807, -2846.0241875855754, 21689.39611105713, -76.90298291199767, 222.16485756927273, 38.181490006482704,1.0,769
21072.145,1.0146729893370319, -1.60444607664496, -1.8770760504568793, -1.2325106125184604, 1.5717505253774176, 2.6096484680662706,0.0, 0.0, 0.0, 0.0, 0.0, 0.0,1.0,-8786.166612534698, -2846.1859428627777, 21690.30476029788, -76.90833197574054, 222.189153221009, 38.18565944730284,1.0,769
21072.153,1.0146729893370319, -1.60444607664496, -1.8770760504568793, -1.2325106125184604, 1.5717505253774176, 2.6096484680662706,0.0, 0.0, 0.0, 0.0, 0.0, 0.0,1.0,-8786.852698420718, -2846.318107168495, 21690.98465095877, -76.91221162117589, 222.18061127527864, 38.18325639452485,1.0,769
21072.161,1.0146729893370319, -1.60444607664496, -1.8770760504568793, -1.2325106125184604, 1.5717505253774176, 2.6096484680662706,0.0, 0.0, 0.0, 0.0, 0.0, 0.0,1.0,-8785.961850644597, -2846.170994297496, 21691.164709713354, -76.90277587813156, 222.192455490974, 38.18338782688281,1.0,769
21072.168999999998,1.0146729893370319, -1.60444607664496, -1.8770760504568793, -1.2325106125184604, 1.5717505253774176, 2.6096484680662706,0.0, 0.0, 0.0, 0.0, 0.0, 0.0,1.0,-8786.600879179585, -2845.8407023093487, 21690.984678848657, -76.91787414077172, 222.18213431205118, 38.18058259702718,1.0,769
21072.177,1.0146729893370319, -1.60444607664496, -1.8770760504568793, -1.2325106125184604, 1.5717505253774176, 2.6096484680662706,0.0, 0.0, 0.0, 0.0, 0.0, 0.0,1.0,-8786.636522960518, -2846.0281286925992, 21690.619944621903, -76.91174790409758, 222.18208649408467, 38.180355312339486,1.0,769
21072.184999999998,1.0146729893370319, -1.60444607664496, -1.8770760504568793, -1.2325106125184604, 1.5717505253774176, 2.6096484680662706,0.0, 0.0, 0.0, 0.0, 0.0, 0.0,1.0,-8786.260506290302, -2846.2565874217617, 21690.261348088185, -76.9085849868789, 222.2012680288849, 38.18008501981603,1.0,769
21072.193,1.0146729893370319, -1.60444607664496, -1.8770760504568793, -1.2325106125184604, 1.5717505253774176, 2.6096484680662706,0.0, 0.0, 0.0, 0.0, 0.0, 0.0,1.0,-8786.789836413789, -2846.2818805126717, 21689.837665595303, -76.9032939917831, 222.16842142099023, 38.180878793630825,1.0,769
21072.200999999997,1.0146729893370319, -1.60444607664496, -1.8770760504568793, -1.2325106125184604, 1.5717505253774176, 2.6096484680662706,0.0, 0.0, 0.0, 0.0, 0.0, 0.0,1.0,-8786.061192992196, -2846.3282925618214, 21689.52496109597, -76.90974574628689, 222.20019683878536, 38.17954017127096,1.0,769
21072.209,1.0146729893370319, -1.60444607664496, -1.8770760504568793, -1.2325106125184604, 1.5717505253774176, 2.6096484680662706,0.0, 0.0, 0.0, 0.0, 0.0, 0.0,1.0,-8786.464330481, -2845.9726128392867, 21689.548885773886, -76.91419732968251, 222.17520712070717, 38.18396640734588,1.0,769
21072.217,1.0146729893370319, -1.60444607664496, -1.8770760504568793, -1.2325106125184604, 1.5717505253774176, 2.6096484680662706,0.0, 0.0, 0.0, 0.0, 0.0, 0.0,1.0,-8786.571273051102, -2845.7376996542653, 21689.843460197022, -76.91857335566218, 222.18858974923228, 38.18427327046015,1.0,769
21072.225,1.0146729893370319, -1.60444607664496, -1.8770760504568793, -1.2325106125184604, 1.5717505253774176, 2.6096484680662706,0.0, 0.0, 0.0, 0.0, 0.0, 0.0,1.0,-8786.442497225027, -2845.8643186848085, 21690.432531020917, -76.91430404754664, 222.17931027334066, 38.178219926513094,1.0,769
21072.233,1.0146729893370319, -1.60444607664496, -1.8770760504568793, -1.2325106125184604, 1.5717505253774176, 2.6096484680662706,0.0, 0.0, 0.0, 0.0, 0.0, 0.0,1.0,-8786.792489710344, -2846.190329351424, 21690.840250414734, -76.90571501960267, 222.1896869826602, 38.183587466423006,1.0,769
21072.240999999998,1.0146729893370319, -1.60444607664496, -1.8770760504568793, -1.2325106125184604, 1.5717505253774176, 2.6096484680662706,0.0, 0.0, 0.0, 0.0, 0.0, 0.0,1.0,-8786.524172102903, -2845.9863743961114, 21691.031859613417, -76.90974453227, 222.1819927944333, 38.179450144767884,1.0,769
21072.249,1.0146729893370319, -1.60444607664496, -1.8770760504568793, -1.2325106125184604, 1.5717505253774176, 2.6096484680662706,0.0, 0.0, 0.0, 0.0, 0.0, 0.0,1.0,-8786.66420678629, -2846.1099358162874, 21690.54423670185, -76.90451529598442, 222.17289798411758, 38.17065545231466,1.0,769
21072.256999999998,1.0146729893370319, -1.60444607664496, -1.8770760504568793, -1.2325106125184604, 1.5717505253774176, 2.6096484680662706,0.0, 0.0, 0.0, 0.0, 0.0, 0.0,1.0,-8786.507986725312, -2846.325499869232, 21690.50540794507, -76.90569055445599, 222.1954000551445, 38.17715017982877,1.0,769
21072.265,1.0146729893370319, -1.60444607664496, -1.8770760504568793, -1.2325106125184604, 1.5717505253774176, 2.6096484680662706,0.0, 0.0, 0.0, 0.0, 0.0, 0.0,1.0,-8786.420814283329, -2846.160161814343, 21689.978203592946, -76.90982140500256, 222.18315363978337, 38.17688327041162,1.0,769
21072.272999999997,1.0146729893370319, -1.60444607664496, -1.8770760504568793, -1.2325106125184604, 1.5717505253774176, 2.6096484680662706,0.0, 0.0, 0.0, 0.0, 0.0, 0.0,1.0,-8786.006050415666, -2846.1293057912962, 21689.805745430982, -76.92243169473983, 222.18712717134292, 38.18475870464758,1.0,769
21072.281,1.0146729893370319, -1.60444607664496, -1.8770760504568793, -1.2325106125184604, 1.5717505253774176, 2.6096484680662706,0.0, 0.0, 0.0, 0.0, 0.0, 0.0,1.0,-8786.496277427139, -2846.302624111506, 21689.67805136568, -76.91147986623244, 222.16918495928746, 38.17532920899012,1.0,769
21072.289,1.0146729893370319, -1.60444607664496, -1.8770760504568793, -1.2325106125184604, 1.5717505253774176, 2.6096484680662706,0.0, 0.0, 0.0, 0.0, 0.0, 0.0,1.0,-8786.480949162542, -2846.1386698070455, 21689.678863952962, -76.90782744540954, 222.18175075805772, 38.18598660028718,1.0,769
21072.297,1.0146729893370319, -1.60444607664496, -1.8770760504568793, -1.2325106125184604, 1.5717505253774176, 2.6096484680662706,0.0, 0.0, 0.0, 0.0, 0.0, 0.0,1.0,-8786.381481190874, -2846.6419604469775, 21690.289154091923, -76.8882374461844, 222.1879307528602, 38.17729459132528,1.0,769
21072.305,1.0146729893370319, -1.60444607664496, -1.8770760504568793, -1.2325106125184604, 1.5717505253774176, 2.6096484680662706,0.0, 0.0, 0.0, 0.0, 0.0, 0.0,1.0,-8786.512942860008, -2846.491757578754, 21690.34858413251, -76.90628754772615, 222.18089039851736, 38.193787126656616,1.0,769
21072.313,1.0146729893370319, -1.60444607664496, -1.8770760504568793, -1.2325106125184604, 1.5717505253774176, 2.6096484680662706,0.0, 0.0, 0.0, 0.0, 0.0, 0.0,1.0,-8786.557343808905, -2845.938192484128, 21690.74549751531, -76.91750536921847, 222.18727714699827, 38.176045092549856,1.0,769
21072.321,1.0146729893370319, -1.60444607664496, -1.8770760504568793, -1.2325106125184604, 1.5717505253774176, 2.6096484680662706,0.0, 0.0, 0.0, 0.0, 0.0, 0.0,1.0,-8786.668607507623, -2846.3161746740043, 21690.734088712732, -76.91195974192067, 222.17830755270109, 38.185743196937636,1.0,769
21072.328999999998,1.0146729893370319, -1.60444607664496, -1.8770760504568793, -1.2325106125184604, 1.5717505253774176, 2.6096484680662706,0.0, 0.0, 0.0, 0.0, 0.0, 0.0,1.0,-8786.513970013237, -2846.1247011671067, 21690.34825104967, -76.89971961035135, 222.17550530522396, 38.17458545715024,1.0,769
21072.337,1.0146729893370319, -1.60444607664496, -1.8770760504568793, -1.2325106125184604, 1.5717505253774176, 2.6096484680662706,0.0, 0.0, 0.0, 0.0, 0.0, 0.0,1.0,-8786.295054036473, -2846.025607108122, 21690.192442306674, -76.91009944312694, 222.18686576197973, 38.18044497616634,1.0,769
21072.344999999998,1.0146729893370319, -1.60444607664496, -1.8770760504568793, -1.2325106125184604, 1.5717505253774176, 2.6096484680662706,0.0, 0.0, 0.0, 0.0, 0.0, 0.0,1.0,-8786.396259984298, -2846.5138520992223, 21689.758295338408, -76.90765208062791, 222.17638473718182, 38.18256695614161,1.0,769
21072.353,1.0146729893370319, -1.60444607664496, -1.8770760504568793, -1.2325106125184604, 1.5717505253774176, 2.6096484680662706,0.0, 0.0, 0.0, 0.0, 0.0, 0.0,1.0,-8786.594864076164, -2846.4902008797326, 21689.631520508716, -76.91938235267344, 222.18230079848308, 38.18121032714629,1.0,769
21072.361,1.0146729893370319, -1.60444607664496, -1.8770760504568793, -1.2325106125184604, 1.5717505253774176, 2.6096484680662706,0.0, 0.0, 0.0, 0.0, 0.0, 0.0,1.0,-8786.544451849391, -2846.4198262710197, 21689.630881801226, -76.90606302196184, 222.18422894357138, 38.19038993181681,1.0,769
21072.369,1.0146729893370319, -1.60444607664496, -1.8770760504568793, -1.2325106125184604, 1.5717505253774176, 2.6096484680662706,0.0, 0.0, 0.0, 0.0, 0.0, 0.0,1.0,-8786.706150277074, -2846.64297152972, 21689.912510392365, -76.90922715381035, 222.18655626494262, 38.1845991652219,1.0,769
21072.377,1.0146729893370319, -1.60444607664496, -1.8770760504568793, -1.2325106125184604, 1.5717505253774176, 2.6096484680662706,0.0, 0.0, 0.0, 0.0, 0.0, 0.0,1.0,-8786.575840236399, -2846.1198561139427, 21690.172952655525, -76.90945612536333, 222.18979503936418, 38.18482290223102,1.0,769
21072.385,1.0146729893370319, -1.60444607664496, -1.8770760504568793, -1.2325106125184604, 1.5717505253774176, 2.6096484680662706,0.0, 0.0, 0.0, 0.0, 0.0, 0.0,1.0,-8786.368951386054, -2846.2570866013803, 21690.38546477212, -76.91005126802975, 222.1852074347221, 38.17188655237618,1.0,769
21072.393,1.0146729893370319, -1.60444607664496, -1.8770760504568793, -1.2325106125184604, 1.5717505253774176, 2.6096484680662706,0.0, 0.0, 0.0, 0.0, 0.0, 0.0,1.0,-8786.678158489196, -2845.944371258326, 21690.39485373376, -76.90665133311725, 222.18626839681298, 38.1965068149448,1.0,769
21072.400999999998,1.0146729893370319, -1.60444607664496, -1.8770760504568793, -1.2325106125184604, 1.5717505253774176, 2.6096484680662706,0.0, 0.0, 0.0, 0.0, 0.0, 0.0,1.0,-8786.454381587608, -2846.207112279061, 21690.104922343788, -76.91034540676571, 222.17996740746185, 38.17504798628107,1.0,769
21072.409,1.0146729893370319, -1.60444607664496, -1.8770760504568793, -1.2325106125184604, 1.5717505253774176, 2.6096484680662706,0.0, 0.0, 0.0, 0.0, 0.0, 0.0,1.0,-8786.464977614838, -2846.297597981201, 21690.140380376015, -76.90912344540831, 222.17845279623333, 38.190032465824316,1.0,769
21072.416999999998,1.0146729893370319, -1.60444607664496, -1.8770760504568793, -1.2325106125184604, 1.5717505253774176, 2.6096484680662706,0.0, 0.0, 0.0, 0.0, 0.0, 0.0,1.0,-8786.368579450116, -2845.992529373957, 21690.00043852852, -76.90703227966878, 222.17929327870968, 38.17430333985388,1.0,769
21072.425,1.0146729893370319, -1.60444607664496, -1.8770760504568793, -1.2325106125184604, 1.5717505253774176, 2.6096484680662706,0.0, 0.0, 0.0, 0.0, 0.0, 0.0,1.0,-8786.460774965832, -2846.1054329195786, 21689.83828055465, -76.91023542659292, 222.18348926066864, 38.18841730880493,1.0,769
21072.432999999997,1.0146729893370319, -1.60444607664496, -1.8770760504568793, -1.2325106125184604, 1.5717505253774176, 2.6096484680662706,0.0, 0.0, 0.0, 0.0, 0.0, 0.0,1.0,-8786.504478621737, -2846.2538975512734, 21689.754017851683, -76.91700044631827, 222.18595878087655, 38.182653638527796,1.0,769
21072.441,1.0146729893370319, -1.60444607664496, -1.8770760504568793, -1.2325106125184604, 1.5717505253774176, 2.6096484680662706,0.0, 0.0, 0.0, 0.0, 0.0, 0.0,1.0,-8786.908104280468, -2846.206633191413, 21690.162949275094, -76.91284095861764, 222.17917830737065, 38.187309993676905,1.0,769
