dlisjak-bit/sensor_synchronization/realtime_sync/robot_reference.csv
t,q0,q1,q2,q3,q4,q5,qd0,qd1,qd2,qd3,qd4,qd5,ss,f0,f1,f2,f3,f4,f5,tsf,do
474.709,0.7269052265185737, -1.4236082758653277, -1.4757606901549334, -1.8154121902834124, 1.5721135142512153, 2.320168257588705,0.0, 0.0, 0.0, 0.0, 0.0, 0.0,1.0,-8788.349197472306, -2845.49680924511, 21694.130077017016, -76.90368049278118, 222.24261388085625, 38.18380285238854,1.0,769
474.717,0.7269052265185737, -1.4236082758653277, -1.4757606901549334, -1.8154121902834124, 1.5721135142512153, 2.320168257588705,0.0, 0.0, 0.0, 0.0, 0.0, 0.0,1.0,-8788.131254726677, -2845.178226565109, 21693.94055150566, -76.89602196305219, 222.25494439469014, 38.17888975514168,1.0,769
474.72499999999997,0.7269052265185737, -1.4236082758653277, -1.4757606901549334, -1.8154121902834124, 1.5721135142512153, 2.320168257588705,0.0, 0.0, 0.0, 0.0, 0.0, 0.0,1.0,-8788.279126430378, -2845.2318802784375, 21693.838822589583, -76.90248908174581, 222.2588038473216, 38.17977400096481,1.0,769
474.733,0.7269052265185737, -1.4236082758653277, -1.4757606901549334, -1.8154121902834124, 1.5721135142512153, 2.320168257588705,0.0, 0.0, 0.0, 0.0, 0.0, 0.0,1.0,-8788.24689274404, -2845.47557664908, 21693.835349672558, -76.89765734077974, 222.2538063615545, 38.181230374233195,1.0,769
474.741,0.7269052265185737, -1.4236082758653277, -1.4757606901549334, -1.8154121902834124, 1.5721135142512153, 2.320168257588705,0.0, 0.0, 0.0, 0.0, 0.0, 0.0,1.0,-8788.075801410258, -2845.5669027309887, 21693.900849282145, -76.89356225707235, 222.25144321593325, 38.18130621853814,1.0,769
474.74899999999997,0.7269052265185737, -1.4236082758653277, -1.4757606901549334, -1.8154121902834124, 1.5721135142512153, 2.320168257588705,0.0, 0.0, 0.0, 0.0, 0.0, 0.0,1.0,-8788.121921341424, -2845.5442252002476, 21693.830413692496, -76.8978613483261, 222.25394573875025, 38.18374065318304,1.0,769
474.765,0.7269052265185737, -1.4236082758653277, -1.4757606901549334, -1.8154121902834124, 1.5721135142512153, 2.320168257588705,0.0, 0.0, 0.0, 0.0, 0.0, 0.0,1.0,-8788.051847623301, -2845.4316941888983, 21693.782934731327, -76.90117948674558, 222.24585434112117, 38.182425132717896,1.0,769
474.781,0.7269052265185737, -1.4236082758653277, -1.4757606901549334, -1.8154121902834124, 1.5721135142512153, 2.320168257588705,0.0, 0.0, 0.0, 0.0, 0.0, 0.0,1.0,-8788.273137631726, -2845.4151256346795, 21693.851775154046, -76.91029989194368, 222.25679824747039, 38.18231028410065,1.0,769
474.789,0.7269052265185737, -1.4236082758653277, -1.4757606901549334, -1.8154121902834124, 1.5721135142512153, 2.320168257588705,0.0, 0.0, 0.0, 0.0, 0.0, 0.0,1.0,-8788.12022398619, -2845.304645206518, 21693.95504695105, -76.90013579844634, 222.24504524621625, 38.17895095541215,1.0,769
474.79699999999997,0.7269052265185737, -1.4236082758653277, -1.4757606901549334, -1.8154121902834124, 1.5721135142512153, 2.320168257588705,0.0, 0.0, 0.0, 0.0, 0.0, 0.0,1.0,-8788.270348695969, -2845.513863367837, 21694.015384787723, -76.90408435354766, 222.25478426282234, 38.182214681815054,1.0,769
474.805,0.7269052265185737, -1.4236082758653277, -1.4757606901549334, -1.8154121902834124, 1.5721135142512153, 2.320168257588705,0.0, 0.0, 0.0, 0.0, 0.0, 0.0,1.0,-8788.202205964837, -2845.4144739617404, 21693.91392490719, -76.89637455521782, 222.2526946942421, 38.187145666843065,1.0,769
474.813,0.7269052265185737, -1.4236082758653277, -1.4757606901549334, -1.8154121902834124, 1.5721135142512153, 2.320168257588705,0.0, 0.0, 0.0, 0.0, 0.0, 0.0,1.0,-8788.437970579995, -2845.4660049777403, 21693.99385905508, -76.89738220171623, 222.25680600868748, 38.186285020437595,1.0,769
474.82099999999997,0.7269052265185737, -1.4236082758653277, -1.4757606901549334, -1.8154121902834124, 1.5721135142512153, 2.320168257588705,0.0, 0.0, 0.0, 0.0, 0.0, 0.0,1.0,-8788.165633136776, -2845.4372181400067, 21693.818538781114, -76.89517629632772, 222.2561835864517, 38.180376435074606,1.0,769
474.90099999999995,0.7269052265185737, -1.4236082758653277, -1.4757606901549334, -1.8154121902834124, 1.5721135142512153, 2.320168257588705,0.0, 0.0, 0.0, 0.0, 0.0, 0.0,1.0,-8788.269907219697, -2845.701702424537, 21693.949561699334, -76.90626252510802, 222.25771669846478, 38.18734368808643,1.0,769
474.909,0.7269052265185737, -1.4236082758653277, -1.4757606901549334, -1.8154121902834124, 1.5721135142512153, 2.320168257588705,0.0, 0.0, 0.0, 0.0, 0.0, 0.0,1.0,-8788.040798845961, -2845.4136160779726, 21693.748169145732, -76.9023614216745, 222.25457530587295, 38.1897485023583,1.0,769
474.917,0.7269052265185737, -1.4236082758653277, -1.4757606901549334, -1.8154121902834124, 1.5721135142512153, 2.320168257588705,0.0, 0.0, 0.0, 0.0, 0.0, 0.0,1.0,-8788.246325098298, -2845.467848815083, 21693.76087606665, -76.8984273258672, 222.2563254209851, 38.18387303411788,1.0,769
474.92499999999995,0.7269052265185737, -1.4236082758653277, -1.4757606901549334, -1.8154121902834124, 1.5721135142512153, 2.320168257588705,0.0, 0.0, 0.0, 0.0, 0.0, 0.0,1.0,-8788.034789950929, -2845.4592899405543, 21693.81408260177, -76.90014504821747, 222.2507533284791, 38.18461284605263,1.0,769
474.933,0.7269052265185737, -1.4236082758653277, -1.4757606901549334, -1.8154121902834124, 1.5721135142512153, 2.320168257588705,0.0, 0.0, 0.0, 0.0, 0.0, 0.0,1.0,-8788.261860514509, -2845.2592539720144, 21693.93449185948, -76.89661058198655, 222.25418264749499, 38.18970413662802,1.0,769
474.941,0.7269052265185737, -1.4236082758653277, -1.4757606901549334, -1.8154121902834124, 1.5721135142512153, 2.320168257588705,0.0, 0.0, 0.0, 0.0, 0.0, 0.0,1.0,-8788.097117576339, -2845.280433057417, 21694.07284914712, -76.9012870338787, 222.24736902252573, 38.18868099878463,1.0,769
474.94899999999996,0.7269052265185737, -1.4236082758653277, -1.4757606901549334, -1.8154121902834124, 1.5721135142512153, 2.320168257588705,0.0, 0.0, 0.0, 0.0, 0.0, 0.0,1.0,-8788.504616767468, -2845.4827209984687, 21694.00116451847, -76.90206844916642, 222.26077054024387, 38.18507249362861,1.0,769
474.957,0.7269052265185737, -1.4236082758653277, -1.4757606901549334, -1.8154121902834124, 1.5721135142512153, 2.320168257588705,0.0, 0.0, 0.0, 0.0, 0.0, 0.0,1.0,-8788.111344770805, -2845.4090506499524, 21693.86146463782, -76.89961763851744, 222.2500998988018, 38.18901578419758,1.0,769
474.965,0.7269052265185737, -1.4236082758653277, -1.4757606901549334, -1.8154121902834124, 1.5721135142512153, 2.320168257588705,0.0, 0.0, 0.0, 0.0, 0.0, 0.0,1.0,-8788.22684814754, -2845.4353141136517, 21693.838612758293, -76.90390752863868, 222.25332402444627, 38.18739508650606,1.0,769
474.97299999999996,0.7269052265185737, -1.4236082758653277, -1.4757606901549334, -1.8154121902834124, 1.5721135142512153, 2.320168257588705,0.0, 0.0, 0.0, 0.0, 0.0, 0.0,1.0,-8788.264858555884, -2845.53857757301, 21693.838625796747, -76.89949463754797, 222.2567617705106, 38.18815908306942,1.0,769
474.981,0.7269052265185737, -1.4236082758653277, -1.4757606901549334, -1.8154121902834124, 1.5721135142512153, 2.320168257588705,0.0, 0.0, 0.0, 0.0, 0.0, 0.0,1.0,-8788.038963135816, -2845.621090567238, 21693.770072229087, -76.90302647362088, 222.25409350219775, 38.18930471835884,1.0,769
474.989,0.7269052265185737, -1.4236082758653277, -1.4757606901549334, -1.8154121902834124, 1.5721135142512153, 2.320168257588705,0.0, 0.0, 0.0, 0.0, 0.0, 0.0,1.0,-8788.264820192497, -2845.552084047612, 21693.851374717327, -76.90241741601378, 222.2563379301355, 38.1850187036454,1.0,769
474.99699999999996,0.7269052265185737, -1.4236082758653277, -1.4757606901549334, -1.8154121902834124, 1.5721135142512153, 2.320168257588705,0.0, 0.0, 0.0, 0.0, 0.0, 0.0,1.0,-8788.253850489009, -2845.4779759184994, 21693.622895656114, -76.90303146674151, 222.25239197695885, 38.18314409485828,1.0,769
475.005,0.7269052265185737, -1.4236082758653277, -1.4757606901549334, -1.8154121902834124, 1.5721135142512153, 2.320168257588705,0.0, 0.0, 0.0, 0.0, 0.0, 0.0,1.0,-8787.940695536747, -2845.4355895446033, 21693.84254886302, -76.90010619120878, 222.24960779016914, 38.18566703155659,1.0,769
475.013,0.7269052265185737, -1.4236082758653277, -1.4757606901549334, -1.8154121902834124, 1.5721135142512153, 2.320168257588705,0.0, 0.0, 0.0, 0.0, 0.0, 0.0,1.0,-8788.182574462793, -2845.5146504818586, 21693.81199060511, -76.90383743020723, 222.25350156163927, 38.18248827365028,1.0,769
475.02099999999996,0.7269052265185737, -1.4236082758653277, -1.4757606901549334, -1.8154121902834124, 1.5721135142512153, 2.320168257588705,0.0, 0.0, 0.0, 0.0, 0.0, 0.0,1.0,-8788.322986683092, -2845.3481786497614, 21693.826548727287, -76.8992400004345, 222.25127785285792, 38.18328249254594,1.0,769
475.029,0.7269052265185737, -1.4236082758653277, -1.4757606901549334, -1.8154121902834124, 1.5721135142512153, 2.320168257588705,0.0, 0.0, 0.0, 0.0, 0.0, 0.0,1.0,-8788.13242864003, -2845.3146365481916, 21693.9008801807, -76.89803355705737, 222.2483993939506, 38.18627935525757,1.0,769
475.037,0.7269052265185737, -1.4236082758653277, -1.4757606901549334, -1.8154121902834124, 1.5721135142512153, 2.320168257588705,0.0, 0.0, 0.0, 0.0, 0.0, 0.0,1.0,-8788.14755410561, -2845.7118272280113, 21693.792818424554, -76.90704951863589, 222.25149377279558, 38.18648631890079,1.0,769
475.04499999999996,0.7269052265185737, -1.4236082758653277, -1.4757606901549334, -1.8154121902834124, 1.5721135142512153, 2.320168257588705,0.0, 0.0, 0.0, 0.0, 0.0, 0.0,1.0,-8788.150476142828, -2845.594339312356, 21693.899890207118, -76.90320609734292, 222.25090856362522, 38.18594966114364,1.0,769
475.053,0.7269052265185737, -1.4236082758653277, -1.4757606901549334, -1.8154121902834124, 1.5721135142512153, 2.320168257588705,0.0, 0.0, 0.0, 0.0, 0.0, 0.0,1.0,-8788.29742804367, -2845.405744778428, 21693.853229773744, -76.901180615822, 222.25815759890173, 38.186619505118074,1.0,769
475.061,0.7269052265185737, -1.4236082758653277, -1.4757606901549334, -1.8154121902834124, 1.5721135142512153, 2.320168257588705,0.0, 0.0, 0.0, 0.0, 0.0, 0.0,1.0,-8787.970357977598, -2845.382997389812, 21693.71239475311, -76.89620115112217, 222.24853418974402, 38.19105558488667,1.0,769
475.06899999999996,0.7269052265185737, -1.4236082758653277, -1.4757606901549334, -1.8154121902834124, 1.5721135142512153, 2.320168257588705,0.0, 0.0, 0.0, 0.0, 0.0, 0.0,1.0,-8788.238039748634, -2845.507361093314, 21693.75630235529, -76.90011752228531, 222.25813917349103, 38.18555906721883,1.0,769
475.077,0.7269052265185737, -1.4236082758653277, -1.4757606901549334, -1.8154121902834124, 1.5721135142512153, 2.320168257588705,0.0, 0.0, 0.0, 0.0, 0.0, 0.0,1.0,-8788.142552537747, -2845.3359862341713, 21693.7815204336, -76.89461945472635, 222.25363357791986, 38.18301799501518,1.0,769
475.085,0.7269052265185737, -1.4236082758653277, -1.4757606901549334, -1.8154121902834124, 1.5721135142512153, 2.320168257588705,0.0, 0.0, 0.0, 0.0, 0.0, 0.0,1.0,-8788.314027211154, -2845.611217464265, 21693.829537268834, -76.90242474638433, 222.26121931796473, 38.19230425453722,1.0,769
475.09299999999996,0.7269052265185737, -1.4236082758653277, -1.4757606901549334, -1.8154121902834124, 1.5721135142512153, 2.320168257588705,0.0, 0.0, 0.0, 0.0, 0.0, 0.0,1.0,-8788.338367889033, -2845.3644331201076, 21693.905058185053, -76.89844601493164, 222.25406332712896, 38.18142631373476,1.0,769
475.101,0.7269052265185737, -1.4236082758653277, -1.4757606901549334, -1.8154121902834124, 1.5721135142512153, 2.320168257588705,0.0, 0.0, 0.0, 0.0, 0.0, 0.0,1.0,-8788.47849055698, -2845.453679431049, 21693.90991354583, -76.90192254342173, 222.25835353814267, 38.18811778374695,1.0,769
475.109,0.7269052265185737, -1.4236082758653277, -1.4757606901549334, -1.8154121902834124, 1.5721135142512153, 2.320168257588705,0.0, 0.0, 0.0, 0.0, 0.0, 0.0,1.0,-8788.25380093238, -2845.250702332126, 21693.99234706525, -76.89675597597508, 222.25288244654746, 38.190804057865876,1.0,769
475.11699999999996,0.7269052265185737, -1.4236082758653277, -1.4757606901549334, -1.8154121902834124, 1.5721135142512153, 2.320168257588705,0.0, 0.0, 0.0, 0.0, 0.0, 0.0,1.0,-8788.045073052766, -2845.461762979494, 21693.844133029805, -76.9030756813012, 222.25117369973276, 38.184589881423136,1.0,769
475.125,0.7269052265185737, -1.4236082758653277, -1.4757606901549334, -1.8154121902834124, 1.5721135142512153, 2.320168257588705,0.0, 0.0, 0.0, 0.0, 0.0, 0.0,1.0,-8788.31415796147, -2845.3224228023855, 21693.990944046283, -76.8998972210108, 222.2559792772616, 38.18678800530728,1.0,769
475.133,0.7269052265185737, -1.4236082758653277, -1.4757606901549334, -1.8154121902834124, 1.5721135142512153, 2.320168257588705,0.0, 0.0, 0.0, 0.0, 0.0, 0.0,1.0,-8788.302236594876, -2845.2500363747786, 21693.83386214379, -76.89756294072993, 222.2596825586524, 38.18742496631481,1.0,769
475.14099999999996,0.7269052265185737, -1.4236082758653277, -1.4757606901549334, -1.8154121902834124, 1.5721135142512153, 2.320168257588705,0.0, 0.0, 0.0, 0.0, 0.0, 0.0,1.0,-8788.40448117001, -2845.5057474847354, 21693.742150562648, -76.90227723487786, 222.26152053837393, 38.190133253890394,1.0,769
475.149,0.7269052265185737, -1.4236082758653277, -1.4757606901549334, -1.8154121902834124, 1.5721135142512153, 2.320168257588705,0.0, 0.0, 0.0, 0.0, 0.0, 0.0,1.0,-8788.17074960479, -2845.4438853416113, 21693.821170767573, -76.89908307921328, 222.25151791128934, 38.18794650656062,1.0,769
475.157,0.7269052265185737, -1.4236082758653277, -1.4757606901549334, -1.8154121902834124, 1.5721135142512153, 2.320168257588705,0.0, 0.0, 0.0, 0.0, 0.0, 0.0,1.0,-8788.268612426304, -2845.47872790985, 21693.77536062364, -76.89719256538115, 222.25308537204592, 38.186561526613445,1.0,769
475.16499999999996,0.7269052265185737, -1.4236082758653277, -1.4757606901549334, -1.8154121902834124, 1.5721135142512153, 2.320168257588705,0.0, 0.0, 0.0, 0.0, 0.0, 0.0,1.0,-8788.265517191183, -2845.3709763532643, 21693.706152108218, -76.89991807994244, 222.25906117146576, 38.18905038232637,1.0,769
475.173,0.7269052265185737, -1.4236082758653277, -1.4757606901549334, -1.8154121902834124, 1.5721135142512153, 2.320168257588705,0.0, 0.0, 0.0, 0.0, 0.0, 0.0,1.0,-8788.153945266298, -2845.5238479450773, 21693.87583383994, -76.90089698597748, 222.2495160565943, 38.19002622824655,1.0,769
475.181,0.7269052265185737, -1.4236082758653277, -1.4757606901549334, -1.8154121902834124, 1.5721135142512153, 2.320168257588705,0.0, 0.0, 0.0, 0.0, 0.0, 0.0,1.0,-8788.247525170716, -2845.4540263780136, 21693.987865402178, -76.89951096646405, 222.25207659549767, 38.190544945950506,1.0,769
475.18899999999996,0.7269052265185737, -1.4236082758653277, -1.4757606901549334, -1.8154121902834124, 1.5721135142512153, 2.320168257588705,0.0, 0.0, 0.0, 0.0, 0.0, 0.0,1.0,-8788.224752050068, -2845.523212862243, 21694.048706065754, -76.90309691370518, 222.25239153329534, 38.19017510505833,1.0,769
475.197,0.7269101350132252, -1.4236104975315422, -1.475761446450253, -1.8154092016585164, 1.5721135090178961, 2.320172532921487,0.6512238113225782, -0.29475471453868207, -0.10033983039226475, 0.3965092831313906, -0.0006943191813767025, 0.5672204426605866,1.0,-8788.150254683336, -2845.498070203166, 21693.89732336292, -76.90102985551496, 222.25225929457145, 38.188616305937614,1.0,769
475.205,0.7269844339259027, -1.4236441264536062, -1.4757728943429242, -1.8153639634345895, 1.5721134298021806, 2.3202372477881816,0.6512238113225781, -0.294754714538682, -0.10033983039226474, 0.3965092831313906, -0.0006943191813767024, 0.5672204426605866,1.0,-8787.96118380876, -2846.8182800138948, 21693.583989207946, -76.8695223766575, 222.2599909452108, 38.18567044072563,1.0,769
475.21299999999997,0.7271480936962823, -1.4237182015842462, -1.4757981108557665, -1.8152643162516968, 1.5721132553120656, 2.320379796579836,0.6512238113225781, -0.29475471453868207, -0.10033983039226475, 0.3965092831313906, -0.0006943191813767024, 0.5672204426605866,1.0,-8788.353286509657, -2847.5003055393963, 21693.912436154842, -76.8337844148771, 222.23792311071873, 38.12861765319914,1.0,769
475.221,0.7274011143243639, -1.4238327229234624, -1.4758370959887825, -1.8151102601098392, 1.5721129855475509, 2.3206001792964495,0.6512238113225781, -0.29475471453868207, -0.10033983039226475, 0.3965092831313906, -0.0006943191813767024, 0.5672204426605866,1.0,-8787.836951916848, -2845.978304313585, 21693.262936466264, -76.88151642181737, 222.2753207858786, 38.146621162317416,1.0,769
475.229,0.7277434958101477, -1.4239876904712565, -1.4758898497419715, -1.8149017950090167, 1.5721126205086369, 2.3208983959380225,0.6512238113225782, -0.29475471453868207, -0.10033983039226475, 0.3965092831313907, -0.0006943191813767025, 0.5672204426605867,1.0,-8788.461820523671, -2846.8284319509685, 21692.932403119114, -76.85571826387613, 222.24149880568143, 38.1469808270914,1.0,769
475.23699999999997,0.7281752381536337, -1.4241831042276267, -1.4759563721153324, -1.8146389209492284, 1.5721121601953232, 2.321274446504555,0.6512238113225781, -0.294754714538682, -0.10033983039226474, 0.3965092831313906, -0.0006943191813767025, 0.5672204426605866,1.0,-8788.723464777895, -2847.6980422114793, 21693.245700490847, -76.83840618283631, 222.2468489333852, 38.15098334375696,1.0,769
475.245,0.7286963413548218, -1.424418964192574, -1.4760366631088662, -1.8143216379304752, 1.57211160460761, 2.3217283309960473,0.6512238113225781, -0.294754714538682, -0.10033983039226474, 0.3965092831313906, -0.0006943191813767024, 0.5672204426605866,1.0,-8787.760329005803, -2847.0152774580783, 21693.390491236085, -76.85071504439304, 222.24729865010403, 38.161540322701256,1.0,769
475.253,0.7293068054137118, -1.4246952703660982, -1.4761307227225728, -1.8139499459527562, 1.5721109537454974, 2.322260049412499,0.6512238113225782, -0.2947547145386821, -0.10033983039226477, 0.3965092831313907, -0.0006943191813767026, 0.5672204426605867,1.0,-8787.591812288312, -2846.3194350753492, 21693.75595254513, -76.87256783492487, 222.2790546834933, 38.164958457825605,1.0,769
475.26099999999997,0.7300066303303041, -1.4250120227481995, -1.4762385509564524, -1.8135238450160722, 1.5721102076089852, 2.32286960175391,0.651223811322578, -0.294754714538682, -0.10033983039226474, 0.3965092831313906, -0.0006943191813767024, 0.5672204426605866,1.0,-8788.288411272553, -2846.9081372207957, 21693.77402229289, -76.85626889274826, 222.26452424995864, 38.152193189130855,1.0,769
475.269,0.7307958161045984, -1.425369221338877, -1.4763601478105048, -1.8130433351204225, 1.5721093661980736, 2.3235569880202807,0.6512238113225782, -0.29475471453868207, -0.10033983039226477, 0.39650928313139067, -0.0006943191813767026, 0.5672204426605867,1.0,-8788.565546087104, -2846.630877858068, 21693.48898469371, -76.86464281037783, 222.234931033382, 38.15153610937719,1.0,769
475.277,0.7316743627365949, -1.4257668661381313, -1.4764955132847293, -1.8125084162658087, 1.5721084295127625, 2.3243222082116106,0.6512238113225782, -0.29475471453868207, -0.10033983039226475, 0.3965092831313906, -0.0006943191813767024, 0.5672204426605866,1.0,-8788.53739225012, -2846.544177195652, 21693.75004439983, -76.85063209888492, 222.2328156132915, 38.15320707385868,1.0,769
475.28499999999997,0.7326422702262935, -1.4262049571459627, -1.4766446473791275, -1.8119190884522283, 1.572107397553052, 2.3251652623279004,0.6512238113225782, -0.29475471453868207, -0.10033983039226475, 0.39650928313139067, -0.0006943191813767025, 0.5672204426605867,1.0,-8788.367869286893, -2846.2075712376145, 21693.729615062308, -76.86819916494355, 222.2652666815565, 38.15441550942944,1.0,769
475.293,0.7336995385736942, -1.4266834943623703, -1.4768075500936977, -1.811275351679683, 1.5721062703189417, 2.3260861503691497,0.6512238113225782, -0.29475471453868207, -0.10033983039226475, 0.3965092831313906, -0.0006943191813767024, 0.5672204426605866,1.0,-8788.15827941595, -2846.989448270592, 21693.756062759163, -76.84979321018005, 222.2609325790866, 38.163930598601866,1.0,769
475.301,0.734846167778797, -1.4272024777873549, -1.4769842214284408, -1.8105772059481726, 1.5721050478104321, 2.3270848723353583,0.6512238113225782, -0.29475471453868207, -0.10033983039226475, 0.39650928313139067, -0.0006943191813767025, 0.5672204426605867,1.0,-8788.425644888513, -2847.8824584397016, 21693.86511401909, -76.82943377908106, 222.26763361711602, 38.159017537477126,1.0,769
475.30899999999997,0.7360821578416019, -1.4277619074209165, -1.4771746613833567, -1.8098246512576974, 1.572103730027523, 2.3281614282265264,0.6512238113225782, -0.29475471453868207, -0.10033983039226477, 0.39650928313139067, -0.0006943191813767025, 0.5672204426605867,1.0,-8787.934318937154, -2847.2135024083627, 21693.787137511736, -76.83398817084591, 222.28812819484597, 38.158082526470196,1.0,769
475.31699999999995,0.7374075087621089, -1.428361783263055, -1.4773788699584447, -1.8090176876082564, 1.5721023169702142, 2.329315818042654,0.6512238113225781, -0.294754714538682, -0.10033983039226475, 0.3965092831313906, -0.0006943191813767025, 0.5672204426605866,1.0,-8788.405792523608, -2846.5074349142033, 21693.77347691793, -76.85783554066083, 222.23562545703714, 38.165283205141776,1.0,769
475.325,0.738822220540318, -1.4290021053137698, -1.4775968471537064, -1.8081563149998496, 1.5721008086385062, 2.330548041783741,0.6512238113225782, -0.2947547145386821, -0.10033983039226477, 0.39650928313139067, -0.0006943191813767026, 0.5672204426605867,1.0,-8788.752305325499, -2845.6767284072694, 21692.86279086714, -76.88454816136164, 222.22415607526398, 38.160529901537586,1.0,769
475.33299999999997,0.7403262931762292, -1.4296828735730616, -1.4778285929691402, -1.807240533432478, 1.5720992050323985, 2.3318580994497875,0.6512238113225781, -0.294754714538682, -0.10033983039226474, 0.3965092831313906, -0.0006943191813767025, 0.5672204426605866,1.0,-8787.956757932503, -2847.332732489832, 21693.0621370874, -76.83228503594299, 222.2238379073574, 38.14996418046786,1.0,769
475.34099999999995,0.7419197266698426, -1.4304040880409303, -1.4780741074047468, -1.8062703429061413, 1.5720975061518911, 2.3332459910407937,0.6512238113225782, -0.29475471453868207, -0.10033983039226477, 0.39650928313139067, -0.0006943191813767025, 0.5672204426605867,1.0,-8787.164683229157, -2846.8057640896004, 21694.27752877688, -76.85605838839334, 222.2919213865444, 38.168729313138186,1.0,769
475.349,0.743602521021158, -1.4311657487173761, -1.4783333904605263, -1.8052457434208389, 1.5720957119969845, 2.3347117165567592,0.6512238113225782, -0.29475471453868207, -0.10033983039226474, 0.3965092831313906, -0.0006943191813767025, 0.5672204426605866,1.0,-8788.195210766984, -2846.7681017557006, 21694.083356080897, -76.84117029562717, 222.23401028791585, 38.166214151866114,1.0,769
475.35699999999997,0.7453746762301756, -1.431967855602398, -1.4786064421364786, -1.8041667349765715, 1.5720938225676784, 2.3362552759976847,0.6512238113225781, -0.294754714538682, -0.10033983039226475, 0.39650928313139056, -0.0006943191813767025, 0.5672204426605866,1.0,-8788.45165075484, -2846.2304160946105, 21693.088144342768, -76.87454830608169, 222.24377091880075, 38.166604269674394,1.0,769
475.36499999999995,0.7472361922968953, -1.432810408695997, -1.478893262432603, -1.8030333175733393, 1.5720918378639728, 2.337876669363569,0.6512238113225781, -0.29475471453868207, -0.10033983039226474, 0.3965092831313906, -0.0006943191813767024, 0.5672204426605866,1.0,-8788.40049188839, -2846.610956471688, 21693.175263608275, -76.85898737010424, 222.25144830178232, 38.16318692046613,1.0,769
475.373,0.7491870692213171, -1.433693407998172, -1.4791938513489011, -1.8018454912111412, 1.5720897578858675, 2.3395758966544133,0.6512238113225782, -0.29475471453868207, -0.10033983039226475, 0.3965092831313906, -0.0006943191813767025, 0.5672204426605866,1.0,-8788.25194792079, -2847.1201885377886, 21693.93422916708, -76.84457052740993, 222.2368087434263, 38.158721027915476,1.0,769
475.381,0.751227307003441, -1.434616853508925, -1.4795082088853713, -1.8006032558899774, 1.572087582633363, 2.341352957870217,0.6512238113225781, -0.29475471453868207, -0.10033983039226475, 0.3965092831313906, -0.0006943191813767025, 0.5672204426605866,1.0,-8788.432464211646, -2846.5628245731723, 21693.455055124614, -76.86872445665568, 222.23175250801444, 38.17133033703303,1.0,769
475.38899999999995,0.753356905643267, -1.435580745228254, -1.4798363350420143, -1.7993066116098486, 1.5720853121064586, 2.34320785301098,0.6512238113225781, -0.29475471453868207, -0.10033983039226474, 0.3965092831313906, -0.0006943191813767024, 0.5672204426605866,1.0,-8787.25934574311, -2847.094988425998, 21693.561103319986, -76.84679206631358, 222.28947305872504, 38.165268843702364,1.0,769
475.397,0.755575865140795, -1.4365850831561602, -1.4801782298188302, -1.797955558370755, 1.5720829463051549, 2.3451405820767026,0.6512238113225781, -0.2947547145386821, -0.10033983039226475, 0.39650928313139067, -0.0006943191813767025, 0.5672204426605867,1.0,-8789.646780112582, -2847.0178491695633, 21693.593174828242, -76.86634907898954, 222.18124218212847, 38.167488341621805,1.0,769
475.405,0.7578841854960252, -1.4376298672926433, -1.480533893215819, -1.7965500961726955, 1.5720804852294517, 2.347151145067385,0.6512238113225781, -0.294754714538682, -0.10033983039226474, 0.39650928313139056, -0.0006943191813767024, 0.5672204426605866,1.0,-8787.700079957478, -2846.673965456431, 21693.13512846387, -76.84951322453796, 222.2607218675651, 38.17329161418732,1.0,769
475.41299999999995,0.7602818667089576, -1.4387150976377026, -1.4809033252329797, -1.795090225015671, 1.572077928879349, 2.3492395419830263,0.6512238113225782, -0.29475471453868207, -0.10033983039226475, 0.3965092831313906, -0.0006943191813767025, 0.5672204426605866,1.0,-8787.56070286907, -2846.6919756725883, 21693.69415214249, -76.85332368283918, 222.2763894440816, 38.1514787758972,1.0,769
475.421,0.762768908779592, -1.4398407741913388, -1.4812865258703143, -1.7935759448996809, 1.5720752772548467, 2.3514057728236275,0.6512238113225782, -0.29475471453868207, -0.10033983039226477, 0.39650928313139067, -0.0006943191813767025, 0.5672204426605867,1.0,-8789.168201127368, -2846.401122403794, 21693.4842043495, -76.86977652202583, 222.20979939921693, 38.1607026006906,1.0,769
475.429,0.7653453117079285, -1.441006896953552, -1.4816834951278208, -1.7920072558247266, 1.572072530355945, 2.353649837589188,0.6512238113225781, -0.29475471453868207, -0.10033983039226475, 0.39650928313139067, -0.0006943191813767025, 0.5672204426605866,1.0,-8786.872935930744, -2848.3873585986694, 21693.28436615346, -76.79305379350154, 222.30241003269487, 38.15203034285648,1.0,769
475.43699999999995,0.7680110754939672, -1.4422134659243415, -1.4820942330055003, -1.7903841577908057, 1.5720696881826437, 2.355971736279708,0.6512238113225782, -0.294754714538682, -0.10033983039226475, 0.3965092831313906, -0.0006943191813767025, 0.5672204426605866,1.0,-8790.081218089672, -2844.0582806387247, 21693.105003676756, -76.93877028719538, 222.17423942812985, 38.15433506544355,1.0,769
475.445,0.770766200137708, -1.4434604811037088, -1.4825187395033526, -1.78870665079792, 1.572066750734943, 2.358371468895188,0.6512238113225781, -0.294754714538682, -0.10033983039226474, 0.39650928313139056, -0.0006943191813767024, 0.5672204426605866,1.0,-8786.208952387666, -2848.9123258695827, 21693.707375085003, -76.78938292102188, 222.31913621080514, 38.155584425988536,1.0,769
475.453,0.7736106856391509, -1.4447479424916523, -1.4829570146213769, -1.7869747348460692, 1.5720637180128427, 2.360849035435627,0.6512238113225782, -0.29475471453868207, -0.10033983039226475, 0.3965092831313906, -0.0006943191813767026, 0.5672204426605867,1.0,-8789.950744698963, -2845.004329011409, 21693.86606030102, -76.89173361223283, 222.16117799488535, 38.154018001012446,1.0,769
475.46099999999996,0.7765445319982959, -1.4460758500881727, -1.483409058359575, -1.7851884099352535, 1.5720605900163431, 2.3634044359010256,0.6512238113225781, -0.29475471453868207, -0.10033983039226475, 0.39650928313139067, -0.0006943191813767025, 0.5672204426605867,1.0,-8786.00959977989, -2849.5347103081767, 21693.798287921774, -76.77558398471734, 222.3149153774179, 38.145639718782974,1.0,769
475.469,0.779567739215143, -1.4474442038932693, -1.4838748707179459, -1.7833476760654712, 1.5720573667454438, 2.3660376702913837,0.6512238113225781, -0.29475471453868207, -0.10033983039226475, 0.3965092831313906, -0.0006943191813767025, 0.5672204426605866,1.0,-8789.899444576822, -2843.5536300172053, 21693.341880797256, -76.95591360902228, 222.17250398774388, 38.16081024899708,1.0,769
475.477,0.7826803072896922, -1.4488530039069438, -1.484354451696488, -1.7814525332367248, 1.572054048200145, 2.368748738606701,0.6512238113225782, -0.29475471453868207, -0.10033983039226475, 0.3965092831313906, -0.0006943191813767025, 0.5672204426605866,1.0,-8786.961971809644, -2849.8874066831713, 21693.609266912335, -76.75203190549686, 222.27977021513095, 38.17198852291841,1.0,769
475.48499999999996,0.7858822362219435, -1.4503022501291944, -1.4848478012952047, -1.7795029814490126, 1.5720506343804468, 2.371537640846978,0.6512238113225781, -0.294754714538682, -0.10033983039226475, 0.3965092831313906, -0.0006943191813767024, 0.5672204426605866,1.0,-8789.93413211431, -2843.6847733903433, 21693.724109838462, -76.95516695946563, 222.1953205943393, 38.171245041154805,1.0,769
475.493,0.7891735260118969, -1.4517919425600212, -1.4853549195140925, -1.7774990207023347, 1.572047125286349, 2.374404377012215,0.6512238113225781, -0.294754714538682, -0.10033983039226474, 0.39650928313139056, -0.0006943191813767024, 0.5672204426605866,1.0,-8786.862001092002, -2850.9266806457517, 21694.030564526536, -76.70514854479114, 222.28405793548973, 38.136382752290785,1.0,769
475.501,0.7925541766595524, -1.4533220811994259, -1.485875806353154, -1.7754406509966927, 1.5720435209178518, 2.377348947102411,0.6512238113225782, -0.29475471453868207, -0.10033983039226475, 0.39650928313139067, -0.0006943191813767025, 0.5672204426605867,1.0,-8788.724020130216, -2843.6815363644055, 21693.178519627996, -76.94683394519944, 222.21232262967237, 38.14955734362158,1.0,769
475.50899999999996,0.79602418816491, -1.4548926660474066, -1.4864104618123886, -1.773327872332084, 1.5720398212749551, 2.380371351117567,0.6512238113225781, -0.29475471453868207, -0.10033983039226477, 0.39650928313139067, -0.0006943191813767026, 0.5672204426605866,1.0,-8787.982226006501, -2849.2852637631277, 21693.409620795817, -76.75689617917294, 222.22474235940962, 38.145875216074955,1.0,769
475.517,0.7995835605279699, -1.4565036971039644, -1.486958885891795, -1.7711606847085113, 1.5720360263576587, 2.383471589057682,0.6512238113225781, -0.29475471453868207, -0.10033983039226475, 0.39650928313139067, -0.0006943191813767025, 0.5672204426605866,1.0,-8787.752212384352, -2845.8190500071396, 21693.180166490296, -76.89169012914024, 222.24296618183615, 38.16612537736228,1.0,769
475.525,0.8032322937487317, -1.4581551743690984, -1.4875210785913744, -1.7689390881259728, 1.572032136165963, 2.3866496609227563,0.6512238113225782, -0.29475471453868207, -0.10033983039226475, 0.3965092831313906, -0.0006943191813767025, 0.5672204426605866,1.0,-8789.707540168876, -2845.6592214858747, 21693.48138373649, -76.87968139002732, 222.18060747411602, 38.14476565339152,1.0,769
475.53299999999996,0.8069703878271957, -1.4598470978428102, -1.4880970399111266, -1.7666630825844685, 1.5720281506998677, 2.3899055667127906,0.6512238113225781, -0.29475471453868207, -0.10033983039226474, 0.3965092831313906, -0.0006943191813767024, 0.5672204426605866,1.0,-8787.296961452079, -2848.006927441703, 21693.423281047697, -76.81435587496529, 222.28473932361425, 38.159014290320926,1.0,769
475.541,0.8107978427633618, -1.4615794675250982, -1.4886867698510517, -1.7643326680840001, 1.5720240699593728, 2.393239306427784,0.6512238113225781, -0.294754714538682, -0.10033983039226475, 0.3965092831313906, -0.0006943191813767025, 0.5672204426605866,1.0,-8788.601872659043, -2846.1009255713116, 21693.39534804955, -76.8668223515528, 222.22082131249005, 38.15618208027408,1.0,769
475.549,0.81471465855723, -1.4633522834159631, -1.4892902684111489, -1.761947844624565, 1.5720198939444785, 2.396650880067737,0.6512238113225781, -0.29475471453868207, -0.10033983039226474, 0.3965092831313906, -0.0006943191813767024, 0.5672204426605866,1.0,-8788.993206880383, -2846.4305044921057, 21693.42550906595, -76.84240546517393, 222.189524958907, 38.16776956071979,1.0,769
475.55699999999996,0.8187208352088002, -1.4651655455154042, -1.4899075355914198, -1.7595086122061652, 1.572015622655185, 2.4001402876326496,0.6512238113225781, -0.29475471453868207, -0.10033983039226475, 0.3965092831313906, -0.0006943191813767025, 0.5672204426605867,1.0,-8787.114727826633, -2847.492094602253, 21693.36014554771, -76.8407388973418, 222.27682324708582, 38.165139643113264,1.0,769
475.565,0.8228163727180727, -1.4670192538234232, -1.4905385713918626, -1.7570149708288003, 1.5720112560914914, 2.4037075291225216,0.6512238113225781, -0.294754714538682, -0.10033983039226475, 0.3965092831313906, -0.0006943191813767025, 0.5672204426605866,1.0,-8788.871012427373, -2847.1762052964486, 21693.126638683378, -76.84525176041339, 222.18602140567464, 38.16612936349182,1.0,769
475.573,0.8270012710850472, -1.4689134083400184, -1.4911833758124784, -1.7544669204924705, 1.5720067942533986, 2.4073526045373534,0.6512238113225782, -0.29475471453868207, -0.10033983039226475, 0.39650928313139067, -0.0006943191813767025, 0.5672204426605867,1.0,-8788.50876723616, -2847.0809987019975, 21693.514952934154, -76.84309349500742, 222.1902505957528, 38.14628176739262,1.0,769
475.58099999999996,0.8312755303097239, -1.4708480090651896, -1.491841948853267, -1.751864461197174, 1.5720022371409064, 2.4110755138771447,0.6512238113225781, -0.29475471453868207, -0.10033983039226475, 0.39650928313139067, -0.0006943191813767025, 0.5672204426605866,1.0,-8787.434379050443, -2846.3703926758817, 21693.584902198294, -76.86198120211884, 222.23425719079364, 38.1613786518476,1.0,769
475.589,0.8356391503921026, -1.4728230559989388, -1.4925142905142286, -1.7492075929429136, 1.5719975847540146, 2.414876257141895,0.6512238113225782, -0.29475471453868207, -0.10033983039226475, 0.3965092831313906, -0.0006943191813767025, 0.5672204426605866,1.0,-8787.654314188612, -2847.433908865809, 21693.33715001102, -76.83158371648537, 222.24764487241197, 38.14588399637822,1.0,769
475.597,0.8400921313321834, -1.474838549141264, -1.493200400795362, -1.7464963157296873, 1.5719928370927232, 2.418754834331605,0.6512238113225781, -0.294754714538682, -0.10033983039226475, 0.3965092831313906, -0.0006943191813767024, 0.5672204426605866,1.0,-8788.372270399494, -2846.9920304507477, 21693.070446333215, -76.83976309108115, 222.2064422851036, 38.16086163724444,1.0,769
475.60499999999996,0.8446344731299664, -1.4768944884921664, -1.4939002796966694, -1.7437306295574961, 1.5719879941570325, 2.422711245446275,0.6512238113225782, -0.29475471453868207, -0.10033983039226475, 0.39650928313139067, -0.0006943191813767026, 0.5672204426605867,1.0,-8788.641408241676, -2846.176216520753, 21693.151406597117, -76.86196961641855, 222.20502493141203, 38.138087270359705,1.0,769
475.613,0.8492661757854515, -1.4789908740516449, -1.4946139272181487, -1.7409105344263391, 1.571983055946942, 2.426745490485904,0.6512238113225781, -0.294754714538682, -0.10033983039226473, 0.3965092831313906, -0.0006943191813767024, 0.5672204426605866,1.0,-8787.883358178808, -2846.159963215122, 21693.016239078985, -76.8648759171713, 222.2162271787805, 38.129668514892245,1.0,769
475.621,0.8539872392986387, -1.4811277058197012, -1.4953413433598008, -1.7380360303362172, 1.5719780224624522, 2.4308575694504926,0.6512238113225782, -0.294754714538682, -0.10033983039226475, 0.3965092831313906, -0.0006943191813767025, 0.5672204426605866,1.0,-8787.957524551653, -2847.598364752842, 21693.32040365211, -76.8205146780335, 222.21782461199257, 38.15006594781465,1.0,769
475.62899999999996,0.858797663669528, -1.4833049837963337, -1.496082528121626, -1.7351071172871304, 1.5719728937035629, 2.4350474823400403,0.6512238113225781, -0.29475471453868207, -0.10033983039226475, 0.39650928313139067, -0.0006943191813767025, 0.5672204426605867,1.0,-8787.943697665196, -2848.3774994696514, 21693.140193575447, -76.79394422541984, 222.2171139169563, 38.15764799930915,1.0,769
475.637,0.8636974488981194, -1.4855227079815432, -1.4968374815036238, -1.7321237952790778, 1.571967669670274, 2.439315229154548,0.6512238113225782, -0.29475471453868207, -0.10033983039226475, 0.39650928313139067, -0.0006943191813767025, 0.5672204426605866,1.0,-8787.18404137076, -2846.9356208654244, 21692.995913684405, -76.84821724703485, 222.23964858415627, 38.158710053556064,1.0,769
475.645,0.8686865949844129, -1.4877808783753288, -1.4976062035057938, -1.7290860643120594, 1.5719623503625857, 2.4436608098940154,0.6512238113225781, -0.29475471453868207, -0.10033983039226475, 0.3965092831313906, -0.0006943191813767024, 0.5672204426605867,1.0,-8789.049143019804, -2845.9062760760926, 21693.34823922278, -76.87296996365876, 222.18399006473038, 38.13374296733895,1.0,769
475.65299999999996,0.8737349661041655, -1.490065855003051, -1.498384050834325, -1.7260122731225005, 1.5719569679105894, 2.4480579760471466,0.6512238113225782, -0.29475471453868196, -0.10033983039226473, 0.3965092831313906, -0.0006943191813767024, 0.5672204426605865,1.0,-8788.819340868267, -2846.7817702214516, 21693.747316660225, -76.83263548601684, 222.18229492839902, 38.15669306406312,1.0,769
475.661,0.8787096855132271, -1.4923174956430794, -1.499150549990338, -1.7229833260963456, 1.5719516639842777, 2.4523909910509887,0.6512238113225782, -0.294754714538682, -0.10033983039226475, 0.39650928313139067, -0.0006943191813767025, 0.5672204426605865,1.0,-8787.68814900355, -2842.9210267722538, 21694.38345221072, -76.94210631152399, 222.26559219698515, 38.169627242335906,1.0,769
475.669,0.8835950440645868, -1.4945286900745307, -1.499903280526178, -1.7200087880291557, 1.5719464553323657, 2.456646172129872,0.6512238113225782, -0.294754714538682, -0.10033983039226474, 0.3965092831313906, -0.0006943191813767024, 0.5672204426605865,1.0,-8788.355261731576, -2842.0838343608784, 21694.699648130292, -76.97189236388539, 222.22119798817806, 38.18059010694628,1.0,769
475.67699999999996,0.888391041758244, -1.496699438297405, -1.5006422424418453, -1.7170886589209315, 1.5719413419548527, 2.460823519283795,0.6512238113225782, -0.29475471453868196, -0.10033983039226474, 0.39650928313139067, -0.0006943191813767024, 0.5672204426605865,1.0,-8788.676317927755, -2845.528906353171, 21694.899489982265, -76.86240370318671, 222.1967887228401, 38.16178562443068,1.0,769
475.685,0.8930976785941992, -1.4988297403117032, -1.5013674357373405, -1.7142229387716723, 1.5719363238517396, 2.464923032512759,0.6512238113225782, -0.29475471453868196, -0.10033983039226474, 0.39650928313139067, -0.0006943191813767025, 0.5672204426605866,1.0,-8787.540238587964, -2843.4055912758968, 21695.28339444451, -76.9261024003352, 222.24720674124256, 38.141053670543556,1.0,769
475.693,0.8977149545724522, -1.5009195961174244, -1.502078860412663, -1.7114116275813789, 1.571931401023026, 2.468944711816763,0.6512238113225783, -0.294754714538682, -0.10033983039226475, 0.3965092831313907, -0.0006943191813767025, 0.5672204426605866,1.0,-8785.631272590923, -2842.8421560946535, 21695.050506437638, -76.96454959908576, 222.3198018074528, 38.16376406769743,1.0,769
475.70099999999996,0.9022428696930032, -1.5029690057145686, -1.5027765164678124, -1.7086547253500504, 1.5719265734687118, 2.472888557195808,0.6512238113225783, -0.294754714538682, -0.10033983039226475, 0.3965092831313907, -0.0006943191813767026, 0.5672204426605866,1.0,-8788.417631877232, -2843.7071246823743, 21694.148700555168, -76.94091000107122, 222.20821848217435, 38.17465387596414,1.0,769
475.709,0.906681423955852, -1.5049779691031357, -1.503460403902789, -1.7059522320776868, 1.5719218411887972, 2.476754568649893,0.6512238113225782, -0.294754714538682, -0.10033983039226474, 0.39650928313139067, -0.0006943191813767024, 0.5672204426605866,1.0,-8789.270149042472, -2843.78988855852, 21694.157718983526, -76.93966731375224, 222.17912750072645, 38.16307171048214,1.0,769
475.717,0.9110306173609988, -1.5069464862831268, -1.5041305227175927, -1.703304147764289, 1.571917204183282, 2.480542746179019,0.6512238113225783, -0.294754714538682, -0.10033983039226475, 0.3965092831313907, -0.0006943191813767025, 0.5672204426605865,1.0,-8787.440774920553, -2844.663123515101, 21694.05743412023, -76.90526985183101, 222.23814694152327, 38.15567820817773,1.0,769
475.72499999999997,0.9152904499084435, -1.5088745572545408, -1.5047868729122236, -1.700710472409856, 1.5719126624521662, 2.484253089783185,0.6512238113225782, -0.294754714538682, -0.10033983039226474, 0.39650928313139067, -0.0006943191813767025, 0.5672204426605866,1.0,-8786.69836989002, -2845.7156583614114, 21693.886720529048, -76.871742024421, 222.2662341822974, 38.13751928355131,1.0,769
475.733,0.9194609215981862, -1.5107621820173787, -1.5054294544866824, -1.698171206014389, 1.57190821599545, 2.487885599462392,0.6512238113225783, -0.294754714538682, -0.10033983039226475, 0.39650928313139067, -0.0006943191813767025, 0.5672204426605866,1.0,-8787.619720693483, -2844.824186501559, 21693.345997521268, -76.91008439602876, 222.2105806762263, 38.164682526885485,1.0,769
475.741,0.9235420324302267, -1.5126093605716386, -1.5060582674409684, -1.6956863485778868, 1.5719038648131336, 2.4914402752166396,0.6512238113225781, -0.29475471453868196, -0.10033983039226474, 0.3965092831313906, -0.0006943191813767024, 0.5672204426605866,1.0,-8788.511962332503, -2844.002480383416, 21693.282247314986, -76.91454165425799, 222.17090317166355, 38.13107968351909,1.0,769
475.74899999999997,0.927533782404565, -1.5144160929173225, -1.5066733117750815, -1.6932559001003504, 1.5718996089052164, 2.4949171170459277,0.6512238113225782, -0.294754714538682, -0.10033983039226473, 0.39650928313139067, -0.0006943191813767025, 0.5672204426605865,1.0,-8787.008007763261, -2842.4982055685887, 21693.514565460497, -76.95439147325942, 222.25290839250255, 38.15661883422129,1.0,769
475.757,0.9314361715212012, -1.5161823790544293, -1.5072745874890217, -1.690879860581779, 1.5718954482716987, 2.498316124950256,0.6512238113225782, -0.294754714538682, -0.10033983039226474, 0.39650928313139067, -0.0006943191813767024, 0.5672204426605865,1.0,-8785.459702655517, -2845.7902017664946, 21694.05941247355, -76.85968420525859, 222.28885048272525, 38.14008496153531,1.0,769
475.765,0.9352491997801352, -1.5179082189829591, -1.507862094582789, -1.6885582300221724, 1.5718913829125805, 2.5016372989296247,0.6512238113225782, -0.29475471453868196, -0.10033983039226474, 0.39650928313139067, -0.0006943191813767025, 0.5672204426605865,1.0,-8788.181912213002, -2842.4161408570853, 21694.410429284475, -76.98050372491764, 222.2019379603547, 38.14760811283389,1.0,769
475.77299999999997,0.9389747210202551, -1.519594028329939, -1.5084437902101158, -1.6862826293965139, 1.5718874136725765, 2.504882954692564,0.6497633515695456, -0.2938539006979825, -0.1044747588721101, 0.39974148524522746, -0.0006911610028690449, 0.566346858409856,1.0,-8787.811749576553, -2843.7954720587077, 21694.54745544987, -76.92374424377545, 222.2197867281447, 38.167462465995584,1.0,769
475.781,0.9426231322706512, -1.5212421086700187, -1.5090656378041416, -1.6840047582765472, 1.5718835456630347, 2.5080662060957217,0.6449162705487264, -0.2909047215129107, -0.11776124380576615, 0.4100723225095056, -0.0006808835551004166, 0.5634092323964714,1.0,-8786.03958437284, -2844.7421908359956, 21694.031180873633, -76.88722797651067, 222.29659008562487, 38.16566974659909,1.0,769
475.789,0.9462053338926063, -1.5228547909460364, -1.5097796343463905, -1.6816702504616972, 1.5718797853032387, 2.5112011623912283,0.6366770291231186, -0.28599531356685187, -0.1390201037872391, 0.42641040562812255, -0.0006639822054080655, 0.5582975703398984,1.0,-8789.039274564375, -2842.9805188461487, 21693.55811700313, -76.94895826720847, 222.17461445423777, 38.14517404552785,1.0,769
475.79699999999997,0.9497296460637641, -1.5244337463939654, -1.5106306538182022, -1.6792325299640982, 1.571876138926798, 2.5142990842891373,0.6250492891384343, -0.27923588403583743, -0.16669823146827345, 0.4473124005745437, -0.0006410927130134189, 0.5508753145059094,1.0,-8788.284542730189, -2845.0099816253005, 21692.832666121994, -76.89424864791675, 222.2181319204895, 38.165212223127554,1.0,769
475.805,0.9532019881622373, -1.525980040217119, -1.5116567984083682, -1.676652405646685, 1.5718726127349596, 2.517368568798547,0.6101372290712795, -0.27078930127735623, -0.1990488611079712, 0.47119413264179016, -0.0006130233099951142, 0.5410739140569745,1.0,-8787.194727834227, -2846.3698392785836, 21692.47432846396, -76.85858772631957, 222.26114469288206, 38.162237082162534,1.0,769
475.813,0.9566260593322011, -1.5274941855273179, -1.512889754699203, -1.6738976606119191, 1.571869212750434, 2.5204157355357864,0.592210366766729, -0.2608910645103964, -0.23429489648812252, 0.49651406888945476, -0.0005807650164108102, 0.5289632100052913,1.0,-8787.283991945173, -2844.0669321117957, 21691.565257577713, -76.93568184582799, 222.24221302893534, 38.15266654754606,1.0,769
475.82099999999997,0.9600035190494862, -1.5289761972860578, -1.5143551498526273, -1.670942641590516, 1.5718659447712178, 2.523444413032599,0.5717110967540957, -0.24984392769608732, -0.2707876765101837, 0.5219267695154131, -0.0005454414807578376, 0.514772394023449,1.0,-8788.235790916777, -2843.5166671521, 21691.08631505864, -76.93845882234271, 222.18529033956338, 38.162981926028095,1.0,769
475.82899999999995,0.9633341676871717, -1.530425646245675, -1.5160729077962447, -1.6677678483301754, 1.5718628143244195, 2.5264563250443324,0.5492096541716376, -0.23799087114683867, -0.3071334274183541, 0.5463822526275216, -0.0005082138132729816, 0.49886304183622276,1.0,-8787.549899157157, -2845.5382351332273, 21690.99560236751, -76.87867881234658, 222.2311866769041, 38.14722007077776,1.0,769
475.837,0.9666161270811792, -1.5318417128905146, -1.518057605409422, -1.6643595229843013, 1.5718598266200834, 2.529451276858121,0.5253296123751411, -0.2256780436537478, -0.3422655664347611, 0.569161102775074, -0.0004701737574919966, 0.4816720035791913,1.0,-8786.897225080282, -2843.563260315709, 21691.22663326907, -76.96694965679694, 222.23694008726017, 38.1574486526159,1.0,769
475.84499999999997,0.969846021095865, -1.5332232413780966, -1.5203188287093656, -1.6607092395007355, 1.5718569865050138, 2.5324273416010756,0.5006717739425457, -0.21322042905920002, -0.375457995291164, 0.58985327341493, -0.00043225731189733973, 0.46364754520679097,1.0,-8786.581848197824, -2845.1087841187446, 21691.194440465555, -76.90801607682192, 222.23778108507838, 38.15291531264239,1.0,769
475.85299999999995,0.9730191561896143, -1.5345687934802852, -1.5228615290372005, -1.65681349301048, 1.5718542984166, 2.535381046548465,0.47575675543817375, -0.20087861130620746, -0.40629128384688906, 0.6083009040655711, -0.00039519634362439093, 0.4451971920144338,1.0,-8787.803915779597, -2844.433184616769, 21690.929386000003, -76.93625987499772, 222.2118849879251, 38.18096085481355,1.0,769
475.861,0.9761297019804336, -1.535876702524451, -1.5256863792440525, -1.6526732892164278, 1.5718517663366407, 2.5383075594319062,0.4509940755145171, -0.18884892288055807, -0.4345920248504501, 0.6245277405396397, -0.0003595089823876354, 0.4266558005744078,1.0,-8786.940378863033, -2845.708295607801, 21691.680248581586, -76.87694828610537, 222.2274810865332, 38.16141019587536,1.0,769
475.86899999999997,0.9791708718115444, -1.5371451273346448, -1.5287901298771196, -1.6482937337820847, 1.5718493937451683, 2.5412008747475467,0.42667527783657966, -0.17726471585975428, -0.46036477983904617, 0.6386723178067383, -0.0003255187467353244, 0.40827351344766294,1.0,-8787.082303023246, -2844.761646053579, 21691.569061478534, -76.90464926545405, 222.25411970614374, 38.16295306387593,1.0,769
475.87699999999995,0.9821351033169761, -1.5383721061727575, -1.532165965365758, -1.6436836217203012, 1.571847183574273, 2.544054000064254,0.4029835858085409, -0.1662046103283343, -0.48372992231055295, 0.6509340542759553, -0.00029338921449574963, 0.39021838788370766,1.0,-8787.643370677903, -2845.1001956209275, 21691.54590769635, -76.89709610415258, 222.22603155159806, 38.14953443529802,1.0,769
475.885,0.9850142389871595, -1.5395556106796917, -1.5358038602075572, -1.6388550267819975, 1.5718451381619283, 2.5468591423317997,0.38001208866225916, -0.15570376728072202, -0.5048737802872587, 0.661534691592889, -0.00026316313765516354, 0.3725874365405454,1.0,-8787.302514528985, -2844.7097079289106, 21691.423846589172, -76.90769235574922, 222.23001266329857, 38.14984508773557,1.0,769
475.893,0.98779970673452, -1.5406935998165272, -1.5396909351544181, -1.6338228908448889, 1.571843259205814, 2.549607894189046,0.3577843450011317, -0.14576538611443945, -0.5240123215366249, 0.6706935106965887, -0.00023479891293108436, 0.35542096328125033,1.0,-8786.515591919097, -2843.8526304121215, 21691.866468515836, -76.91654261975603, 222.23473712396589, 38.15046457518318,1.0,769
475.90099999999995,0.9904827004590707, -1.5417840738056903, -1.5438118133986318, -1.6286046133022154, 1.5718415477171424, 2.55229142027213,0.3362737187559463, -0.13637088297752473, -0.5413667652999317, 0.6786131559635823, -0.0002082010406218459, 0.3387168950379341,1.0,-8786.545050280843, -2844.044926510206, 21692.286749386545, -76.94123787346211, 222.2327185412001, 38.15143117584847,1.0,769
475.909,0.9930543606140056, -1.5428251280721152, -1.5481489767589611, -1.6232196404514658, 1.5718400039744806, 2.554900643522654,0.3154197653976648, -0.12748816272635374, -0.5571484420680959, 0.6854727973937641, -0.00018324377567826934, 0.32244342746770416,1.0,-8786.066621445532, -2844.645801394645, 21692.683830492242, -76.89640631338676, 222.25816558945934, 38.16330493959228,1.0,769
475.917,0.9955059547712931, -1.5438150071844188, -1.552683121866714, -1.6176890548831073, 1.5718386274775775, 2.557426431495866,0.2951412971817336, -0.1190779800432823, -0.571550214514787, 0.6914259379370695, -0.00015978859118203327, 0.30654942255735174,1.0,-8786.357146425282, -2844.3554635564496, 21693.291009633744, -76.90856479682705, 222.2595830698968, 38.14759937949387,1.0,769
475.92499999999995,0.9978290581872684, -1.5447521587960598, -1.55739351635183, -1.6120351648693116, 1.5718374169011862, 2.5598597826688514,0.275346466021966, -0.11109867065279219, -0.5847422286314332, 0.6966009160205204, -0.00013769665928066473, 0.2909726446292563,1.0,-8787.425810244125, -2842.2595288901366, 21692.128611100037, -76.9634455911611, 222.23524197718797, 38.15493192484644,1.0,769
475.933,1.000015734368228, -1.545635287586511, -1.5622583550289475, -1.6062810937526795, 1.5718363700488889, 2.5621920127487137,0.25594050570977683, -0.10350962976532957, -0.5968703321749921, 0.7011028183973523, -0.00011683765360446246, 0.2756462316746495,1.0,-8786.123295495501, -2843.1206491523317, 21692.238535973018, -76.94268948505726, 222.24156437321574, 38.17582439284939,1.0,769
475.941,1.002058715636022, -1.546463409202425, -1.5672551160834942, -1.600450369334971, 1.5718354838069224, 2.564414940980764,0.2368318473099978, -0.09627391035844761, -0.6080560123540145, 0.7050160290343445, -9.709604397572106e-05, 0.2605039068827272,1.0,-8787.604367756763, -2841.889836249772, 21692.521427344873, -76.98892892635544, 222.19521079445036, 38.15802866976111,1.0,769
475.94899999999996,1.0039515836936472, -1.5472359041988017, -1.5723609172577566, -1.594566513265831, 1.5718347540980016, 2.566521076456707,0.21793728383980426, -0.08936026599388228, -0.6183971128944248, 0.7084070000936372, -7.83758405058025e-05, 0.245484439452753,1.0,-8786.04826140577, -2845.4646801125227, 21693.666664751192, -76.87206704351664, 222.2682330827056, 38.15354389974803,1.0,769
475.957,1.0056889501908413, -1.5479525719801526, -1.5775528720369643, -1.5886526304315147, 1.571834175835144, 2.568503804422824,0.1991867826134233, -0.08274490272118888, -0.6279688934350055, 0.71132707364571, -6.0604525324439024e-05, 0.230535824134798,1.0,-8786.12698715867, -2843.9305919401822, 21693.82156382623, -76.92383866842908, 222.26597933797103, 38.17118455639729,1.0,769
475.965,1.007266637289675, -1.548613684741671, -1.5828084458353668, -1.5827309983436182, 1.571833742875494, 2.570357572588163,0.18052845855211308, -0.07641314573357016, -0.6368252129434835, 0.7138153424860388, -4.373671400413575e-05, 0.21561959532942274,1.0,-8786.138006969664, -2843.7459698486327, 21694.086520378216, -76.93286483889949, 222.27026659539837, 38.15707704022029,1.0,769
475.97299999999996,1.008681858230146, -1.5492200414103978, -1.5881058121823113, -1.576822656527801, 1.571833447974149, 2.572078077432721,0.1619341378048622, -0.07036117170114682, -0.6449997774792727, 0.7159016421878296, -2.7757916713356306e-05, 0.20071563348228064,1.0,-8787.247062015824, -2842.048121251936, 21693.445881804284, -76.95522523281338, 222.23233619488747, 38.16183347905039,1.0,769
475.981,1.0099333978957719, -1.5497730215863879, -1.5934242089083206, -1.5709469959125153, 1.5718332827379808, 2.573662450515633,0.1434058513712853, -0.06459790396508107, -0.6525075097224633, 0.717609829716351, -1.2688609482406218e-05, 0.18582775488353107,1.0,-8786.583623210016, -2843.1551037586687, 21693.849633883547, -76.92938962125857, 222.2484900142847, 38.15092298457378,1.0,769
475.989,1.0110217933791832, -1.55027463948388, -1.5987442943311763, -1.5651213482177333, 1.5718332375794632, 2.575109444783356,0.12498348606513407, -0.05914710852553331, -0.6593461826648994, 0.7189615294411648, 1.4113389455383264e-06, 0.1709902872999803,1.0,-8786.06513794095, -2842.534449456888, 21694.151484465652, -76.95985879993898, 222.26976448033986, 38.168075879142094,1.0,769
475.99699999999996,1.011949514547717, -1.5507275978724593, -1.60404850344199, -1.559360575343673, 1.5718333016704946, 2.5764196208778554,0.10675366108369727, -0.05404965573516444, -0.6654985106894858, 0.7199805048691233, 1.4438028429418246e-05, 0.15627570262251014,1.0,-8785.940335258158, -2842.783099129897, 21694.789673025447, -76.96386426815192, 222.29420709459885, 38.160066293809734,1.0,769
476.005,1.0127211446090103, -1.5511353420182257, -1.6093214040912889, -1.5536766587595263, 1.571833462896223, 2.5775955334447933,0.08885966464437516, -0.04936581715011378, -0.6709348927579476, 0.7206977199625467, 2.6239051000692338e-05, 0.14180317883803104,1.0,-8787.161980567475, -2843.0654260756246, 21694.319191640676, -76.9362684483743, 222.2508521983384, 38.15901800022837,1.0,769
476.013,1.0133435606765921, -1.5515021136249647, -1.6145500531750914, -1.5480782888921825, 1.57183370780887, 2.5786419174417103,0.07151194919127717, -0.04517734173466648, -0.6756169262297202, 0.7211569517252546, 3.660983269071581e-05, 0.12774767139410814,1.0,-8786.425859805231, -2843.7386119453513, 21694.761062491576, -76.92848240297738, 222.27162161014297, 38.17131119873616,1.0,769
476.02099999999996,1.0138261143354783, -1.5518330047753102, -1.6197243528209846, -1.5425704545149603, 1.5718340215815565, 2.579565874446215,0.05499822579899794, -0.04158889695065768, -0.6795016193261919, 0.7214204655496743, 4.529178255570097e-05, 0.11434866845406833,1.0,-8787.560166853134, -2842.7111705727675, 21694.164638872207, -76.95242006356781, 222.2324293901275, 38.164517043846786,1.0,769
476.029,1.0141808122077638, -1.552134011871912, -1.6248374065742057, -1.5371540321363328, 1.5718343879621253, 2.580377058964169,0.039691615595684474, -0.03872827146944277, -0.6825458955715507, 0.7215737400247689, 5.197360612638868e-05, 0.10191728059674074,1.0,-8786.520890732465, -2843.8302190639333, 21694.223245703437, -76.9291803906666, 222.2600467258997, 38.15962350476306,1.0,769
476.037,1.0144224965182154, -1.5524120895786062, -1.6298858755837173, -1.5318253753886504, 1.5718347892269675, 2.581087864737872,0.026054630894560678, -0.0367445311486243, -0.6847105124609738, 0.7217275501609153, 5.6297511361942604e-05, 0.09083969360560663,1.0,-8787.476380062011, -2842.9569490187523, 21694.448591378998, -76.95621790634576, 222.226964344941, 38.16224656589418,1.0,769
476.04499999999996,1.0145690256598665, -1.5526752047615755, -1.634870334788289, -1.526575904416875, 1.5718352061348457, 2.58171361105425,0.014636025959783677, -0.03580312739740034, -0.685962003173193, 0.7220150103644517, 5.78723581284069e-05, 0.08157434936609138,1.0,-8786.047479612662, -2845.410951590169, 21694.338082534545, -76.87756369898028, 222.2868415380268, 38.16197697472083,1.0,769
476.053,1.0146414547596088, -1.5529323904305237, -1.639795629102573, -1.5213916952672992, 1.571835617880719, 2.582272729053038,0.006056872264430075, -0.036076829096310596, -0.6862709305565948, 0.7225807294504162, 5.629600085754037e-05, 0.07463961971619423,1.0,-8787.539129567665, -2843.379943601085, 21694.356362660023, -76.95775555767872, 222.2214651993221, 38.166739442715595,1.0,769
476.061,1.0146642162437862, -1.5531937996798382, -1.6446712296031878, -1.5162530692762797, 1.5718360020495663, 2.5827869480349697,0.000981743791233465, -0.03773137889260628, -0.6856050237336327, 0.7235595399144332, 5.11890077941365e-05, 0.07058838598307242,1.0,-8786.601201876803, -2844.946507311385, 21694.26773183109, -76.9035442768361, 222.24732716539535, 38.16000915595822,1.0,769
476.06899999999996,1.0146651158701592, -1.5534706869921493, -1.649511470970011, -1.5111343742527215, 1.5718363347274014, 2.5832813134340347,-0.00012814720373074858, -0.04083735939473737, -0.6839623273298288, 0.7250210156149169, 4.2417274518252704e-05, 0.0698022461458989,1.0,-8786.538437709318, -2844.8001014105075, 21693.71629053479, -76.90251829827787, 222.24691249303345, 38.16553699717443,1.0,769
476.077,1.0146642350200419, -1.5537710566846021, -1.6543283204154466, -1.5060155926737435, 1.5718365993428545, 2.5837740541188503,-0.00012165684273780303, -0.044347812841653914, -0.6820408998810129, 0.7266104744567302, 3.261413785644349e-05, 0.069933432143401,1.0,-8787.62524180448, -2846.010967690905, 21693.58481014726, -76.87576090131361, 222.2067210111823, 38.15608617566966,1.0,769
476.085,1.014663401264039, -1.554095657456691, -1.6591230020829837, -1.5008947475499017, 1.5718367943105085, 2.584266833876653,-0.00011521280990540036, -0.047873004769702625, -0.6800982913850131, 0.7281934835343122, 2.2764522913844486e-05, 0.07006230238476366,1.0,-8787.518730629981, -2846.375053765518, 21693.64224053018, -76.85839461881545, 222.22131840702514, 38.16231883996426,1.0,769
476.09299999999996,1.0146626140862243, -1.5544445176294177, -1.6638955989137676, -1.4957717276203368, 1.5718369195566038, 2.584759652114926,-0.00010881491068277514, -0.05141281035213828, -0.6781343955084316, 0.7297698116602698, 1.2868873340317919e-05, 0.0701888491368171,1.0,-8787.861234961003, -2845.548676559526, 21693.760956141876, -76.9008416896196, 222.19883064051595, 38.16564933740196,1.0,769
476.101,1.0146618729760384, -1.554817666853543, -1.6686461910372508, -1.4906464231061323, 1.571836975004238, 2.585252508240972,-0.00010246340971051635, -0.05496709901185208, -0.6761491093250893, 0.7313392253040375, 2.9276504077710737e-06, 0.07031306428736044,1.0,-8787.52056625343, -2845.414857810466, 21693.110075628563, -76.8887879243143, 222.22270437946298, 38.16952948361981,1.0,769
476.109,1.0146611774280632, -1.5552151360762902, -1.673374855816241, -1.485518725698551, 1.5718369605734643, 2.585745401661658,-9.6158569431614e-05, -0.05853573455088302, -0.6741423333164732, 0.7329014887220199, -7.058664832974554e-06, 0.0704349397952565,1.0,-8786.472182417241, -2846.5164028233085, 21693.13994800995, -76.86424728532032, 222.2462804121871, 38.16708755444006,1.0,769
476.11699999999996,1.014660526941923, -1.5556369575084616, -1.6780816678907264, -1.4803885285481027, 1.571836876181404, 2.5862383317833015,-8.990064887122268e-05, -0.06211857512091615, -0.6721139714821561, 0.7344563640384599, -1.708957414968318e-05, 0.0705544677015959,1.0,-8785.934256373108, -2847.406102385141, 21693.690085635622, -76.8531220332384, 222.27748384435142, 38.16772223816406,1.0,769
476.125,1.0146599210222023, -1.5560831645918123, -1.6827666992204993, -1.4752557262545434, 1.5718367217423506, 2.58673129801158,-8.368990362532781e-05, -0.06571547319687757, -0.6700639314494045, 0.7360036113298809, -2.7164560122742892e-05, 0.0706716401432588,1.0,-8786.847889869958, -2845.515831622529, 21693.4459392957, -76.88451594174157, 222.22259398206887, 38.1655379711037,1.0,769
476.133,1.0146593591783544, -1.5565537919667314, -1.6874300191265714, -1.4701202148577819, 1.5718364971678758, 2.5872242997514165,-7.752658651657374e-05, -0.06932627555551844, -0.6679921245829965, 0.737542988711226, -3.728308546523463e-05, 0.07078644937561875,1.0,-8786.489588708828, -2846.4120180139853, 21693.853135992013, -76.86977975006852, 222.2575040620946, 38.163824476502185,1.0,769
476.14099999999996,1.0146588409246253, -1.5570488754401408, -1.6920716943314487, -1.4649818918297024, 1.571836202366936, 2.5877173364068793,-7.141094509149516e-05, -0.07295082325497305, -0.6658984660950258, 0.7390742524268354, -4.744459484787317e-05, 0.07089888777629019,1.0,-8787.624375059762, -2845.706063074981, 21693.533684713264, -76.88612107981791, 222.20301952734616, 38.15717990446953,1.0,769
476.149,1.0146583657799677, -1.5575684519536317, -1.6966917889983026, -1.4598406560668558, 1.5718358372459789, 2.588210407381078,-6.534322443296055e-05, -0.07658895161793404, -0.6637828751538368, 0.7405971569431545, -5.764851331750988e-05, 0.07100894786715295,1.0,-8787.03930016206, -2846.0195608780296, 21693.54501922353, -76.87209126470137, 222.2307875593337, 38.165593949132415,1.0,769
476.157,1.0146579332679644, -1.5581125595517982, -1.7012903647690685, -1.4546964078840308, 1.571835401709051, 2.5887035120760715,-5.9323665531628554e-05, -0.08024049022280333, -0.6616452749912525, 0.7421114550457261, -6.789424616386888e-05, 0.07111662232940641,1.0,-8787.809013401014, -2845.411194155906, 21693.37475962783, -76.88679369565835, 222.19483301235226, 38.16847733273866,1.0,769
476.16499999999996,1.0146575429167528, -1.5586812373507444, -1.7058674808015262, -1.4495490490086675, 1.5718348956579025, 2.589196649892754,-5.335250423462484e-05, -0.08390526289068173, -0.6594855930130075, 0.743616897936892, -7.818117946187477e-05, 0.0712219040145297,1.0,-8786.76290517372, -2846.8531827679935, 21693.76033292519, -76.85354284858005, 222.24876563415063, 38.16483858114523,1.0,769
476.173,1.0146571942589502, -1.559274525506746, -1.7104231938053776, -1.444398482576112, 1.5718343189920976, 2.589689820230779,-4.742997364613927e-05, -0.08758308768400952, -0.6573037609026731, 0.7451132353398912, -8.850867880205706e-05, 0.07132478596440504,1.0,-8785.87833229248, -2847.0570785180826, 21693.591060252034, -76.84880335587005, 222.24428709542167, 38.16695149644238,1.0,769
476.181,1.0146568868315824, -1.5598924651850483, -1.7149575580773728, -1.439244613125699, 1.5718336716091224, 2.590183022488442,-4.155630153705162e-05, -0.09127377690345367, -0.6550997147302505, 0.7466002156020388, -9.887609039225829e-05, 0.07142526142552637,1.0,-8787.137892175115, -2846.9037203836933, 21693.284220828544, -76.86715399429352, 222.2256735138534, 38.1682884466629,1.0,769
476.18899999999996,1.0146566201760143, -1.5605350985287716, -1.719470625535525, -1.4340873465976252, 1.571832953404489, 2.5906762560625967,-3.573171111445038e-05, -0.09497713709107723, -0.6528733950558472, 0.7480775858041665, -0.00010928273999268375, 0.0715233238613232,1.0,-8786.86774546869, -2846.154586993165, 21693.385344098366, -76.87654477374122, 222.22560597651125, 38.16602751986974,1.0,769
476.197,1.014656393837883, -1.561202468627915, -1.7239624457524139, -1.4289265903306498, 1.5718321642718518, 2.591169520348572,-2.9956421100185963e-05, -0.09869296903920347, -0.6506247470331237, 0.7495450918708308, -0.00011972793393509567, 0.07161896697448943,1.0,-8787.811194920718, -2844.8778971111815, 21693.150256327768, -76.91993473748005, 222.2056118118378, 38.169354809886926,1.0,769
476.205,1.0146562073670287, -1.5618946194884256, -1.728433065987658, -1.423762253060544, 1.5718313041031107, 2.591662814740056,-2.4230645969685376e-05, -0.10242106780078286, -0.6483537205124267, 0.7510024786843522, -0.00013021095695901, 0.07171218471210608,1.0,-8786.380959974458, -2846.8947539664923, 21693.159661516438, -76.85566308286096, 222.26146161109278, 38.16570293248003,1.0,769
476.21299999999997,1.0146560603174362, -1.5626115960013278, -1.7328825312195448, -1.4185942449193396, 1.5718303727885266, 2.5921561386290293,-1.8554593975078966e-05, -0.10616122270349718, -0.6460602701408793, 0.7524494902008199, -0.00014073107474515915, 0.07180297129374698,1.0,-8787.06649456761, -2845.39180534335, 21693.643407130618, -76.90546574402333, 222.23021122665807, 38.17155276380663,1.0,769
476.221,1.0146559522471714, -1.5633534439118781, -1.737310884175879, -1.4134224774353186, 1.5718293702168273, 2.5926494914056604,-1.2928468392728658e-05, -0.10991321737217204, -0.6437443554616684, 0.7538858695696128, -0.00015128753215485168, 0.07189132121713158,1.0,-8786.815154114602, -2846.254489290187, 21694.20076061247, -76.87119275228403, 222.2242313329141, 38.16812240899256,1.0,769
476.229,1.0146558827183194, -1.5641202097887508, -1.7417181653640492, -1.4082468635337673, 1.5718282962753256, 2.5931428724582255,-7.352468420627274e-06, -0.11367682975399629, -0.6414059410104433, 0.7553113592552214, -0.00016187955197754828, 0.07197722927822674,1.0,-8786.055976287456, -2847.188586796544, 21694.292076713013, -76.84402707531368, 222.28742997886644, 38.1689910761759,1.0,769
476.23699999999997,1.0146558512969266, -1.56491194099321, -1.7461044131003716, -1.403067317538457, 1.5718271508500294, 2.5936362811730214,-1.8267860453296575e-06, -0.11745183214446947, -0.6390449964111479, 0.7567257011610949, -0.0001725063386601771, 0.07206069058965855,1.0,-8787.7876396735, -2845.846646952171, 21693.806652081654, -76.88593972902146, 222.20848089530182, 38.17371019196176,1.0,769
476.245,1.014655857552949, -1.5657286856482688, -1.7504696635387216, -1.3978837551738517, 1.571825933825752, 2.594129716934279,3.648390810577642e-06, -0.1212379912251915, -0.6366614964678868, 0.7581286367575178, -0.00018316707480780766, 0.07214170058746176,1.0,-8787.420930014601, -2845.9286104739413, 21693.62091817501, -76.8872436560745, 222.23031789798245, 38.16395261176734,1.0,769
476.253,1.01465590106019, -1.5665704926078163, -1.7548139506984732, -1.392696093568043, 1.5718246450862332, 2.594623179124081,9.072882076053093e-06, -0.12503506809914383, -0.6342554212567483, 0.7595199072089627, -0.00019386092321112576, 0.07222025505896024,1.0,-8788.002123637096, -2844.3966903980318, 21693.168856994787, -76.91807315040151, 222.1875624888055, 38.16642164134447,1.0,769
476.26099999999997,1.0146559813962548, -1.5674374114256882, -1.7591373064917963, -1.3875042512563862, 1.5718232845142512, 2.5951166671222796,1.4446511675650133e-05, -0.12884281833749295, -0.6318267562119116, 0.7608992535075165, -0.00020458702459267468, 0.07229635014810366,1.0,-8786.124601814001, -2846.417815254774, 21693.403198844946, -76.85833809115263, 222.2575202330312, 38.16876234284362,1.0,769
476.269,1.014656098142491, -1.5683294923246818, -1.7634397607503027, -1.3823081481858326, 1.5718218519917413, 2.5956101803064144,1.976911078178585e-05, -0.132660992025534, -0.6293754922119321, 0.7622664166056866, -0.00021534450011582957, 0.072369982374212,1.0,-8786.826751620596, -2844.5882918682482, 21693.600952337554, -76.91581572104576, 222.20470389934792, 38.17389436193352,1.0,769
476.277,1.0146562508839454, -1.5692467861654755, -1.767721341251101, -1.3771077057199568, 1.571820347399914, 2.5961037180516375,2.5040517253827428e-05, -0.13648933381782136, -0.6269016256617791, 0.7636211375515861, -0.00022613245025517422, 0.07244114865250977,1.0,-8786.053515320767, -2846.4601492055754, 21693.996144552464, -76.8622854833059, 222.24680613937306, 38.16959922122555,1.0,769
476.28499999999997,1.014656439209313, -1.570189344415465, -1.7719820737422625, -1.3719028466446588, 1.5718187706193723, 2.596597279730627,3.0260574252766793e-05, -0.14032758299608614, -0.6244051585716048, 0.7649631576278917, -0.00023694995389200065, 0.07250984630122972,1.0,-8786.350615373105, -2846.036187368619, 21693.69873851321, -76.87589880464878, 222.2591730993817, 38.163625721491,1.0,769
476.293,1.0146566627108875, -1.5711572191174845, -1.7762219819677174, -1.3666934951745429, 1.571817121530237, 2.5970908647135222,3.542913325430126e-05, -0.14417547353189375, -0.6218860986332666, 0.7662922184904718, -0.000247796071156876, 0.0725760730639517,1.0,-8788.003164911213, -2844.1550934492243, 21693.605912048468, -76.93696640063774, 222.18184601770957, 38.1688585054398,1.0,769
476.301,1.0146569209845202, -1.5721504628583958, -1.7804410876916315, -1.3614795769599493, 1.571815400012263, 2.59758447236784,4.054605152853071e-05, -0.1480327341559896, -0.6193444592929381, 0.767608062309961, -0.0002586698400035465, 0.07263982712065596,1.0,-8787.439476095793, -2845.423651622842, 21693.572976180516, -76.89182878012954, 222.20424817649456, 38.15824460274939,1.0,769
476.30899999999997,1.0146572136295724, -1.573169128737553, -1.784639410722244, -1.3562610190946556, 1.5718136059449659, 2.5980781020584005,4.5611193165149804e-05, -0.15189908843470318, -0.6167802598188292, 0.7689104319151266, -0.00026957027855203637, 0.07270110710368302,1.0,-8787.15022872758, -2846.113292049924, 21693.611651461662, -76.87289567568288, 222.23523582887577, 38.16707297161756,1.0,769
476.31699999999995,1.0146575402488758, -1.5742132703351093, -1.7888169689352278, -1.351037750124208, 1.5718117392077435, 2.598571753147268,5.062443090856952e-05, -0.15577425484324628, -0.6141935253688465, 0.7701990709361684, -0.00028049638487865535, 0.0727599121153092,1.0,-8787.757851389235, -2845.064078866517, 21694.486257865872, -76.91507381835501, 222.18446541260977, 38.17009995270834,1.0,769
476.325,1.0146579004486824, -1.575282941680161, -1.7929737782965622, -1.3458097000549047, 1.5718097996800091, 2.5990654249936584,5.558564246457866e-05, -0.1596579468559178, -0.611584287049742, 0.7714737239516403, -0.00029144713553778143, 0.07281624173633075,1.0,-8787.245196083944, -2845.9718170221613, 21694.22257933482, -76.88614553007099, 222.2483718709354, 38.16684912024405,1.0,769
476.33299999999997,1.0146582938386361, -1.5763781972187125, -1.7971098528849616, -1.3405768003634044, 1.5718077872413103, 2.5995591169538916,6.04947158285776e-05, -0.1635498730311324, -0.6089525819758965, 0.7727341366341662, -0.00030242148854626923, 0.07287009604955813,1.0,-8786.545505022345, -2846.0419056110204, 21693.870848095863, -76.86982360563897, 222.26007030718512, 38.16349518545263,1.0,769
476.34099999999995,1.0146587200317265, -1.5774990917814558, -1.801225204913865, -1.335338984006948, 1.571805701771461, 2.600052828381311,6.53515451797166e-05, -0.16744973710778283, -0.6062984533218084, 0.7739800558991566, -0.00031341838210710213, 0.07292147564708978,1.0,-8787.02232112007, -2845.641829079649, 21694.137519480937, -76.90721993968447, 222.2267268929034, 38.16980576667956,1.0,769
476.349,1.0146591786442494, -1.5786456805513573, -1.8053198447530079, -1.330096185434213, 1.5718035431506752, 2.60054655862622,7.015603261602834e-05, -0.17135723810524126, -0.6036219503716592, 0.7752112300529055, -0.00032443673275035274, 0.07297038164390089,1.0,-8787.443231536376, -2845.9157012857613, 21693.40291719022, -76.88547184100634, 222.2063148970306, 38.16148168112886,1.0,769
476.35699999999997,1.0146596692957768, -1.5798180190310216, -1.8093937809495984, -1.3248483405967617, 1.5718013112596911, 2.601040307035827,7.490808916669059e-05, -0.1752720704284284, -0.6009231285624805, 0.7764274089419534, -0.000335475439796263, 0.07301681570093846,1.0,-8787.45501450765, -2845.9647541680924, 21693.720903285317, -76.89138593366968, 222.21708783647824, 38.160607544242964,1.0,769
476.36499999999995,1.0146601916091138, -1.5810161630098465, -1.8134470202491197, -1.3195953869610921, 1.571799005979915, 2.6015340729541654,7.960763192349007e-05, -0.17919392397794337, -0.5982020495244079, 0.7776283441037121, -0.0003465333800330515, 0.07306078002557326,1.0,-8787.140433388224, -2846.5078790599964, 21693.893460353094, -76.86905969349613, 222.23308777468026, 38.15958170641446,1.0,769
476.373,1.0146607452102696, -1.5822401685309373, -1.8174795676157638, -1.3143372635212849, 1.5717966271935497, 2.602027855722051,8.425458916047282e-05, -0.18312248426314376, -0.5954587811165071, 0.778813788915388, -0.00035760941443816315, 0.07310227739589661,1.0,-8787.861068139067, -2845.5837651302973, 21694.076689860933, -76.89108162361106, 222.20625394262885, 38.1699265672452,1.0,769
476.381,1.01466132972842, -1.5834900918577874, -1.8214914262525301, -1.3090739108122227, 1.5717941747837338, 2.602521654677017,8.884889584568642e-05, -0.18705743252587484, -0.5926933974549623, 0.779983498745372, -0.0003687023824821894, 0.0731413111687036,1.0,-8786.728762122175, -2846.4462525327326, 21693.861120897363, -76.87676876064273, 222.23925806401724, 38.157722496232935,1.0,769
476.38899999999995,1.0146619447958785, -1.5847659894407036, -1.8254825976209936, -1.303805270923406, 1.571791648634679, 2.603015469153241,9.339049659476524e-05, -0.19099844586390544, -0.5899059789390451, 0.7811372311031106, -0.0003798111063736072, 0.07317788529223716,1.0,-8787.769214623959, -2844.8418047777877, 21693.61236870818, -76.91389841794211, 222.19104417705586, 38.162322994879815,1.0,769
476.397,1.0146625856156806, -1.5860591163267648, -1.8294265725843024, -1.298566608414057, 1.5717890663115057, 2.6035059929367446,9.784538004748871e-05, -0.19491874868478803, -0.5871154874718273, 0.7822671878739673, -0.00039084992202370784, 0.0732118174904175,1.0,-8787.097778872689, -2845.7832469952646, 21693.383869838774, -76.88261688032381, 222.2356530843682, 38.15255818162376,1.0,769
476.405,1.0146632316030821, -1.5873308014760124, -1.8332114330583211, -1.2935085572018377, 1.571786506398025, 2.6039791460720454,0.00010209873740488422, -0.19870518874895227, -0.5844034601552742, 0.7833417188635773, -0.0004015190621824251, 0.07324222531390692,1.0,-8785.782599667355, -2847.6401995909064, 21695.815419236955, -76.83389731151865, 222.27958764188355, 38.161936255204665,1.0,769
476.41299999999995,1.0146638771725716, -1.5885740915813926, -1.8368267310055186, -1.2886485237346115, 1.5717839851251787, 2.6044333473343175,0.0001061360037018956, -0.20234426977899728, -0.5817813366808117, 0.7843587834174588, -0.0004117710582670558, 0.07326930348461624,1.0,-8787.164677397212, -2846.8098883156235, 21696.099710452556, -76.85792352311265, 222.24937049995674, 38.15775088303229,1.0,769
476.421,1.014664518939048, -1.5897862585149474, -1.8402746550782298, -1.2839870475090631, 1.571781510260325, 2.60486859479121,0.00010996277695074646, -0.2058352055969152, -0.5792514993710466, 0.7853199785128582, -0.0004216037017961722, 0.0732933156593446,1.0,-8788.084673575602, -2845.026724359782, 21695.835006514742, -76.90676582765553, 222.19726561873597, 38.165704350157114,1.0,769
476.429,1.0146651537147897, -1.590964679403946, -1.8435573023778327, -1.2795246543165177, 1.5717790892643266, 2.6052848866926053,0.00011358443172554724, -0.20917729231298338, -0.5768162187310778, 0.7862268715628953, -0.00043101505715034926, 0.07331451388647275,1.0,-8786.630288013768, -2846.912786736646, 21696.17706471544, -76.84157694534187, 222.24287630514044, 38.15541851343488,1.0,769
476.43699999999995,1.014665778501746, -1.5921068377191112, -1.846676678768116, -1.275261854841382, 1.571776729289042, 2.6056822214582183,0.00011700611508387251, -0.21236990265938377, -0.5744776539358559, 0.7870809952379627, -0.00044000343938146866, 0.07333313858385779,1.0,-8787.708811192768, -2845.040432963101, 21695.853844882313, -76.90151970105234, 222.2082867676168, 38.16205591306576,1.0,769
476.445,1.0146663904843023, -1.5932103243252067, -1.8496346991083614, -1.2711991433774914, 1.5717744371749338, 2.60606059766562,0.00012023274719782314, -0.21541248040074742, -0.5722378535349641, 0.7878838425828354, -0.00044856739440733874, 0.07334941852243718,1.0,-8786.694199374338, -2846.400998235842, 21695.353889356975, -76.8616194809947, 222.25873831984933, 38.15566922099964,1.0,769
476.453,1.0146669870224714, -1.594272838490955, -1.8524331874160076, -1.2673369966555628, 1.5717722194488342, 2.6064200140386964,0.00012326901781347012, -0.21830453485818277, -0.5700987563401527, 0.7886368624264406, -0.0004567056788323174, 0.07336357084149481,1.0,-8786.523580544863, -2846.660023706687, 21695.376690215486, -76.86071150326413, 222.2608635549397, 38.16542036724039,1.0,769
476.46099999999996,1.0146675656455122, -1.595292188855728, -1.8550738769681256, -1.2636758727750426, 1.5717700823218423, 2.6067604694365465,0.00012611938595617685, -0.22104563556394496, -0.5680621924691982, 0.7893414550819552, -0.00046441724153867573, 0.07337580108487587,1.0,-8786.856690030636, -2845.643663673706, 21694.961751876945, -76.87413720645594, 222.23704145806545, 38.164665099947484,1.0,769
476.469,1.0146681240459539, -1.5962662943509383, -1.8575584103502667, -1.2602162102338967, 1.5717680316873774, 2.60708196284285,0.00012878808285011356, -0.22363540706951082, -0.566129884520289, 0.7899989683318579, -0.00047170120325977337, 0.07338630324592821,1.0,-8787.669931184537, -2845.2933071931293, 21694.815283975757, -76.89751765358562, 222.2214706441036, 38.15928852530874,1.0,769
476.477,1.0146686600740098, -1.5971931850745102, -1.8598883394605936, -1.256958427050022, 1.5717660731193603, 2.6073844933556947,0.00013127910689045294, -0.22607352394709937, -0.5643034488367924, 0.7906106936960009, -0.0004785568352785656, 0.07339525981779678,1.0,-8787.508325553237, -2844.7063525331196, 21694.67671160213, -76.92074138806998, 222.201214599293, 38.1615309546396,1.0,769
476.48499999999996,1.0146691717323744, -1.5980710031171412, -1.8620651254766951, -1.2539029199681968, 1.571764211870546, 2.6076680601778968,0.00013359623087632813, -0.22835970597814567, -0.562584396853587, 0.7911778629670156, -0.0004849835462398976, 0.07340284188240997,1.0,-8786.335058938459, -2846.56943476001, 21695.044406155168, -76.84956241790414, 222.2571067755262, 38.156393470046964,1.0,769
476.493,1.0146696571713845, -1.598898003339464, -1.8640901387918305, -1.2510500637466864, 1.5717624528709904, 2.6079326626078254,0.00013574300112937805, -0.23049371356543508, -0.5609741364837884, 0.7917016450163733, -0.0004909808577758287, 0.07340920918445128,1.0,-8787.033372706806, -2845.9691692535935, 21695.469137529242, -76.86430291992235, 222.23270885327213, 38.16386967823402,1.0,769
476.501,1.0146701146845343, -1.5996725540994614, -1.8659646589269094, -1.2484002105178718, 1.571760800726647, 2.608178300030721,0.00013772274204530767, -0.2324753433778084, -0.559473973532897, 0.7921831428544049, -0.0004965483867112084, 0.07341451021524809,1.0,-8786.35378242894, -2846.655118801292, 21695.498045737095, -76.83824353621944, 222.26421297042629, 38.16119332836681,1.0,769
476.50899999999996,1.0146705427043359, -1.6003931379297551, -1.8676898744239656, -1.2459536892175, 1.5717592597180998, 2.6084049719105518,0.00013953856138862532, -0.23430442423840545, -0.5580851131109061, 0.7926233909404248, -0.00050168582390191, 0.07341888231730923,1.0,-8787.4974834975, -2844.7332166130436, 21695.66210202467, -76.9002542969337, 222.205641552644, 38.16061245358483,1.0,769
476.517,1.0146709397985194, -1.6010583521646193, -1.8692668827264018, -1.2437108050774341, 1.571757833799406, 2.608612677782409,0.00014119336270965502, -0.23598081326338938, -0.5568086610289178, 0.793023352733695, -0.0005063929192650892, 0.07342245177320249,1.0,-8788.368870516722, -2843.09455876617, 21695.47627212314, -76.94347205526299, 222.1740201124353, 38.16382000929502,1.0,769
476.525,1.0146713046665508, -1.6016669095167293, -1.8706966900508437, -1.24167183917708, 1.5717565265970768, 2.6088014172454193,0.0001426898594246599, -0.23750439227780518, -0.5556456251517092, 0.7933839184750838, -0.0005106694443402747, 0.07342533391112996,1.0,-8785.433739423115, -2848.4127437275756, 21695.750035847734, -76.77690873147313, 222.28544082829433, 38.160273173415334,1.0,769
476.53299999999996,1.0146716361364774, -1.6022176386037916, -1.8719802112549866, -1.239837048048905, 1.5717553414091452, 2.6089711899562427,0.0001440306046527522, -0.23887506449071694, -0.5545969166913479, 0.7937059031983321, -0.0005145151732024227, 0.07342763320744423,1.0,-8787.77205004727, -2843.631638756595, 21695.938301472153, -76.96059417238015, 222.19672477194848, 38.16685393366433,1.0,769
476.541,1.014671933162073, -1.6027094844253318, -1.8731182697053814, -1.2382066633338873, 1.5717542812043617, 2.6091219956231217,0.00014521803945215277, -0.24009275145447978, -0.5536633514233703, 0.7939900449585259, -0.000517929822013075, 0.07342944339185453,1.0,-8786.473331001622, -2846.7921261549627, 21695.710167197783, -76.83855442282791, 222.2564915671215, 38.16306562638036,1.0,769
476.549,1.0146721948203028, -1.6031415087899568, -1.8741115971487465, -1.2367808914829492, 1.5717533486214779, 2.6092538340004987,0.00014625458917553818, -0.24115739028645625, -0.5528456507955473, 0.794237003287684, -0.0005209129757012958, 0.07343084756789821,1.0,-8787.494658285439, -2845.3397573582142, 21694.718706218908, -76.90013041974021, 222.21089671876553, 38.166983089997075,1.0,769
476.55699999999996,1.0146724203090747, -1.603512890693505, -1.8749608335899346, -1.2355599135008415, 1.5717525459686255, 2.6093667048842306,0.00014714286573662435, -0.24206893114579373, -0.5521444428966594, 0.7944473578870266, -0.0005234639237139408, 0.07343191835360828,1.0,-8787.14294987622, -2845.181756190501, 21694.86019754549, -76.89445551192293, 222.22720883471322, 38.16394704459151,1.0,769
476.565,1.0146726089452869, -1.603822926648487, -1.8756665271793267, -1.2345438847293329, 1.5717518752227946, 2.6094606081073786,0.00014788614343609467, -0.24282733490123198, -0.5515602631963982, 0.7946216076159439, -0.0005255813063164025, 0.07343271812562092,1.0,-8787.851185172844, -2845.3152087216804, 21694.841775540408, -76.89924154354452, 222.1911712579706, 38.16005453382897,1.0,769
476.573,1.0146727601631653, -1.604071030965212, -1.876229134112081, -1.2337329346668202, 1.571751338029389, 2.609535543536578,0.0001484896425879289, -0.243432570756012, -0.5510935548191253, 0.7947601699931478, -0.0005272621413060607, 0.07343329946190752,1.0,-8786.747738234035, -2845.4956954439576, 21695.223842340878, -76.8844347977302, 222.24076298849934, 38.16567888403563,1.0,769
476.58099999999996,1.0146728735128867, -1.6042567359850075, -1.8766490185412659, -1.233127166822002, 1.571750935701864, 2.6095915110690475,0.00014896500861713907, -0.24388461287367943, -0.550744667333053, 0.7948633821139459, -0.000528498501849531, 0.07343370670747293,1.0,-8786.617863949381, -2846.8205679254497, 21695.63928114176, -76.83607324925018, 222.22802567853165, 38.16376492758482,1.0,769
476.589,1.0146729486594848, -1.6043796922658782, -1.8769264525065497, -1.2327266585995194, 1.5717506692214418, 2.609628510630164,0.00014935321432877195, -0.2441834297097952, -0.5505138474830891, 0.7949315090263891, -0.000529260506289872, 0.0734339834033891,1.0,-8786.978871410936, -2846.0432925387413, 21695.844563900453, -76.88005026846591, 222.23288750716205, 38.165890602961696,1.0,769
476.597,1.0146729853820313, -1.6044396687208966, -1.8770616158798035, -1.2325314612159737, 1.5717505392369038, 2.609646542171664,0.0001500526670399511, -0.244328847930568, -0.5504010989522493, 0.7949648724267209, -0.0005292526290609533, 0.07343427894721119,1.0,-8787.371413877652, -2845.7659408689533, 21695.668265772823, -76.87943766863114, 222.21731113145296, 38.16293326542532,1.0,769
476.60499999999996,1.0146729893386028, -1.6044460766174682, -1.8770760503814827, -1.232510612630377, 1.5717505253720887, 2.609648468045577,0.0, 0.0, 0.0, 0.0, 0.0, 0.0,1.0,-8787.493524312007, -2844.765889091789, 21695.514830553795, -76.91311163905604, 222.2205388141973, 38.16593510549126,1.0,769
476.613,1.0146729893386028, -1.6044460766174682, -1.8770760503814827, -1.232510612630377, 1.5717505253720887, 2.609648468045577,0.0, 0.0, 0.0, 0.0, 0.0, 0.0,1.0,-8787.146413667882, -2845.227038226154, 21693.95550784034, -76.88568482310163, 222.2146514427347, 38.161616651817496,1.0,769
476.621,1.0146729893386028, -1.6044460766174682, -1.8770760503814827, -1.232510612630377, 1.5717505253720887, 2.609648468045577,0.0, 0.0, 0.0, 0.0, 0.0, 0.0,1.0,-8786.859228009671, -2846.528795007086, 21693.556542010923, -76.85679800252697, 222.23001352771104, 38.15945996231969,1.0,769
476.62899999999996,1.0146729893386028, -1.6044460766174682, -1.8770760503814827, -1.232510612630377, 1.5717505253720887, 2.609648468045577,0.0, 0.0, 0.0, 0.0, 0.0, 0.0,1.0,-8786.438198252139, -2845.9226621627167, 21693.105063967516, -76.87680631080792, 222.23649917757416, 38.16151328468084,1.0,769
476.637,1.0146729893386028, -1.6044460766174682, -1.8770760503814827, -1.232510612630377, 1.5717505253720887, 2.609648468045577,0.0, 0.0, 0.0, 0.0, 0.0, 0.0,1.0,-8787.132936546232, -2846.4621880955574, 21692.71603627194, -76.86109820816625, 222.18793564199086, 38.161145279200724,1.0,769
476.645,1.0146729893386028, -1.6044460766174682, -1.8770760503814827, -1.232510612630377, 1.5717505253720887, 2.609648468045577,0.0, 0.0, 0.0, 0.0, 0.0, 0.0,1.0,-8786.633983398977, -2846.005735983801, 21692.420891174086, -76.87365887832777, 222.24330572788313, 38.16242301926209,1.0,769
476.65299999999996,1.0146729893386028, -1.6044460766174682, -1.8770760503814827, -1.232510612630377, 1.5717505253720887, 2.609648468045577,0.0, 0.0, 0.0, 0.0, 0.0, 0.0,1.0,-8787.045819718862, -2845.77738113562, 21692.851745187818, -76.87190658035072, 222.19989945400698, 38.16124909864192,1.0,769
476.661,1.0146729893386028, -1.6044460766174682, -1.8770760503814827, -1.232510612630377, 1.5717505253720887, 2.609648468045577,0.0, 0.0, 0.0, 0.0, 0.0, 0.0,1.0,-8786.829142731558, -2845.9149416782666, 21693.836621351842, -76.87494551461182, 222.22844775418696, 38.15998058610688,1.0,769
476.669,1.0146729893386028, -1.6044460766174682, -1.8770760503814827, -1.232510612630377, 1.5717505253720887, 2.609648468045577,0.0, 0.0, 0.0, 0.0, 0.0, 0.0,1.0,-8786.957754990328, -2845.8901122609186, 21694.385742676208, -76.87301105860843, 222.2403657340903, 38.164673686550685,1.0,769
476.67699999999996,1.0146729893386028, -1.6044460766174682, -1.8770760503814827, -1.232510612630377, 1.5717505253720887, 2.609648468045577,0.0, 0.0, 0.0, 0.0, 0.0, 0.0,1.0,-8787.283152179392, -2845.8265253889267, 21694.529120931067, -76.86728053077675, 222.22139169156185, 38.164098812406166,1.0,769
476.685,1.0146729893386028, -1.6044460766174682, -1.8770760503814827, -1.232510612630377, 1.5717505253720887, 2.609648468045577,0.0, 0.0, 0.0, 0.0, 0.0, 0.0,1.0,-8787.288677167258, -2845.443826417244, 21694.354925934196, -76.8922743110636, 222.2341974046551, 38.1568051798144,1.0,769
476.693,1.0146729893386028, -1.6044460766174682, -1.8770760503814827, -1.232510612630377, 1.5717505253720887, 2.609648468045577,0.0, 0.0, 0.0, 0.0, 0.0, 0.0,1.0,-8787.338069119116, -2845.866761008352, 21694.144821685102, -76.8702831079552, 222.21309642654256, 38.1583618695972,1.0,769
476.70099999999996,1.0146729893386028, -1.6044460766174682, -1.8770760503814827, -1.232510612630377, 1.5717505253720887, 2.609648468045577,0.0, 0.0, 0.0, 0.0, 0.0, 0.0,1.0,-8786.894190269664, -2845.969682285676, 21693.569969901586, -76.8863768349728, 222.24259914043023, 38.15769731521985,1.0,769
476.709,1.0146729893386028, -1.6044460766174682, -1.8770760503814827, -1.232510612630377, 1.5717505253720887, 2.609648468045577,0.0, 0.0, 0.0, 0.0, 0.0, 0.0,1.0,-8787.145551690215, -2845.7883972152786, 21693.2159388815, -76.87172267162333, 222.20644133990322, 38.15733592514829,1.0,769
476.717,1.0146729893386028, -1.6044460766174682, -1.8770760503814827, -1.232510612630377, 1.5717505253720887, 2.609648468045577,0.0, 0.0, 0.0, 0.0, 0.0, 0.0,1.0,-8787.135927499996, -2845.928672697286, 21693.20973372872, -76.86447933283637, 222.2349585419832, 38.159372085280836,1.0,769
476.72499999999997,1.0146729893386028, -1.6044460766174682, -1.8770760503814827, -1.232510612630377, 1.5717505253720887, 2.609648468045577,0.0, 0.0, 0.0, 0.0, 0.0, 0.0,1.0,-8787.084435937877, -2845.3770217649435, 21693.0666591202, -76.88301179443408, 222.23052824999064, 38.16193420722408,1.0,769
476.733,1.0146729893386028, -1.6044460766174682, -1.8770760503814827, -1.232510612630377, 1.5717505253720887, 2.609648468045577,0.0, 0.0, 0.0, 0.0, 0.0, 0.0,1.0,-8787.606541212666, -2845.4787015314614, 21694.064257741942, -76.90827236554793, 222.23080978482307, 38.162203880908095,1.0,769
476.741,1.0146729893386028, -1.6044460766174682, -1.8770760503814827, -1.232510612630377, 1.5717505253720887, 2.609648468045577,0.0, 0.0, 0.0, 0.0, 0.0, 0.0,1.0,-8786.927733014316, -2845.2426191417535, 21693.777729699294, -76.87976865065477, 222.23105077596426, 38.16016715427966,1.0,769
476.74899999999997,1.0146729893386028, -1.6044460766174682, -1.8770760503814827, -1.232510612630377, 1.5717505253720887, 2.609648468045577,0.0, 0.0, 0.0, 0.0, 0.0, 0.0,1.0,-8787.023341680073, -2845.949669766307, 21694.416406372166, -76.88924076786566, 222.21186876904602, 38.159977891618354,1.0,769
476.757,1.0146729893386028, -1.6044460766174682, -1.8770760503814827, -1.232510612630377, 1.5717505253720887, 2.609648468045577,0.0, 0.0, 0.0, 0.0, 0.0, 0.0,1.0,-8787.1553704067, -2845.672699919158, 21694.413711671896, -76.89211722418639, 222.2225448300997, 38.15851159938529,1.0,769
476.765,1.0146729893386028, -1.6044460766174682, -1.8770760503814827, -1.232510612630377, 1.5717505253720887, 2.609648468045577,0.0, 0.0, 0.0, 0.0, 0.0, 0.0,1.0,-8787.21911893198, -2845.595645512615, 21694.187306688065, -76.88174436664033, 222.21967736708064, 38.16444549420581,1.0,769
476.77299999999997,1.0146729893386028, -1.6044460766174682, -1.8770760503814827, -1.232510612630377, 1.5717505253720887, 2.609648468045577,0.0, 0.0, 0.0, 0.0, 0.0, 0.0,1.0,-8787.122750116783, -2845.794582965932, 21693.852643234586, -76.87510942216412, 222.2236161906015, 38.154560672504545,1.0,769
476.781,1.0146729893386028, -1.6044460766174682, -1.8770760503814827, -1.232510612630377, 1.5717505253720887, 2.609648468045577,0.0, 0.0, 0.0, 0.0, 0.0, 0.0,1.0,-8786.960164111826, -2845.9415515877718, 21693.919208555246, -76.87650461035344, 222.23080447139603, 38.16709834836908,1.0,769
476.789,1.0146729893386028, -1.6044460766174682, -1.8770760503814827, -1.232510612630377, 1.5717505253720887, 2.609648468045577,0.0, 0.0, 0.0, 0.0, 0.0, 0.0,1.0,-8787.105724471485, -2845.3284262419975, 21693.19488944845, -76.88969029021925, 222.2149380912337, 38.15945944907648,1.0,769
476.79699999999997,1.0146729893386028, -1.6044460766174682, -1.8770760503814827, -1.232510612630377, 1.5717505253720887, 2.609648468045577,0.0, 0.0, 0.0, 0.0, 0.0, 0.0,1.0,-8786.994961999699, -2845.5098890315667, 21693.04537006822, -76.88059777645813, 222.22204690756922, 38.169529932780165,1.0,769
476.805,1.0146729893386028, -1.6044460766174682, -1.8770760503814827, -1.232510612630377, 1.5717505253720887, 2.609648468045577,0.0, 0.0, 0.0, 0.0, 0.0, 0.0,1.0,-8787.01864123545, -2845.9197544702256, 21693.193844650923, -76.87905291384544, 222.22006786385685, 38.15451289053854,1.0,769
476.813,1.0146729893386028, -1.6044460766174682, -1.8770760503814827, -1.232510612630377, 1.5717505253720887, 2.609648468045577,0.0, 0.0, 0.0, 0.0, 0.0, 0.0,1.0,-8787.173688484429, -2845.7691207215703, 21693.577547148638, -76.87305274119703, 222.21058402625272, 38.167948324672636,1.0,769
476.82099999999997,1.0146729893386028, -1.6044460766174682, -1.8770760503814827, -1.232510612630377, 1.5717505253720887, 2.609648468045577,0.0, 0.0, 0.0, 0.0, 0.0, 0.0,1.0,-8786.88768489484, -2845.904070851858, 21693.771161201956, -76.87253822950169, 222.2206813887853, 38.15939383021501,1.0,769
476.82899999999995,1.0146729893386028, -1.6044460766174682, -1.8770760503814827, -1.232510612630377, 1.5717505253720887, 2.609648468045577,0.0, 0.0, 0.0, 0.0, 0.0, 0.0,1.0,-8787.17263451548, -2845.8499392289614, 21693.832125733345, -76.88764973083127, 222.23156852634423, 38.1662685181752,1.0,769
476.837,1.0146729893386028, -1.6044460766174682, -1.8770760503814827, -1.232510612630377, 1.5717505253720887, 2.609648468045577,0.0, 0.0, 0.0, 0.0, 0.0, 0.0,1.0,-8787.370970736827, -2845.6861824423668, 21693.846162946305, -76.8848961792298, 222.21531962243245, 38.162192184297794,1.0,769
476.84499999999997,1.0146729893386028, -1.6044460766174682, -1.8770760503814827, -1.232510612630377, 1.5717505253720887, 2.609648468045577,0.0, 0.0, 0.0, 0.0, 0.0, 0.0,1.0,-8787.066517722344, -2845.8009468599184, 21693.64705168755, -76.88169748313828, 222.23153192983136, 38.16180333609921,1.0,769
476.85299999999995,1.0146729893386028, -1.6044460766174682, -1.8770760503814827, -1.232510612630377, 1.5717505253720887, 2.609648468045577,0.0, 0.0, 0.0, 0.0, 0.0, 0.0,1.0,-8787.04806500335, -2845.962869792771, 21693.43266158402, -76.87198231638803, 222.2294655338648, 38.16370768084752,1.0,769
476.861,1.0146729893386028, -1.6044460766174682, -1.8770760503814827, -1.232510612630377, 1.5717505253720887, 2.609648468045577,0.0, 0.0, 0.0, 0.0, 0.0, 0.0,1.0,-8786.965634087484, -2846.008130182059, 21693.154344271145, -76.87719725321719, 222.2281973263967, 38.1610676813944,1.0,769
476.86899999999997,1.0146729893386028, -1.6044460766174682, -1.8770760503814827, -1.232510612630377, 1.5717505253720887, 2.609648468045577,0.0, 0.0, 0.0, 0.0, 0.0, 0.0,1.0,-8786.996881387411, -2845.864605649045, 21693.19683363125, -76.87821913988341, 222.2208394805312, 38.17117105355172,1.0,769
476.87699999999995,1.0146729893386028, -1.6044460766174682, -1.8770760503814827, -1.232510612630377, 1.5717505253720887, 2.609648468045577,0.0, 0.0, 0.0, 0.0, 0.0, 0.0,1.0,-8787.164100713228, -2845.9494071696863, 21693.090490927483, -76.87134503221282, 222.22207258333384, 38.160890416494226,1.0,769
476.885,1.0146729893386028, -1.6044460766174682, -1.8770760503814827, -1.232510612630377, 1.5717505253720887, 2.609648468045577,0.0, 0.0, 0.0, 0.0, 0.0, 0.0,1.0,-8787.043823927734, -2845.948376830622, 21693.157414955047, -76.86889676036915, 222.2228779524297, 38.17362331011191,1.0,769
476.893,1.0146729893386028, -1.6044460766174682, -1.8770760503814827, -1.232510612630377, 1.5717505253720887, 2.609648468045577,0.0, 0.0, 0.0, 0.0, 0.0, 0.0,1.0,-8786.807929240187, -2846.0094045547103, 21693.587789657304, -76.8779953753905, 222.22605312992465, 38.159147287543504,1.0,769
476.90099999999995,1.0146729893386028, -1.6044460766174682, -1.8770760503814827, -1.232510612630377, 1.5717505253720887, 2.609648468045577,0.0, 0.0, 0.0, 0.0, 0.0, 0.0,1.0,-8787.240736813195, -2845.5893371821785, 21693.645918479877, -76.87294418595332, 222.22917626295333, 38.17048718192629,1.0,769
476.909,1.0146729893386028, -1.6044460766174682, -1.8770760503814827, -1.232510612630377, 1.5717505253720887, 2.609648468045577,0.0, 0.0, 0.0, 0.0, 0.0, 0.0,1.0,-8787.125488931239, -2845.810477054207, 21693.630822554358, -76.88132844904561, 222.22105385500566, 38.16193058648793,1.0,769
476.917,1.0146729893386028, -1.6044460766174682, -1.8770760503814827, -1.232510612630377, 1.5717505253720887, 2.609648468045577,0.0, 0.0, 0.0, 0.0, 0.0, 0.0,1.0,-8787.009480466997, -2845.6956064023807, 21693.38727262166, -76.87918967563164, 222.22450906210787, 38.168087866045255,1.0,769
476.92499999999995,1.0146729893386028, -1.6044460766174682, -1.8770760503814827, -1.232510612630377, 1.5717505253720887, 2.609648468045577,0.0, 0.0, 0.0, 0.0, 0.0, 0.0,1.0,-8787.328676504503, -2845.9886507207248, 21693.376779290586, -76.87912011149496, 222.22264201597233, 38.160381451092604,1.0,769
476.933,1.0146729893386028, -1.6044460766174682, -1.8770760503814827, -1.232510612630377, 1.5717505253720887, 2.609648468045577,0.0, 0.0, 0.0, 0.0, 0.0, 0.0,1.0,-8787.095721420754, -2846.0869951018367, 21693.470383506417, -76.88159663476384, 222.2247261313849, 38.16762788098049,1.0,769
476.941,1.0146729893386028, -1.6044460766174682, -1.8770760503814827, -1.232510612630377, 1.5717505253720887, 2.609648468045577,0.0, 0.0, 0.0, 0.0, 0.0, 0.0,1.0,-8787.114384461913, -2845.647937143047, 21693.214994844326, -76.87469328725166, 222.22908065709078, 38.167859655445426,1.0,769
476.94899999999996,1.0146729893386028, -1.6044460766174682, -1.8770760503814827, -1.232510612630377, 1.5717505253720887, 2.609648468045577,0.0, 0.0, 0.0, 0.0, 0.0, 0.0,1.0,-8787.20041205709, -2845.5734457371827, 21693.334885822733, -76.87841775139162, 222.2223448811152, 38.16204789226737,1.0,769
476.957,1.0146729893386028, -1.6044460766174682, -1.8770760503814827, -1.232510612630377, 1.5717505253720887, 2.609648468045577,0.0, 0.0, 0.0, 0.0, 0.0, 0.0,1.0,-8787.39802802993, -2845.705098884424, 21693.559726214426, -76.87991604962849, 222.23258658548025, 38.1676156956795,1.0,769
476.965,1.0146729893386028, -1.6044460766174682, -1.8770760503814827, -1.232510612630377, 1.5717505253720887, 2.609648468045577,0.0, 0.0, 0.0, 0.0, 0.0, 0.0,1.0,-8787.395335013685, -2845.6817711488375, 21693.644765895515, -76.8727453542626, 222.22950962672917, 38.15684470880939,1.0,769
476.97299999999996,1.0146729893386028, -1.6044460766174682, -1.8770760503814827, -1.232510612630377, 1.5717505253720887, 2.609648468045577,0.0, 0.0, 0.0, 0.0, 0.0, 0.0,1.0,-8787.439015261909, -2845.7089550207456, 21693.60881816187, -76.88372514260575, 222.22243765241205, 38.16946962666489,1.0,769
476.981,1.0146729893386028, -1.6044460766174682, -1.8770760503814827, -1.232510612630377, 1.5717505253720887, 2.609648468045577,0.0, 0.0, 0.0, 0.0, 0.0, 0.0,1.0,-8787.301753700249, -2845.5026036204536, 21693.683942146177, -76.88327114253363, 222.23042744390102, 38.166913880105284,1.0,769
476.989,1.0146729893386028, -1.6044460766174682, -1.8770760503814827, -1.232510612630377, 1.5717505253720887, 2.609648468045577,0.0, 0.0, 0.0, 0.0, 0.0, 0.0,1.0,-8787.280085311906, -2845.7092218214802, 21693.587345561988, -76.88451909598285, 222.22594867533746, 38.162047859372535,1.0,769
476.99699999999996,1.0146729893386028, -1.6044460766174682, -1.8770760503814827, -1.232510612630377, 1.5717505253720887, 2.609648468045577,0.0, 0.0, 0.0, 0.0, 0.0, 0.0,1.0,-8787.189805233711, -2845.6753311954335, 21693.465820834626, -76.88325237877635, 222.22455975053595, 38.16175450807083,1.0,769
477.005,1.0146729893386028, -1.6044460766174682, -1.8770760503814827, -1.232510612630377, 1.5717505253720887, 2.609648468045577,0.0, 0.0, 0.0, 0.0, 0.0, 0.0,1.0,-8787.16141269454, -2845.609242737424, 21693.563710301114, -76.88448736517498, 222.22289299469645, 38.161810068775196,1.0,769
477.013,1.0146729893386028, -1.6044460766174682, -1.8770760503814827, -1.232510612630377, 1.5717505253720887, 2.609648468045577,0.0, 0.0, 0.0, 0.0, 0.0, 0.0,1.0,-8787.119200664047, -2845.9311766875544, 21693.360514024233, -76.88771490519446, 222.2234714898537, 38.15869062966331,1.0,769
477.02099999999996,1.0146729893386028, -1.6044460766174682, -1.8770760503814827, -1.232510612630377, 1.5717505253720887, 2.609648468045577,0.0, 0.0, 0.0, 0.0, 0.0, 0.0,1.0,-8787.297182919523, -2845.735660543397, 21693.38219907579, -76.8836946558705, 222.23532056434618, 38.16164931750595,1.0,769
477.029,1.0146729893386028, -1.6044460766174682, -1.8770760503814827, -1.232510612630377, 1.5717505253720887, 2.609648468045577,0.0, 0.0, 0.0, 0.0, 0.0, 0.0,1.0,-8786.956353276595, -2845.7823662504306, 21693.32175349385, -76.88244531348053, 222.2179880055844, 38.16112461310786,1.0,769
477.037,1.0146729893386028, -1.6044460766174682, -1.8770760503814827, -1.232510612630377, 1.5717505253720887, 2.609648468045577,0.0, 0.0, 0.0, 0.0, 0.0, 0.0,1.0,-8787.353072931593, -2845.7559540785123, 21693.438623979313, -76.88311519193985, 222.2279120349168, 38.16172915336588,1.0,769
477.04499999999996,1.0146729893386028, -1.6044460766174682, -1.8770760503814827, -1.232510612630377, 1.5717505253720887, 2.609648468045577,0.0, 0.0, 0.0, 0.0, 0.0, 0.0,1.0,-8787.215166308799, -2845.514865195353, 21693.524164291262, -76.87630890145019, 222.22749436284641, 38.165417299391834,1.0,769
477.053,1.0146729893386028, -1.6044460766174682, -1.8770760503814827, -1.232510612630377, 1.5717505253720887, 2.609648468045577,0.0, 0.0, 0.0, 0.0, 0.0, 0.0,1.0,-8786.840359343985, -2845.6165465042122, 21693.429248850563, -76.87860585371027, 222.21631077888475, 38.16650342020151,1.0,769
