dlisjak-bit/sensor_synchronization/realtime_sync/robot_reference.csv
t,q0,q1,q2,q3,q4,q5,qd0,qd1,qd2,qd3,qd4,qd5,ss,f0,f1,f2,f3,f4,f5,tsf,do
7133.974999999999,0.7269052265183517, -1.423608275866818, -1.47576069014589, -1.8154121902905276, 1.5721135142515703, 2.3201682575895273,0.0, 0.0, 0.0, 0.0, 0.0, 0.0,1.0,-8790.063706904912, -2846.1715267646305, 21693.13797250516, -76.89526522805312, 222.3481491329536, 38.202360624843664,1.0,801
7133.982999999999,0.7269052265183517, -1.423608275866818, -1.47576069014589, -1.8154121902905276, 1.5721135142515703, 2.3201682575895273,0.0, 0.0, 0.0, 0.0, 0.0, 0.0,1.0,-8791.281618561197, -2845.9353090210425, 21693.544395446293, -76.89792982610385, 222.2949614433556, 38.19476051847201,1.0,801
7133.991,0.7269052265183517, -1.423608275866818, -1.47576069014589, -1.8154121902905276, 1.5721135142515703, 2.3201682575895273,0.0, 0.0, 0.0, 0.0, 0.0, 0.0,1.0,-8791.626379633813, -2845.850725192481, 21693.690481146645, -76.88724909076572, 222.2821178551328, 38.19330106497105,1.0,801
7133.999,0.7269052265183517, -1.423608275866818, -1.47576069014589, -1.8154121902905276, 1.5721135142515703, 2.3201682575895273,0.0, 0.0, 0.0, 0.0, 0.0, 0.0,1.0,-8790.3512089095, -2846.0357268879325, 21692.947852955476, -76.88385680918418, 222.34764214094537, 38.19487619948168,1.0,801
7134.007,0.7269052265183517, -1.423608275866818, -1.47576069014589, -1.8154121902905276, 1.5721135142515703, 2.3201682575895273,0.0, 0.0, 0.0, 0.0, 0.0, 0.0,1.0,-8789.696635630875, -2846.2439247336315, 21693.243275941575, -76.88523041451376, 222.34749715611855, 38.20262809664953,1.0,801
7134.063,0.7269052265183517, -1.423608275866818, -1.47576069014589, -1.8154121902905276, 1.5721135142515703, 2.3201682575895273,0.0, 0.0, 0.0, 0.0, 0.0, 0.0,1.0,-8791.121759948226, -2845.7159276960056, 21693.549831201286, -76.89220971272877, 222.29569015355418, 38.19015503420053,1.0,801
7134.071,0.7269052265183517, -1.423608275866818, -1.47576069014589, -1.8154121902905276, 1.5721135142515703, 2.3201682575895273,0.0, 0.0, 0.0, 0.0, 0.0, 0.0,1.0,-8791.629038538986, -2845.7042367649947, 21693.4774730429, -76.88345659079701, 222.28187327310798, 38.19849180381851,1.0,801
7134.079,0.7269052265183517, -1.423608275866818, -1.47576069014589, -1.8154121902905276, 1.5721135142515703, 2.3201682575895273,0.0, 0.0, 0.0, 0.0, 0.0, 0.0,1.0,-8790.32861261622, -2846.3011751535378, 21692.909152760272, -76.87886307821813, 222.34343613711678, 38.201080107555015,1.0,801
7134.0869999999995,0.7269052265183517, -1.423608275866818, -1.47576069014589, -1.8154121902905276, 1.5721135142515703, 2.3201682575895273,0.0, 0.0, 0.0, 0.0, 0.0, 0.0,1.0,-8789.912188372418, -2846.355910505531, 21693.30778789662, -76.88697209305667, 222.3518378984886, 38.199330529587144,1.0,801
7134.094999999999,0.7269052265183517, -1.423608275866818, -1.47576069014589, -1.8154121902905276, 1.5721135142515703, 2.3201682575895273,0.0, 0.0, 0.0, 0.0, 0.0, 0.0,1.0,-8789.603658757693, -2846.334967451313, 21692.589405404357, -76.89463972487258, 222.3606889020196, 38.209548373961525,1.0,801
7134.103,0.7269052265183517, -1.423608275866818, -1.47576069014589, -1.8154121902905276, 1.5721135142515703, 2.3201682575895273,0.0, 0.0, 0.0, 0.0, 0.0, 0.0,1.0,-8791.080811391606, -2845.9389772160694, 21693.44605020608, -76.90251182073919, 222.29114038798036, 38.196234567600584,1.0,801
7134.111,0.7269052265183517, -1.423608275866818, -1.47576069014589, -1.8154121902905276, 1.5721135142515703, 2.3201682575895273,0.0, 0.0, 0.0, 0.0, 0.0, 0.0,1.0,-8791.706048117388, -2846.3006288260685, 21693.452294551236, -76.89241120750404, 222.281535167147, 38.19602790027213,1.0,801
7134.1269999999995,0.7269052265183517, -1.423608275866818, -1.47576069014589, -1.8154121902905276, 1.5721135142515703, 2.3201682575895273,0.0, 0.0, 0.0, 0.0, 0.0, 0.0,1.0,-8789.759142383113, -2846.1525570669264, 21693.42235798585, -76.87734143748816, 222.35944026459822, 38.19685907705036,1.0,801
7134.134999999999,0.7269052265183517, -1.423608275866818, -1.47576069014589, -1.8154121902905276, 1.5721135142515703, 2.3201682575895273,0.0, 0.0, 0.0, 0.0, 0.0, 0.0,1.0,-8789.54943418235, -2846.1564562265594, 21692.73281466246, -76.89740013110213, 222.3527455873985, 38.21050285472711,1.0,801
7134.143,0.7269052265183517, -1.423608275866818, -1.47576069014589, -1.8154121902905276, 1.5721135142515703, 2.3201682575895273,0.0, 0.0, 0.0, 0.0, 0.0, 0.0,1.0,-8791.454708568683, -2845.9293332960724, 21693.619709932354, -76.89665861297726, 222.2934634986181, 38.19698724253405,1.0,801
7134.151,0.7269052265183517, -1.423608275866818, -1.47576069014589, -1.8154121902905276, 1.5721135142515703, 2.3201682575895273,0.0, 0.0, 0.0, 0.0, 0.0, 0.0,1.0,-8791.686668254883, -2846.0852995712194, 21693.88449033709, -76.88990810681832, 222.2781268980301, 38.20258310872495,1.0,801
7134.159,0.7269052265183517, -1.423608275866818, -1.47576069014589, -1.8154121902905276, 1.5721135142515703, 2.3201682575895273,0.0, 0.0, 0.0, 0.0, 0.0, 0.0,1.0,-8790.353659958111, -2846.534466095527, 21692.927873297984, -76.88965309513912, 222.35641172970116, 38.20388691491408,1.0,801
7134.1669999999995,0.7269052265183517, -1.423608275866818, -1.47576069014589, -1.8154121902905276, 1.5721135142515703, 2.3201682575895273,0.0, 0.0, 0.0, 0.0, 0.0, 0.0,1.0,-8789.739902122845, -2846.260318884144, 21693.23789881449, -76.88585957370114, 222.358827723072, 38.20181262031906,1.0,801
7134.174999999999,0.7269052265183517, -1.423608275866818, -1.47576069014589, -1.8154121902905276, 1.5721135142515703, 2.3201682575895273,0.0, 0.0, 0.0, 0.0, 0.0, 0.0,1.0,-8790.128271105794, -2846.0759404762475, 21692.796842509844, -76.8948336142804, 222.35370663933668, 38.21070393806326,1.0,801
7134.183,0.7269052265183517, -1.423608275866818, -1.47576069014589, -1.8154121902905276, 1.5721135142515703, 2.3201682575895273,0.0, 0.0, 0.0, 0.0, 0.0, 0.0,1.0,-8790.965208099757, -2845.999530663469, 21693.30208402472, -76.89431118149326, 222.28740469116843, 38.197082915560145,1.0,801
7134.191,0.7269052265183517, -1.423608275866818, -1.47576069014589, -1.8154121902905276, 1.5721135142515703, 2.3201682575895273,0.0, 0.0, 0.0, 0.0, 0.0, 0.0,1.0,-8791.79734039427, -2846.0091113407098, 21693.54500542454, -76.88454474774403, 222.28191150375915, 38.20020679276391,1.0,801
7134.199,0.7269052265183517, -1.423608275866818, -1.47576069014589, -1.8154121902905276, 1.5721135142515703, 2.3201682575895273,0.0, 0.0, 0.0, 0.0, 0.0, 0.0,1.0,-8790.081358643443, -2846.4092760905614, 21692.924061345875, -76.88472343464335, 222.34228543704523, 38.20549017711312,1.0,801
7134.206999999999,0.7269052265183517, -1.423608275866818, -1.47576069014589, -1.8154121902905276, 1.5721135142515703, 2.3201682575895273,0.0, 0.0, 0.0, 0.0, 0.0, 0.0,1.0,-8789.713032318281, -2846.220959819724, 21693.168624521353, -76.87949870356235, 222.35385927915138, 38.198962474927754,1.0,801
7134.214999999999,0.7269052265183517, -1.423608275866818, -1.47576069014589, -1.8154121902905276, 1.5721135142515703, 2.3201682575895273,0.0, 0.0, 0.0, 0.0, 0.0, 0.0,1.0,-8789.74111976329, -2846.019196643635, 21692.95869231959, -76.89689472714227, 222.35585122700655, 38.212684891104686,1.0,801
7134.231,0.7269052265183517, -1.423608275866818, -1.47576069014589, -1.8154121902905276, 1.5721135142515703, 2.3201682575895273,0.0, 0.0, 0.0, 0.0, 0.0, 0.0,1.0,-8791.63923000124, -2845.8641130405467, 21693.49649180931, -76.88739125421742, 222.28766772502587, 38.19610851372397,1.0,801
7134.246999999999,0.7269052265183517, -1.423608275866818, -1.47576069014589, -1.8154121902905276, 1.5721135142515703, 2.3201682575895273,0.0, 0.0, 0.0, 0.0, 0.0, 0.0,1.0,-8789.840104184592, -2846.3057769485204, 21693.27345277639, -76.88458409738396, 222.3538453368002, 38.20281162428023,1.0,801
7134.255,0.7269052265183517, -1.423608275866818, -1.47576069014589, -1.8154121902905276, 1.5721135142515703, 2.3201682575895273,0.0, 0.0, 0.0, 0.0, 0.0, 0.0,1.0,-8789.795643455935, -2846.280777698661, 21692.710368824835, -76.89563606834955, 222.36484159058102, 38.21119927254307,1.0,801
7134.263,0.7269052265183517, -1.423608275866818, -1.47576069014589, -1.8154121902905276, 1.5721135142515703, 2.3201682575895273,0.0, 0.0, 0.0, 0.0, 0.0, 0.0,1.0,-8791.145195929097, -2845.9329048951968, 21693.46181481364, -76.89351295574588, 222.2945095221708, 38.197098274552275,1.0,801
7134.271,0.7269052265183517, -1.423608275866818, -1.47576069014589, -1.8154121902905276, 1.5721135142515703, 2.3201682575895273,0.0, 0.0, 0.0, 0.0, 0.0, 0.0,1.0,-8791.714918592737, -2845.8094379890035, 21693.739496690694, -76.88403921911598, 222.28301399148347, 38.19677454781316,1.0,801
7134.2789999999995,0.7269052265183517, -1.423608275866818, -1.47576069014589, -1.8154121902905276, 1.5721135142515703, 2.3201682575895273,0.0, 0.0, 0.0, 0.0, 0.0, 0.0,1.0,-8790.295798304698, -2846.2953943877774, 21693.00059141065, -76.88466377615683, 222.34604916708514, 38.20684866277074,1.0,801
7134.286999999999,0.7269052265183517, -1.423608275866818, -1.47576069014589, -1.8154121902905276, 1.5721135142515703, 2.3201682575895273,0.0, 0.0, 0.0, 0.0, 0.0, 0.0,1.0,-8789.740249843442, -2846.2426010508243, 21693.20611308101, -76.8826862282749, 222.354436363451, 38.2014942090027,1.0,801
7134.295,0.7269052265183517, -1.423608275866818, -1.47576069014589, -1.8154121902905276, 1.5721135142515703, 2.3201682575895273,0.0, 0.0, 0.0, 0.0, 0.0, 0.0,1.0,-8789.808365536732, -2846.3290188485844, 21692.770078880727, -76.90187928760827, 222.36587802089474, 38.2100734827213,1.0,801
7134.303,0.7269052265183517, -1.423608275866818, -1.47576069014589, -1.8154121902905276, 1.5721135142515703, 2.3201682575895273,0.0, 0.0, 0.0, 0.0, 0.0, 0.0,1.0,-8791.136801476356, -2846.0815949674934, 21693.489270008013, -76.90336517904487, 222.28370628988193, 38.19561325306722,1.0,801
7134.311,0.7269052265183517, -1.423608275866818, -1.47576069014589, -1.8154121902905276, 1.5721135142515703, 2.3201682575895273,0.0, 0.0, 0.0, 0.0, 0.0, 0.0,1.0,-8791.651503294335, -2846.066778524967, 21693.6848490571, -76.88948061684465, 222.27494952323826, 38.198655676194136,1.0,801
7134.343,0.7269052265183517, -1.423608275866818, -1.47576069014589, -1.8154121902905276, 1.5721135142515703, 2.3201682575895273,0.0, 0.0, 0.0, 0.0, 0.0, 0.0,1.0,-8791.36778171544, -2845.782610830821, 21693.499899395247, -76.89421953799399, 222.29874724642434, 38.20136631790001,1.0,801
7134.351,0.7269052265183517, -1.423608275866818, -1.47576069014589, -1.8154121902905276, 1.5721135142515703, 2.3201682575895273,0.0, 0.0, 0.0, 0.0, 0.0, 0.0,1.0,-8791.66654318707, -2846.0340069842405, 21693.6969957071, -76.88820204467984, 222.27893094974667, 38.20364320888615,1.0,801
7134.3589999999995,0.7269052265183517, -1.423608275866818, -1.47576069014589, -1.8154121902905276, 1.5721135142515703, 2.3201682575895273,0.0, 0.0, 0.0, 0.0, 0.0, 0.0,1.0,-8790.196981431554, -2846.3357310954325, 21692.936471963465, -76.88004190192021, 222.34263975857243, 38.206430817001745,1.0,801
7134.366999999999,0.7269052265183517, -1.423608275866818, -1.47576069014589, -1.8154121902905276, 1.5721135142515703, 2.3201682575895273,0.0, 0.0, 0.0, 0.0, 0.0, 0.0,1.0,-8789.835711926196, -2846.5114409885855, 21693.338003931134, -76.88724164297315, 222.3552805425257, 38.205170110539314,1.0,801
7134.375,0.7269052265183517, -1.423608275866818, -1.47576069014589, -1.8154121902905276, 1.5721135142515703, 2.3201682575895273,0.0, 0.0, 0.0, 0.0, 0.0, 0.0,1.0,-8789.935212442499, -2846.2505062796763, 21692.718138769284, -76.90059467606716, 222.36828949630188, 38.216334426695084,1.0,801
7134.383,0.7269052265183517, -1.423608275866818, -1.47576069014589, -1.8154121902905276, 1.5721135142515703, 2.3201682575895273,0.0, 0.0, 0.0, 0.0, 0.0, 0.0,1.0,-8791.256060534879, -2845.718269429346, 21693.482112861046, -76.8936317791433, 222.29206235087184, 38.19889275067641,1.0,801
7134.415,0.7269052265183517, -1.423608275866818, -1.47576069014589, -1.8154121902905276, 1.5721135142515703, 2.3201682575895273,0.0, 0.0, 0.0, 0.0, 0.0, 0.0,1.0,-8789.459584795086, -2846.288483743773, 21692.71799215274, -76.89842270470564, 222.36260134952448, 38.217444416846035,1.0,801
7134.438999999999,0.7269052265183517, -1.423608275866818, -1.47576069014589, -1.8154121902905276, 1.5721135142515703, 2.3201682575895273,0.0, 0.0, 0.0, 0.0, 0.0, 0.0,1.0,-8790.277739400368, -2846.48005870631, 21692.848480451357, -76.88248455394148, 222.3421734304701, 38.20601184198679,1.0,801
7134.447,0.7269052265183517, -1.423608275866818, -1.47576069014589, -1.8154121902905276, 1.5721135142515703, 2.3201682575895273,0.0, 0.0, 0.0, 0.0, 0.0, 0.0,1.0,-8789.823155019069, -2846.3360958416506, 21693.30953072263, -76.88641167284717, 222.35175879050962, 38.20633808524474,1.0,801
7134.455,0.7269052265183517, -1.423608275866818, -1.47576069014589, -1.8154121902905276, 1.5721135142515703, 2.3201682575895273,0.0, 0.0, 0.0, 0.0, 0.0, 0.0,1.0,-8789.78616293287, -2846.2633592297134, 21692.851907598608, -76.89570747105608, 222.36454002536425, 38.21505957218781,1.0,801
7134.463,0.7269052265183517, -1.423608275866818, -1.47576069014589, -1.8154121902905276, 1.5721135142515703, 2.3201682575895273,0.0, 0.0, 0.0, 0.0, 0.0, 0.0,1.0,-8791.293143535926, -2845.827450069183, 21693.50463728398, -76.9046695608782, 222.28672639759407, 38.20190914951195,1.0,801
7134.471,0.7269101349518156, -1.4236104975053383, -1.4757614464317825, -1.8154092017028862, 1.5721135090183165, 2.3201725328690146,0.6512238113187074, -0.2947547145333303, -0.10033983041205413, 0.396509283144828, -0.0006943191821754341, 0.5672204426549166,1.0,-8791.501994611908, -2845.883802017771, 21693.584163287054, -76.88729086729245, 222.27737668374664, 38.20415252514866,1.0,801
7134.478999999999,0.7269844336798856, -1.423644126343845, -1.4757728942960107, -1.8153639635913592, 1.5721134298027977, 2.3202372475749145,0.6512238113187074, -0.2947547145333303, -0.10033983041205413, 0.39650928314482803, -0.0006943191821754342, 0.5672204426549167,1.0,-8790.160705325678, -2847.910780942242, 21692.58628937606, -76.84959544962453, 222.34820919284192, 38.20808575237612,1.0,801
7134.487,0.7271480932656578, -1.423718201390928, -1.4757981107804152, -1.8152643165208646, 1.5721132553128792, 2.3203797962057737,0.6512238113187074, -0.2947547145333303, -0.10033983041205413, 0.396509283144828, -0.0006943191821754342, 0.5672204426549166,1.0,-8789.749010454338, -2848.44199987093, 21693.333616399457, -76.82393332530748, 222.34675515779583, 38.15879489330885,1.0,801
7134.495,0.727401113709132, -1.423832722646587, -1.4758370958849945, -1.8151102604914024, 1.572112985548561, 2.320600178761592,0.6512238113187074, -0.29475471453333035, -0.10033983041205415, 0.39650928314482803, -0.0006943191821754342, 0.5672204426549167,1.0,-8789.372855112342, -2846.6331311536333, 21692.286693142552, -76.89460136944055, 222.36266557611202, 38.17934908608743,1.0,801
7134.503,0.7277434950103083, -1.4239876901108222, -1.4758898496097501, -1.8149017955029727, 1.5721126205098432, 2.3208983952423696,0.6512238113187074, -0.29475471453333035, -0.10033983041205415, 0.39650928314482803, -0.0006943191821754342, 0.5672204426549167,1.0,-8791.32511781192, -2847.0982330807274, 21692.786599938107, -76.85858059228212, 222.27376894350942, 38.16312233377431,1.0,801
7134.5109999999995,0.7281752371691868, -1.4241831037836334, -1.4759563719546804, -1.8146389215555754, 1.572112160196726, 2.3212744456481063,0.6512238113187075, -0.29475471453333035, -0.10033983041205415, 0.39650928314482803, -0.0006943191821754343, 0.5672204426549167,1.0,-8791.613116039378, -2848.536203642073, 21692.775726884593, -76.8178950127292, 222.28792329606824, 38.16569716387687,1.0,801
7134.518999999999,0.7286963401857673, -1.4244189636650217, -1.4760366629197872, -1.8143216386492114, 1.5721116046092092, 2.3217283299788023,0.6512238113187075, -0.2947547145333303, -0.10033983041205413, 0.39650928314482803, -0.0006943191821754342, 0.5672204426549167,1.0,-8789.9420511747, -2848.2551007399925, 21692.395662261548, -76.82629501177178, 222.36459189463693, 38.17349308865673,1.0,801
7134.527,0.72930680406005, -1.4246952697549862, -1.4761307225050686, -1.8139499467838789, 1.5721109537472926, 2.3222600482344573,0.6512238113187074, -0.29475471453333024, -0.10033983041205412, 0.3965092831448279, -0.0006943191821754341, 0.5672204426549166,1.0,-8789.467664903801, -2847.091150451063, 21693.043143155173, -76.8589630107333, 222.37465821948933, 38.175217679066606,1.0,801
7134.535,0.7300066287920348, -1.4250120220535267, -1.4762385507105256, -1.8135238459595797, 1.5721102076109763, 2.3228696004150717,0.6512238113187075, -0.2947547145333303, -0.10033983041205413, 0.396509283144828, -0.0006943191821754342, 0.5672204426549167,1.0,-8789.571555424503, -2847.1707705700046, 21692.47670400767, -76.86493679152125, 222.36814885517094, 38.18141344989809,1.0,801
7134.543,0.7307958143817217, -1.4253692205606434, -1.476360147536158, -1.813043336176313, 1.5721093662002605, 2.323556986520645,0.6512238113187074, -0.2947547145333303, -0.10033983041205413, 0.39650928314482803, -0.0006943191821754341, 0.5672204426549166,1.0,-8791.74535283502, -2846.9196595521653, 21692.92944113343, -76.86040768462954, 222.27144853384812, 38.16674061727704,1.0,801
7134.5509999999995,0.7316743608291107, -1.4257668652763371, -1.4764955129819661, -1.8125084174340786, 1.572108429515145, 2.324322206551178,0.6512238113187074, -0.29475471453333035, -0.10033983041205415, 0.39650928314482803, -0.0006943191821754342, 0.5672204426549166,1.0,-8791.788420199606, -2847.399726027774, 21692.98301111582, -76.83737955804665, 222.27522336825177, 38.1654780886482,1.0,801
7134.558999999999,0.7326422681342019, -1.426204956200606, -1.4766446470479506, -1.8119190897328767, 1.5721073975556301, 2.3251652605066697,0.6512238113187074, -0.2947547145333303, -0.10033983041205412, 0.39650928314482803, -0.0006943191821754341, 0.5672204426549167,1.0,-8790.055418430306, -2847.3357514288255, 21692.444526409803, -76.84476290190196, 222.3549640796884, 38.168089832564135,1.0,801
7134.567,0.733699536296995, -1.426683493333452, -1.4768075497341098, -1.8112753530727073, 1.5721062703217155, 2.326086148387121,0.6512238113187074, -0.29475471453333035, -0.10033983041205413, 0.39650928314482803, -0.0006943191821754342, 0.5672204426549167,1.0,-8790.031980062693, -2847.9421505847477, 21693.05757084565, -76.84669641996757, 222.35627540479862, 38.182732994893826,1.0,801
7134.575,0.7348461653174904, -1.4272024766748732, -1.4769842210404445, -1.810577207453571, 1.5721050478134013, 2.327084870192531,0.6512238113187074, -0.2947547145333303, -0.10033983041205412, 0.396509283144828, -0.0006943191821754341, 0.5672204426549166,1.0,-8790.133337996484, -2848.2380045770196, 21692.754642534717, -76.8435055269988, 222.35864103076523, 38.18686041803758,1.0,801
7134.583,0.7360821551956879, -1.4277619062248714, -1.4771746609669547, -1.8098246528754665, 1.5721037300306875, 2.3281614259229,0.6512238113187074, -0.29475471453333035, -0.10033983041205415, 0.3965092831448281, -0.0006943191821754343, 0.5672204426549167,1.0,-8790.811493780979, -2847.29165357294, 21693.498335120414, -76.8372957870601, 222.3104810435093, 38.16711892403421,1.0,801
7134.590999999999,0.7374075059315874, -1.4283617819834467, -1.4773788695136414, -1.8090176893383951, 1.572102316973574, 2.3293158155782288,0.6512238113187074, -0.29475471453333035, -0.10033983041205413, 0.39650928314482803, -0.0006943191821754342, 0.5672204426549167,1.0,-8791.442225499755, -2847.3908840801487, 21693.143518177953, -76.85078127489433, 222.28641077451624, 38.18547550411776,1.0,801
7134.598999999999,0.7388222175251891, -1.4290021039505971, -1.4775968466805018, -1.8081563168423562, 1.572100808642061, 2.3305480391585167,0.6512238113187074, -0.2947547145333303, -0.10033983041205413, 0.39650928314482803, -0.0006943191821754342, 0.5672204426549166,1.0,-8790.78970647855, -2846.904722641757, 21691.87312359723, -76.85265180295457, 222.31322001625063, 38.177876753874926,1.0,801
7134.615,0.7419197232854987, -1.4304040865106273, -1.478074106874752, -1.8062703449733757, 1.5720975061558358, 2.33324598809397,0.6512238113187075, -0.29475471453333035, -0.10033983041205415, 0.39650928314482803, -0.0006943191821754343, 0.5672204426549167,1.0,-8789.304582429371, -2846.915529524458, 21693.035179788923, -76.86348597616842, 222.3872138570954, 38.19765753261683,1.0,801
7134.623,0.7436025174522067, -1.431165747103508, -1.47833338990214, -1.805245745600434, 1.5720957120011239, 2.3347117134491353,0.6512238113187074, -0.29475471453333035, -0.10033983041205413, 0.396509283144828, -0.0006943191821754341, 0.5672204426549166,1.0,-8791.566229523327, -2847.3973319361903, 21693.564103730194, -76.85693567059113, 222.2711386276165, 38.1756457672048,1.0,801
7134.630999999999,0.7453746724766168, -1.431967853904963, -1.4786064415497036, -1.8041667372685257, 1.5720938225720125, 2.3362552727292596,0.6512238113187074, -0.29475471453333035, -0.10033983041205415, 0.396509283144828, -0.0006943191821754342, 0.5672204426549167,1.0,-8791.444394581267, -2846.961728384984, 21692.681794475182, -76.84808572237966, 222.28375190725848, 38.18087054958187,1.0,801
7134.639,0.7472361883587291, -1.4328104069149958, -1.4788932618174426, -1.803033319977649, 1.5720918378685012, 2.3378766659343433,0.6512238113187074, -0.2947547145333303, -0.10033983041205415, 0.39650928314482803, -0.0006943191821754343, 0.5672204426549167,1.0,-8790.113452871223, -2847.480517183636, 21692.57076736804, -76.84588399610871, 222.34382658091278, 38.18660511215424,1.0,801
7134.647,0.7491870650985434, -1.433693406133604, -1.4791938507053572, -1.8018454937278054, 1.5720897578905904, 2.339575893064386,0.6512238113187074, -0.29475471453333035, -0.10033983041205413, 0.39650928314482803, -0.0006943191821754343, 0.5672204426549167,1.0,-8790.188028604958, -2848.0847977696176, 21693.432444817838, -76.83870074629428, 222.3319200842041, 38.18708368399555,1.0,801
7134.655,0.7512273026960598, -1.434616851560789, -1.4795082082134474, -1.8006032585189935, 1.57208758263828, 2.341352954119388,0.6512238113187074, -0.2947547145333303, -0.10033983041205413, 0.396509283144828, -0.0006943191821754342, 0.5672204426549167,1.0,-8790.276330389868, -2846.9574564848954, 21692.461758956568, -76.88298744778726, 222.33131091463991, 38.20472345676197,1.0,801
7134.663,0.7533569011512783, -1.4355807431965504, -1.4798363343417122, -1.7993066143512149, 1.57208531211157, 2.3432078490993495,0.6512238113187075, -0.2947547145333303, -0.10033983041205413, 0.39650928314482803, -0.0006943191821754342, 0.5672204426549167,1.0,-8790.250270416283, -2847.2990783556997, 21693.184027593816, -76.85199544839307, 222.32896296135374, 38.17695653990114,1.0,801
7134.670999999999,0.755575860464199, -1.4365850810408878, -1.4801782290901535, -1.7979555612244686, 1.5720829463104604, 2.34514057800427,0.6512238113187074, -0.29475471453333035, -0.10033983041205413, 0.39650928314482803, -0.0006943191821754342, 0.5672204426549167,1.0,-8792.663847950325, -2847.4989606148665, 21692.87613150493, -76.85190986382659, 222.2358061227618, 38.18851448594134,1.0,801
7134.679,0.7578841806348218, -1.4376298650938013, -1.4805338924587703, -1.7965500991387557, 1.5720804852349513, 2.3471511408341494,0.6512238113187074, -0.2947547145333303, -0.10033983041205413, 0.396509283144828, -0.0006943191821754342, 0.5672204426549166,1.0,-8789.676196928423, -2848.3868523544215, 21692.166178686093, -76.83439482463376, 222.3509581569566, 38.183850566646356,1.0,801
7134.687,0.7602818616631466, -1.438715095355291, -1.4809033244475627, -1.7950902280940744, 1.5720779288850424, 2.3492395375889883,0.6512238113187075, -0.29475471453333035, -0.10033983041205413, 0.396509283144828, -0.0006943191821754342, 0.5672204426549166,1.0,-8789.45168858797, -2847.6414302690027, 21693.221443392224, -76.84752650888859, 222.3654135303608, 38.1757316780575,1.0,801
7134.807,0.806970380012273, -1.4598470943067943, -1.4880970387005092, -1.7666630873477622, 1.572028150708456, 2.389905559906672,0.6512238113187073, -0.2947547145333303, -0.10033983041205412, 0.396509283144828, -0.0006943191821754341, 0.5672204426549166,1.0,-8789.033133058943, -2849.888607624859, 21692.92713285709, -76.7718154712704, 222.39019096162878, 38.19548961866093,1.0,801
7134.815,0.8107978347638315, -1.4615794639055046, -1.4886867686121095, -1.7643326729596023, 1.5720240699681531, 2.393239299460858,0.6512238113187075, -0.29475471453333035, -0.10033983041205413, 0.3965092831448281, -0.0006943191821754343, 0.5672204426549167,1.0,-8789.942955907776, -2845.6134407843083, 21692.134238089224, -76.92168598127972, 222.31610947731122, 38.186716159980165,1.0,801
7134.831,0.8187208268400551, -1.4651655417286547, -1.4899075342958374, -1.7595086173063788, 1.572015622664349, 2.4001402803441065,0.6512238113187074, -0.2947547145333303, -0.10033983041205412, 0.39650928314482803, -0.0006943191821754342, 0.5672204426549166,1.0,-8790.914707250015, -2847.611870744583, 21692.79762739812, -76.85507358220292, 222.29093528800507, 38.193539344913546,1.0,801
7134.839,0.82281636416472, -1.4670192499530943, -1.4905385700679652, -1.757014976041316, 1.5720112561008475, 2.40370752167317,0.6512238113187074, -0.2947547145333303, -0.10033983041205412, 0.396509283144828, -0.0006943191821754341, 0.5672204426549166,1.0,-8789.705672353555, -2848.758988277782, 21692.36848557654, -76.80631054113783, 222.3242260289714, 38.18616036710239,1.0,801
7134.855,0.8312755213871563, -1.470848005027701, -1.4918419474727456, -1.751864466634288, 1.5720022371506455, 2.411075506106174,0.6512238113187074, -0.29475471453333035, -0.10033983041205415, 0.39650928314482803, -0.0006943191821754342, 0.5672204426549167,1.0,-8788.798274770861, -2848.128753281834, 21692.495053123614, -76.85063733011853, 222.38609076113778, 38.19357241296623,1.0,801
7134.862999999999,0.8356391412849276, -1.47282305187787, -1.492514289105399, -1.7492075984923234, 1.5719975847639451, 2.414876249210115,0.6512238113187074, -0.2947547145333303, -0.10033983041205412, 0.396509283144828, -0.0006943191821754341, 0.5672204426549166,1.0,-8791.296478302442, -2846.869809339165, 21692.970101172374, -76.87169605493679, 222.27551057769512, 38.16514191203635,1.0,801
7134.871,0.840092122040401, -1.4748385449366141, -1.493200399358229, -1.7464963213913904, 1.571992837102845, 2.418754826239015,0.6512238113187075, -0.2947547145333303, -0.10033983041205415, 0.3965092831448281, -0.0006943191821754342, 0.5672204426549167,1.0,-8790.760457161785, -2848.426621626597, 21692.46670998151, -76.81115433437017, 222.28971377021765, 38.17339094237522,1.0,801
7134.879,0.8446344636535765, -1.4768944842039353, -1.4939002782312336, -1.7437306353314908, 1.5719879941673456, 2.422711237192874,0.6512238113187074, -0.29475471453333035, -0.10033983041205415, 0.3965092831448281, -0.0006943191821754343, 0.5672204426549167,1.0,-8790.984952861809, -2847.2246290786534, 21692.1766908832, -76.85338912983357, 222.27840188687452, 38.15082521776125,1.0,801
7134.887,0.8492661661244542, -1.4789908696798317, -1.4946139257244138, -1.7409105403126226, 1.5719830559574464, 2.4267454820716923,0.6512238113187074, -0.2947547145333303, -0.10033983041205412, 0.39650928314482803, -0.0006943191821754341, 0.5672204426549166,1.0,-8789.798295667057, -2846.887831041883, 21692.485294484606, -76.86508634122202, 222.3137395091431, 38.159956262282606,1.0,801
7134.8949999999995,0.8539872294530338, -1.4811277013643052, -1.4953413418377703, -1.7380360363347878, 1.5719780224731474, 2.4308575608754697,0.6512238113187074, -0.29475471453333035, -0.10033983041205413, 0.39650928314482803, -0.0006943191821754342, 0.5672204426549167,1.0,-8789.384030479363, -2848.5750135823846, 21692.07418473487, -76.82224971433695, 222.3423999704583, 38.18554722586188,1.0,801
7134.902999999999,0.8587976536393157, -1.4833049792573547, -1.4960825265713016, -1.7351071233979853, 1.571972893714449, 2.4350474736042065,0.6512238113187074, -0.2947547145333303, -0.10033983041205413, 0.39650928314482803, -0.0006943191821754341, 0.5672204426549167,1.0,-8790.916433904109, -2848.359325464893, 21692.702334555164, -76.8125790079794, 222.2703141000406, 38.17342085433208,1.0,801
7134.911,0.8636974386832996, -1.4855227033589813, -1.4968374799250084, -1.7321238015022153, 1.571967669681351, 2.4393152202579023,0.6512238113187075, -0.29475471453333035, -0.10033983041205413, 0.39650928314482803, -0.0006943191821754342, 0.5672204426549166,1.0,-8790.192960293873, -2847.6779529331725, 21692.155767720997, -76.83610016733184, 222.28365261294175, 38.18438043458093,1.0,801
7134.919,0.8686865845849857, -1.487780873669183, -1.4976062018988907, -1.7290860706474787, 1.5719623503738533, 2.4436608008365575,0.6512238113187074, -0.2947547145333303, -0.10033983041205412, 0.39650928314482803, -0.0006943191821754342, 0.5672204426549166,1.0,-8790.54005551392, -2848.272449315109, 21692.138144644625, -76.81690604627508, 222.28041768051446, 38.15556760672848,1.0,801
7134.927,0.8737349557345437, -1.4900658503103674, -1.4983840492321718, -1.726012279439649, 1.5719569679218193, 2.448057967015632,0.6512238113187074, -0.2947547145333303, -0.10033983041205415, 0.39650928314482803, -0.0006943191821754342, 0.5672204426549166,1.0,-8791.374053398162, -2847.337540693321, 21693.06928099765, -76.85096963174331, 222.2718850401468, 38.1885970013966,1.0,801
7134.9349999999995,0.8787096753282164, -1.4923174910339263, -1.499150548416786, -1.72298333230097, 1.5719516639953046, 2.4523909821802548,0.6512238113187074, -0.29475471453333035, -0.10033983041205416, 0.39650928314482803, -0.0006943191821754342, 0.5672204426549166,1.0,-8789.493380903426, -2844.0203794351664, 21692.911559104105, -76.94028036830821, 222.34621482031434, 38.18616650260421,1.0,801
7134.942999999999,0.8835950340641873, -1.494528685548909, -1.4999032789812237, -1.7200087941212576, 1.5719464553431897, 2.4566461634199177,0.6512238113187074, -0.2947547145333303, -0.10033983041205416, 0.39650928314482803, -0.0006943191821754342, 0.5672204426549166,1.0,-8790.31189936838, -2843.2497891723106, 21693.832339542223, -76.9656868408303, 222.31320214869038, 38.182787382346476,1.0,801
7134.951,0.8883910319424559, -1.4966994338553148, -1.5006422409254867, -1.7170886649005137, 1.5719413419654742, 2.460823510734622,0.6512238113187074, -0.2947547145333303, -0.10033983041205415, 0.396509283144828, -0.0006943191821754341, 0.5672204426549166,1.0,-8792.458082946108, -2845.4077441089967, 21694.00944433739, -76.88501403116408, 222.21640575520024, 38.17935058985671,1.0,801
7134.959,0.8930976689630226, -1.4988297359531453, -1.5013674342495733, -1.7142229446387365, 1.5719363238621584, 2.464923024124367,0.6512238113187075, -0.29475471453333035, -0.10033983041205417, 0.3965092831448281, -0.0006943191821754342, 0.5672204426549166,1.0,-8789.526852824778, -2845.120259781369, 21694.018755942187, -76.88474444916682, 222.3277625896576, 38.15512746789341,1.0,801
7134.967,0.8977149451258871, -1.5009195918423988, -1.5020788589534844, -1.711411633335926, 1.5719314010332421, 2.4689447035891527,0.6512238113187075, -0.29475471453333035, -0.10033983041205416, 0.3965092831448281, -0.0006943191821754343, 0.5672204426549167,1.0,-8788.116935563778, -2843.365119818279, 21694.25492651203, -76.97353343739158, 222.39183560532257, 38.19384154919592,1.0,801
7134.974999999999,0.9022428604310495, -1.502969001523076, -1.5027765150372208, -1.7086547309920839, 1.5719265734787256, 2.4728885491289794,0.6512238113187074, -0.29475471453333035, -0.10033983041205417, 0.3965092831448281, -0.0006943191821754343, 0.5672204426549167,1.0,-8789.441412811706, -2844.0036446479517, 21692.946367203458, -76.9603084612593, 222.34433456577574, 38.20768013598396,1.0,801
7134.982999999999,0.9066814148785096, -1.5049779649951773, -1.5034604025007807, -1.7059522376072094, 1.5719218411986087, 2.4767545607438466,0.6512238113187074, -0.29475471453333035, -0.10033983041205415, 0.39650928314482803, -0.0006943191821754341, 0.5672204426549166,1.0,-8791.971912915376, -2843.8816823261304, 21693.723103908233, -76.94966302419047, 222.2408293383305, 38.177445782331205,1.0,801
7134.991,0.9110306084682678, -1.5069464822587024, -1.5041305213441651, -1.7033041531813016, 1.5719172041928913, 2.4805427384337553,0.6512238113187074, -0.2947547145333303, -0.10033983041205415, 0.39650928314482803, -0.0006943191821754342, 0.5672204426549164,1.0,-8790.805305137308, -2845.4108165885837, 21693.52028143839, -76.90301903039168, 222.27923612960234, 38.17538095362869,1.0,801
7134.999,0.9152904412003239, -1.5088745533136514, -1.504786871567375, -1.7007104777143622, 1.5719126624615734, 2.484253082198704,0.6512238113187073, -0.2947547145333303, -0.10033983041205415, 0.39650928314482803, -0.0006943191821754341, 0.5672204426549166,1.0,-8789.160183752194, -2846.328993212428, 21693.066126785026, -76.87256415550033, 222.3345387190435, 38.16548873092037,1.0,801
7135.007,0.9194609130746778, -1.5107621781600233, -1.5054294531704082, -1.6981712112063896, 1.5719082160046554, 2.487885592038694,0.6512238113187074, -0.2947547145333303, -0.10033983041205416, 0.3965092831448281, -0.0006943191821754342, 0.5672204426549166,1.0,-8789.416519352357, -2846.5531931992564, 21692.902973051052, -76.91408948053575, 222.32286375692968, 38.17879900821478,1.0,801
7135.014999999999,0.9235420240913297, -1.5126093567978192, -1.5060582661532669, -1.6956863536573845, 1.5719038648221368, 2.491440267953725,0.6512238113187075, -0.29475471453333035, -0.10033983041205415, 0.39650928314482803, -0.0006943191821754342, 0.5672204426549166,1.0,-8790.441479360394, -2844.3111304686236, 21692.1334553697, -76.94614739160616, 222.28704958874238, 38.164425621202554,1.0,801
7135.022999999999,0.9275337742502794, -1.5144160892270389, -1.506673310515949, -1.693255905067347, 1.571899608914018, 2.4949171099437963,0.6512238113187075, -0.29475471453333035, -0.10033983041205417, 0.3965092831448281, -0.0006943191821754342, 0.5672204426549166,1.0,-8789.025346442324, -2844.0342222070185, 21693.168986087265, -76.94566343932155, 222.32461897483603, 38.16575207793673,1.0,801
7135.031,0.931436163551527, -1.5161823754476824, -1.5072745862584558, -1.690879865436277, 1.5718954482802987, 2.4983161180089084,0.6512238113187075, -0.29475471453333035, -0.10033983041205417, 0.3965092831448281, -0.0006943191821754343, 0.5672204426549166,1.0,-8788.940695558256, -2845.796247736538, 21693.388000210587, -76.87557992027078, 222.31009248081745, 38.15095053711926,1.0,801
7135.039,0.9352491919950725, -1.5179082154597499, -1.5078620933807878, -1.6885582347641748, 1.5718913829209789, 2.5016372921490615,0.6512238113187074, -0.2947547145333303, -0.10033983041205415, 0.39650928314482803, -0.0006943191821754342, 0.5672204426549166,1.0,-8789.773379340102, -2844.4296498209387, 21693.301455040746, -76.93111579379806, 222.28951784310163, 38.162094670958595,1.0,801
7135.047,0.9389747134075347, -1.5195940248875228, -1.508443788983704, -1.6862826340817785, 1.571887413680768, 2.5048829480574306,0.6497633580832485, -0.29385390469680156, -0.10447474058473923, 0.39974147096425205, -0.000691161017685544, 0.5663468623152763,1.0,-8789.59241652715, -2844.312683237219, 21693.818056921165, -76.94562231379507, 222.30107645975357, 38.186608215702705,1.0,801
7135.054999999999,0.9426231248050546, -1.5212421053028837, -1.5090656364386739, -1.684004763025321, 1.5718835456710059, 2.508066199573911,0.6449162840560385, -0.29090472965746067, -0.11776120765605771, 0.4100722945216302, -0.0006808835841597237, 0.5634092406563528,1.0,-8787.438413248765, -2846.5330787516314, 21692.77375835756, -76.88681433869331, 222.4440651645645, 38.199664682192804,1.0,801
7135.063,0.9462053265543401, -1.5228547876500667, -1.5097796327419157, -1.6816702553781155, 1.5718797853109763, 2.5112011559565968,0.6366770496527523, -0.28599532565957014, -0.13902005267719494, 0.42641036663867526, -0.0006639822475366519, 0.5582975832390992,1.0,-8791.591424403661, -2843.473345437078, 21693.043406041812, -76.96330391919432, 222.23609116264578, 38.173528210185964,1.0,801
7135.071,0.949729638838181, -1.5244337431663517, -1.5106306518891301, -1.6792325351366175, 1.5718761389342892, 2.5142990779212364,0.6250493166099444, -0.27923589980549585, -0.1666981688607866, 0.4473123537760105, -0.0006410927667291427, 0.550875332287757,1.0,-8791.399233551647, -2845.76462053237, 21692.25236108754, -76.88957496721412, 222.2650392338179, 38.191884436623525,1.0,801
7135.079,0.9532019810394631, -1.5259800370562502, -1.511656796082728, -1.676652411148929, 1.571872612742192, 2.5173685624822384,0.610137263111687, -0.2707893203151523, -0.19904879070003864, 0.471194081322635, -0.0006130233734285544, 0.5410739367365162,1.0,-8789.733457013854, -2847.801355930793, 21691.715530834306, -76.83628573371544, 222.3296858332065, 38.16805720991525,1.0,801
7135.0869999999995,0.9566260523067617, -1.527494182432667, -1.5128897519179096, -1.673897666503529, 1.5718692127573954, 2.5204157292608564,0.5922104066331679, -0.26089108625420104, -0.23429482186928985, 0.4965140160765487, -0.0005807650873470534, 0.5289632372719006,1.0,-8789.75999623247, -2844.981168779912, 21691.11790224437, -76.94071799875763, 222.32722322565826, 38.18196509874511,1.0,801
7135.094999999999,0.9600035121199346, -1.528976194258071, -1.5143551465687466, -1.6709426479179976, 1.5718659447778967, 2.5234444067933763,0.571711141378121, -0.24984395146697247, -0.2707876008582993, 0.5219267177063219, -0.0005454415567964871, 0.5147724252509212,1.0,-8789.24292466468, -2845.4287039803094, 21690.2997009789, -76.93033600820749, 222.3164648290135, 38.19120655190369,1.0,801
7135.103,0.9633341608557155, -1.5304256432856613, -1.5160729039742558, -1.667767855127746, 1.5718628143308047, 2.5264563188393003,0.5492097022924823, -0.23799089621994626, -0.3071333532892689, 0.5463822036512963, -0.000508213892049485, 0.4988630761775339,1.0,-8790.62832632488, -2844.5190791253654, 21690.90712348562, -76.93423024133682, 222.24298620238164, 38.16957873732477,1.0,801
7135.111,0.966616120353307, -1.531841710000533, -1.5180576010244833, -1.6643595302747407, 1.5718598266261643, 2.529451270689535,0.5253296627042057, -0.22567806933592707, -0.34226549567550657, 0.5691610577833903, -0.00047017383688636766, 0.48167204009922454,1.0,-8789.353715516349, -2845.6581611106203, 21690.78148379603, -76.90620932478089, 222.30400329662484, 38.17646343014741,1.0,801
7135.119,0.9698460144799738, -1.5332232385608453, -1.5203188237465772, -1.6607092472962321, 1.5718569865107812, 2.5324273354745754,0.5006718253061994, -0.21322045475028364, -0.37545792906738384, 0.5898532329711067, -0.00043225739017627114, 0.4636475830069151,1.0,-8789.624195774157, -2845.9693284993127, 21690.519447353683, -76.89557681037454, 222.2999689642412, 38.17590910720932,1.0,801
7135.1269999999995,0.973019149696636, -1.534568790738989, -1.522861523490871, -1.6568135013134793, 1.5718542984220452, 2.535381040472693,0.47575680686958616, -0.2008786365330154, -0.4062912227477644, 0.6083008682837243, -0.00039519641949891336, 0.44519723032053504,1.0,-8789.174648293776, -2845.0735070781875, 21690.305467528804, -76.94831729535159, 222.31096272098108, 38.20798992665277,1.0,801
7135.134999999999,0.9761296956234627, -1.5358766998627527, -1.525686373116959, -1.6526732980204795, 1.571851766341756, 2.5383075534181203,0.45099412629060337, -0.18884894730448162, -0.43459196902744657, 0.6245277092311324, -0.00035950905499867596, 0.42665583878105406,1.0,-8789.087807546315, -2846.075006137233, 21690.71693372568, -76.91012436789273, 222.33757668080472, 38.190100170216,1.0,801
7135.143,0.9791708656054645, -1.5371451247564911, -1.5287901231797765, -1.6482937430726956, 1.571849393749947, 2.5412008688092373,0.4266753274722256, -0.17726473926542757, -0.46036472914373, 0.6386722906066957, -0.0003255188155935827, 0.4082735511256471,1.0,-8789.558952517395, -2845.1688472866344, 21691.186878657256, -76.91385320700618, 222.32886775855127, 38.17993789887856,1.0,801
7135.151,0.9821350972780871, -1.5383721036822884, -1.5321659581156801, -1.6436836314757768, 1.57184718357871, 2.544053994216758,0.40298363402533155, -0.16620463260228097, -0.4837298764114446, 0.6509340307387311, -0.0002933892794021899, 0.39021842476388297,1.0,-8791.086341284708, -2845.3692733183234, 21691.17068321174, -76.88803027181561, 222.2505047188361, 38.17372858273282,1.0,801
7135.159,0.9850142331328047, -1.5395556082811304, -1.5358038524285202, -1.6388550369742951, 1.5718451381660192, 2.5468591365919155,0.3800121353467384, -0.15570378838710217, -0.5048737387586278, 0.6615346712565454, -0.00026316319862109945, 0.37258747248616236,1.0,-8789.784372308399, -2845.9859698470373, 21690.754895204736, -76.87518880289349, 222.3059377698607, 38.16330322442349,1.0,801
7135.1669999999995,0.9877997010827126, -1.5406935975140676, -1.5396909268757284, -1.633822901440464, 1.5718432592095564, 2.549607888574649,0.3577843901626715, -0.14576540607232086, -0.5240122839203567, 0.6706934931219619, -0.00023479897010833295, 0.35542099825752094,1.0,-8788.831126619674, -2844.477027961503, 21691.26050995839, -76.94723286286796, 222.33375608429685, 38.18781212218366,1.0,801
7135.174999999999,0.9904826950281213, -1.5417840716033826, -1.5438118046543865, -1.62860462426287, 1.5718415477205347, 2.552291414801788,0.3362737624895448, -0.13637090184174863, -0.5413667311453864, 0.6786131407549405, -0.00020820109424681528, 0.33871692908381795,1.0,-8788.359160068274, -2844.4788593609837, 21691.03615846599, -76.94268040367581, 222.3552893130016, 38.200279051402305,1.0,801
7135.191,0.9955059498363144, -1.543815005193454, -1.5526831123091398, -1.6176890664449566, 1.571838627480273, 2.55742642637018,0.2951413385416596, -0.11907799695627058, -0.5715501860688086, 0.6914259264822542, -0.00015978863855092235, 0.306549455039766,1.0,-8789.30078825236, -2844.997860706256, 21692.71337906154, -76.91515606325282, 222.30767760651662, 38.178514497961146,1.0,801
7135.214999999999,1.0020587115683077, -1.546463407548937, -1.5672551056391466, -1.6004503814445714, 1.5718354838086057, 2.5644149365064886,0.2368318865382597, -0.09627392496282161, -0.608055990149273, 0.7050160215092095, -9.709608397310329e-05, 0.2605039380167704,1.0,-8788.165603611616, -2843.6256247307547, 21691.23882908656, -76.96752943253736, 222.3681076005259, 38.19113297276479,1.0,801
7135.223,1.003951579942004, -1.5472359026605815, -1.5723609066118645, -1.5945665254611079, 1.5718347540993638, 2.56652107223087,0.2179373227037164, -0.0893602799604863, -0.6183970923489213, 0.7084069935895883, -7.837587845399471e-05, 0.2454844703909032,1.0,-8788.42540595588, -2845.8794279557396, 21693.36418766383, -76.9083678512637, 222.33361406145355, 38.1842324017683,1.0,801
7135.231,1.0056889467652146, -1.5479525705571469, -1.5775528612365681, -1.5886526426654504, 1.5718341758361971, 2.5685038004580605,0.1991868212407088, -0.08274491609033284, -0.6279688744158075, 0.7113270680703495, -6.060456134672222e-05, 0.23053585497205667,1.0,-8789.568963585849, -2844.100072091528, 21693.502287884454, -76.92192588853854, 222.29416723049758, 38.19627207971405,1.0,801
7135.239,1.007266634197323, -1.5486136834327935, -1.5828084349264095, -1.582731010571326, 1.5718337428762523, 2.5703575688947193,0.1805284970275256, -0.07641315852497851, -0.6368251953606034, 0.713815337769253, -4.37367481638785e-05, 0.21561962612807897,1.0,-8789.155574416935, -2844.395169180336, 21693.64659753435, -76.92778874093386, 222.31875472363004, 38.17686431157907,1.0,801
7135.246999999999,1.0086818554752666, -1.5492200402134175, -1.588105801208906, -1.5768226687073756, 1.5718334479746283, 2.572078074018073,0.16193417615782943, -0.07036118391023513, -0.6449997612830054, 0.7159016382753699, -2.7757949005998326e-05, 0.2007156642612601,1.0,-8789.174898969795, -2843.584307689225, 21692.366892770628, -76.97158611503895, 222.32510916320126, 38.19137163084508,1.0,801
7135.255,1.009933395479129, -1.5497730204978204, -1.5934241979120145, -1.5709470080058825, 1.5718332827382002, 2.573662447384098,0.14340588956135233, -0.06459791555883398, -0.652507494900342, 0.717609826562642, -1.2688639826702743e-05, 0.18582778560587837,1.0,-8787.897176170127, -2844.1719239786953, 21692.37912212796, -76.9547497634681, 222.369341888905, 38.18784807589989,1.0,801
7135.263,1.0110217912977348, -1.5502746384988715, -1.5987442833502135, -1.5651213601914966, 1.571833237579444, 2.5751094419357092,0.12498352396487801, -0.059147119437975786, -0.6593461692379228, 0.7189615270009622, 1.4113107169210031e-06, 0.17099031785817542,1.0,-8788.77026775111, -2843.0257455678093, 21693.88944822761, -76.97282129629664, 222.32208420438917, 38.18873627132663,1.0,801
7135.271,1.0119495127942415, -1.5507275969846788, -1.6040484925105778, -1.5593605871699623, 1.5718333016702604, 2.576419618310946,0.10675369845918573, -0.05404966586258776, -0.6654984987071816, 0.7199805030877675, 1.4438002579434872e-05, 0.15627573282165255,1.0,-8789.164287330987, -2843.9416804711163, 21693.970452480626, -76.93721199026984, 222.33321879712372, 38.18153955382695,1.0,801
7135.286999999999,1.0133435595388125, -1.5515021129061788, -1.6145500424255683, -1.548078300366261, 1.5718337078082885, 2.578641915409187,0.07151198428331858, -0.045177349807656746, -0.6756169173656377, 0.7211569510035428, 3.66098128098192e-05, 0.12774769984844128,1.0,-8788.283797069123, -2845.2299088705304, 21693.786667699816, -76.92039533323268, 222.37586797495743, 38.19295706798525,1.0,801
7135.295,1.0138261134751971, -1.5518330041247754, -1.6197243421920433, -1.5425704657995976, 1.5718340215808482, 2.5795658726575614,0.0549982588132452, -0.041588903659946205, -0.6795016121545062, 0.7214204651526647, 4.529176648674834e-05, 0.11434869525653049,1.0,-8788.76979192542, -2844.3908705572467, 21692.80363544566, -76.94355505638262, 222.3640973002037, 38.20129622412264,1.0,801
7135.311,1.0144224961238713, -1.5524120890224617, -1.629885865220304, -1.5318253863123328, 1.5718347892261149, 2.581087863362976,0.026054656980120803, -0.03674453422906954, -0.6847105089217401, 0.7217275497538171, 5.629750507969858e-05, 0.09083971478935232,1.0,-8790.040981287597, -2844.5621554361633, 21693.737903531255, -76.93586467446679, 222.27844946560504, 38.19062213376543,1.0,801
7135.3189999999995,1.0145690254414974, -1.5526752042273877, -1.6348703245536509, -1.5265759151894276, 1.5718352061339813, 2.581713609837152,0.014636046841760562, -0.035803128146422517, -0.6859620015514319, 0.7220150095329649, 5.7872357954322756e-05, 0.08157436628765564,1.0,-8789.223867730836, -2846.574860867019, 21693.55640936514, -76.87503026274968, 222.33965815746672, 38.18634430450254,1.0,801
7135.326999999999,1.0146414546702882, -1.5529323898984924, -1.6397956189820455, -1.5213917059232953, 1.5718356178798873, 2.5822727279523177,0.006056886601747779, -0.03607682715823736, -0.6862709309127556, 0.7225807278965659, 5.629600760913977e-05, 0.07463963125750747,1.0,-8789.38927178951, -2844.721642045787, 21693.574593780337, -76.94841147970365, 222.32239381659002, 38.20373094877394,1.0,801
7135.335,1.0146642162294233, -1.5531937991277927, -1.6446712195721762, -1.5162530798626026, 1.571836002048816, 2.582786947002198,0.0009817501950980566, -0.037731373945179864, -0.6856050261449029, 0.7235595373903079, 5.118902219763248e-05, 0.07058839099184926,1.0,-8788.092323530684, -2846.292664107432, 21693.122103747544, -76.90340401585101, 222.37507403217046, 38.19587348250616,1.0,801
7135.343,1.0146651158706126, -1.5534706863960155, -1.6495114609942556, -1.5111343848278427, 1.5718363347267823, 2.5832813124147527,-0.00012814720886459874, -0.04083735215842251, -0.6839623312765091, 0.7250210123249721, 4.2417294676539765e-05, 0.06980224587956055,1.0,-8789.610092661638, -2845.204541799847, 21693.323638602167, -76.93856310798014, 222.30614922916715, 38.192641662875275,1.0,801
7135.351,1.014664235020453, -1.5537710560384488, -1.6543283104856217, -1.506015603252953, 1.5718365993423808, 2.5837740530995403,-0.00012165684842914362, -0.04434780557547764, -0.6820409038711789, 0.726610471179945, 3.2614158446323204e-05, 0.06993343188211977,1.0,-8790.653547379827, -2846.753120240346, 21692.92710952947, -76.86703064834037, 222.26710997332282, 38.180405745673994,1.0,801
7135.3589999999995,1.0146634012644056, -1.5540956567604605, -1.6591229921989123, -1.500894758133434, 1.5718367943101796, 2.584266832857317,-0.00011521281601247949, -0.04787299747310068, -0.6800982954190505, 0.728193480271127, 2.2764543685682678e-05, 0.07006230212781178,1.0,-8789.336630713571, -2848.105094438225, 21692.461320660608, -76.84561652234567, 222.31243044008528, 38.18603781591321,1.0,801
7135.366999999999,1.0146626140865456, -1.5544445168830503, -1.6638955890752793, -1.495771738208422, 1.5718369195564201, 2.584759651095562,-0.00010881491694954454, -0.05141280302520524, -0.6781343995867258, 0.729769808411025, 1.2868893995757354e-05, 0.07018884888416145,1.0,-8790.112347878712, -2846.14343330097, 21693.000092139842, -76.92038765916857, 222.28817928530987, 38.20424392374818,1.0,801
7135.375,1.0146618729763148, -1.554817666056974, -1.668646181244184, -1.4906464336989949, 1.571836975004199, 2.58525250722158,-0.00010246341592657013, -0.05496709165502295, -0.6761491134476715, 0.7313392220693286, 2.9276712337997737e-06, 0.07031306403949758,1.0,-8788.63645005951, -2847.1688762726762, 21691.82033140622, -76.89105451455305, 222.35601765182605, 38.19733682760955,1.0,801
7135.383,1.0146611774282925, -1.5552151352294565, -1.673374846068434, -1.4855187362964166, 1.571836960573571, 2.585745400642231,-9.61585757317246e-05, -0.05853572716462427, -0.6741423374837202, 0.7329014855022639, -7.058644101356091e-06, 0.07043493955114412,1.0,-8789.561920856995, -2846.399506890494, 21693.07415516159, -76.9122998477151, 222.28669496048167, 38.2004978356903,1.0,801
7135.391,1.0146605269421056, -1.555636956611293, -1.6780816581880273, -1.4803885391511944, 1.5718368761816564, 2.586238330763846,-8.990065518270009e-05, -0.06211856770495183, -0.672113975694021, 0.7344563608342647, -1.708955357096022e-05, 0.07055446746287546,1.0,-8789.489958060505, -2846.6825652803554, 21693.092274670053, -76.86332473153638, 222.28278250546163, 38.18552397377741,1.0,801
7135.398999999999,1.0146599210223362, -1.5560831636442387, -1.6827666895627615, -1.4752557368630779, 1.5718367217427491, 2.586731296992092,-8.368991047600982e-05, -0.06571546575230498, -0.6700639357063285, 0.7360036081414634, -2.716453859820779e-05, 0.07067163990977461,1.0,-8789.773293252845, -2846.023514384302, 21692.873269936732, -76.89668053835334, 222.26671637962806, 38.18054971353405,1.0,801
7135.406999999999,1.0146593591784396, -1.55655379096868, -1.687430009513652, -1.470120225471974, 1.5718364971684202, 2.587224298731896,-7.752659289390062e-05, -0.06932626808198045, -0.6679921288849434, 0.7375429855393645, -3.728306483956417e-05, 0.07078644914719148,1.0,-8788.469958916834, -2846.7052559142658, 21693.065113264165, -76.87976486404318, 222.34720774151634, 38.19671893718015,1.0,801
7135.415,1.0146588409246606, -1.557048874391537, -1.69207168476321, -1.4649819024497654, 1.5718362023676278, 2.587717335387327,-7.141095215089086e-05, -0.07295081575334643, -0.6658984704422475, 0.7390742492720646, -4.7444573557582215e-05, 0.07089888755135278,1.0,-8788.623708572102, -2846.572144857124, 21692.233343140742, -76.90024025668541, 222.34490769294592, 38.19802704433113,1.0,801
7135.423,1.0146583657799526, -1.5575684508543972, -1.6966917794746132, -1.4598406666929984, 1.5718358372468177, 2.5882104063614944,-6.534323157098242e-05, -0.07658894408849264, -0.6637828795464417, 0.7405971538059174, -5.7648491972852974e-05, 0.07100894764698126,1.0,-8789.695811702264, -2846.1455753577784, 21693.11851173502, -76.91036110127058, 222.28198784750685, 38.202736820205786,1.0,801
7135.431,1.014657933267899, -1.5581125584018523, -1.7012903552898049, -1.4546964185164581, 1.5718354017100358, 2.588703511056453,-5.932367272677042e-05, -0.08024048266569517, -0.6616452794295997, 0.7421114519265526, -6.789422496753173e-05, 0.0711166221121565,1.0,-8790.649125081942, -2845.7808486855856, 21692.772369800212, -76.88921982813335, 222.24708018155133, 38.192440969339685,1.0,801
7135.438999999999,1.0146575429166365, -1.5586812361500044, -1.7058674713665667, -1.4495490596475822, 1.571834895659034, 2.5891966488731044,-5.3352511514113306e-05, -0.0839052553065215, -0.6594855974969395, 0.74361689483624, -7.818115776348456e-05, 0.07122190380337061,1.0,-8789.935070148156, -2846.6664714893814, 21693.24251775406, -76.88462872240456, 222.2803373755363, 38.19709268263978,1.0,801
7135.447,1.0146571942587823, -1.5592745242551276, -1.7104231844146067, -1.4443984932217155, 1.5718343189933757, 2.5896898192110958,-4.742998075717869e-05, -0.08758308007268217, -0.6573037654326, 0.7451132322581557, -8.850865741149391e-05, 0.0713247857587085,1.0,-8789.310157467618, -2847.0197893990116, 21693.229926728152, -76.89251361619964, 222.31827562694173, 38.20088915985178,1.0,801
7135.455,1.0146568868313626, -1.5598924638824645, -1.7149575487306814, -1.4392446237781868, 1.5718336716105468, 2.5901830214687256,-4.155630906638446e-05, -0.0912737692656098, -0.6550997193060886, 0.7466002125399929, -9.887606874715846e-05, 0.07142526122434503,1.0,-8788.59657154276, -2846.960256339522, 21691.939528014926, -76.8966826607037, 222.32339287417471, 38.19931448714945,1.0,801
7135.471,1.0146563938375588, -1.5612024672231337, -1.723962436493565, -1.4289266009974888, 1.5718321642735704, 2.5911695193287927,-2.9956428805313305e-05, -0.09869296135012871, -0.6506247517012513, 0.7495450888494838, -0.00011972791215594194, 0.07161896678314861,1.0,-8790.215808435223, -2845.7013673892634, 21692.596077519724, -76.91384643429913, 222.256440542299, 38.19294682714124,1.0,801
7135.478999999999,1.0146562073666519, -1.561894618032409, -1.7284330567725839, -1.423762263734842, 1.5718313041049772, 2.591662813720245,-2.4230653470551447e-05, -0.10242106008639533, -0.6483537252267966, 0.7510024756842375, -0.00013021093558127794, 0.07171218452570194,1.0,-8788.902207897796, -2847.4751951248054, 21692.253012668676, -76.86284400314042, 222.32628427984656, 38.200755728636665,1.0,801
7135.487,1.0146560603170067, -1.5626115944939807, -1.7328825220481558, -1.4185942556012812, 1.5718303727905407, 2.5921561376091855,-1.8554601532446902e-05, -0.10616121496430479, -0.6460602749016556, 0.7524494872224288, -0.00014073105300789569, 0.07180297111193544,1.0,-8789.538006466104, -2845.7866325147706, 21693.032960527817, -76.93751802277097, 222.28778696552752, 38.20704285089056,1.0,801
7135.495,1.0146559522466876, -1.5633534423531081, -1.7373108750480837, -1.4134224881250894, 1.5718293702189912, 2.5926494903857846,-1.2928476329157762e-05, -0.10991320960905063, -0.6437443602689763, 0.7538858666133581, -0.00015128750998552284, 0.07189132104011721,1.0,-8787.89350563237, -2847.7411981762807, 21692.515568262475, -76.87566792126574, 222.3596505069121, 38.19957640022375,1.0,801
7135.503,1.0146558827177805, -1.5641202081784602, -1.7417181562797657, -1.4082468742315468, 1.5718282962776404, 2.593142871438318,-7.352476394313486e-06, -0.11367682196704935, -0.6414059458642568, 0.7553113563216879, -0.00016187952950039627, 0.07197722910685883,1.0,-8788.925978807883, -2846.744089630586, 21693.79248502435, -76.90331143713627, 222.31056333677742, 38.20445882141016,1.0,801
7135.5109999999995,1.0146558512963344, -1.5649119393312994, -1.7461044040595235, -1.4030673282444184, 1.5718271508524921, 2.5936362801530812,-1.8267940909959936e-06, -0.11745182433413133, -0.6390450013113881, 0.7567256982510828, -0.00017250631670197522, 0.07206069042242874,1.0,-8790.685039650394, -2845.825512693219, 21692.895081894123, -76.91504024612283, 222.242666909413, 38.19604149886791,1.0,801
7135.518999999999,1.0146558575523028, -1.565728683934636, -1.7504696545412362, -1.397883765888169, 1.5718259338283633, 2.594129715914306,3.6483832183314567e-06, -0.12123798339178334, -0.6366615014149832, 0.7581286338711019, -0.00018316705290542275, 0.07214170042610357,1.0,-8789.493177292317, -2847.0281650583483, 21692.61607766022, -76.88489347976375, 222.28338132539903, 38.19401584260143,1.0,801
7135.527,1.0146559010594902, -1.5665704908423592, -1.754813941744283, -1.3926961042908887, 1.571824645088993, 2.594623178104078,9.072874105089595e-06, -0.12503506024344874, -0.6342554262505784, 0.7595199043468857, -0.00019386090087733106, 0.07222025490225134,1.0,-8789.687006199849, -2845.6120221571264, 21692.65029697019, -76.93359732075695, 222.2759682078967, 38.20230506055722,1.0,801
7135.535,1.0146559813955, -1.5674374096083064, -1.7591372975808346, -1.3875042619879263, 1.5718232845171607, 2.595116666102244,1.444650362308858e-05, -0.1288428104600422, -0.631826761252409, 0.7608992506704453, -0.00020458700214428608, 0.0722963499954253,1.0,-8787.744723043377, -2848.051146674844, 21691.5748073692, -76.85927766291485, 222.37547887204028, 38.200657268674746,1.0,801
7135.543,1.0146560981416815, -1.5683294904552687, -1.7634397518825091, -1.382308158926234, 1.5718218519948008, 2.595610179286348,1.976910289984445e-05, -0.13266098412703198, -0.6293754972990071, 0.7622664137941165, -0.0002153444778526268, 0.0723699822265449,1.0,-8789.584167599925, -2846.1010808010615, 21693.034291441272, -76.93328269004431, 222.27430240218962, 38.21075586580494,1.0,801
7135.5509999999995,1.014656250883081, -1.5692467842439264, -1.7677213324264205, -1.3771077164693803, 1.5718203474031243, 2.5961037170315397,2.504050926126828e-05, -0.1364893258983956, -0.6269016307956414, 0.7636211347658763, -0.00022613242772228176, 0.07244114851063765,1.0,-8789.07369670704, -2847.227791687774, 21692.93134414407, -76.86831959513816, 222.29211077686227, 38.198579858594115,1.0,801
7135.558999999999,1.0146564392083943, -1.5701893424416724, -1.7719820649606426, -1.3719028574032643, 1.5718187706227338, 2.596597278710501,3.0260566567589168e-05, -0.14032757505602522, -0.6244051637522761, 0.7649631548686496, -0.0002369499317921455, 0.07250984616463682,1.0,-8788.772950156696, -2847.3375734342235, 21692.86864638986, -76.86511007553881, 222.3099634522643, 38.19519244238384,1.0,801
7135.567,1.014656662709915, -1.5711572170913382, -1.776221973229113, -1.366693505942485, 1.5718171215337489, 2.597090863693367,3.542912546676444e-05, -0.14417546557203423, -0.621886103860666, 0.7662922157582651, -0.0002477960487209574, 0.07257607293228156,1.0,-8789.949489745874, -2845.588267183143, 21692.93648358257, -76.92965985675801, 222.2857854842092, 38.202157574536955,1.0,801
7135.575,1.0146569209834944, -1.5721504607797865, -1.780441078995998, -1.3614795877373815, 1.5718154000159257, 2.597584471347656,4.0546043717944915e-05, -0.14803272617771415, -0.6193444645668822, 0.7676080596053586, -0.0002586698174026264, 0.0726398269931586,1.0,-8788.348454679386, -2847.7580397241927, 21691.991072779383, -76.86304868382496, 222.3544148284671, 38.192868136297335,1.0,801
7135.583,1.0146572136284933, -1.5731691266063716, -1.7846394020695415, -1.3562610298817273, 1.5718136059487802, 2.598078101038186,4.5611185332633525e-05, -0.15189908043778, -0.6167802651395837, 0.7689104292384834, -0.0002695702555857086, 0.07270110698118691,1.0,-8789.506717575936, -2846.500060342133, 21692.909208592522, -76.89598532725668, 222.30284205788405, 38.205903958916394,1.0,801
7135.590999999999,1.0146575402477416, -1.5742132681512455, -1.7888169603254198, -1.3510377609210664, 1.57181173921171, 2.598571752127024,5.062442282097124e-05, -0.15577424682832128, -0.6141935307360712, 0.7701990682882388, -0.0002804963619415325, 0.0727599119977173,1.0,-8790.030369324037, -2846.9781543512554, 21693.26367546415, -76.89270733850313, 222.26295724976018, 38.19301025673988,1.0,801
7135.615,1.0146587200304318, -1.5774990894388647, -1.8012251964325703, -1.335338994834018, 1.571805701775883, 2.600052827360985,6.535153710411938e-05, -0.16744972904266028, -0.6062984588281066, 0.7739800533403816, -0.0003134183591107151, 0.07292147554411683,1.0,-8788.41976800257, -2847.2883262910746, 21692.675797131516, -76.89818782474089, 222.358719587338, 38.2058914944341,1.0,801
7135.623,1.0146591786429022, -1.5786456781556275, -1.8053198363145064, -1.3300961962716258, 1.5718035431552477, 2.6005465576058673,7.015602485935155e-05, -0.17135723002472755, -0.6036219559241497, 0.7752112275247556, -0.0003244367100531813, 0.0729703815467045,1.0,-8790.052138313724, -2845.9146764748994, 21693.128808377816, -76.91726708833886, 222.27372945199767, 38.198617659913964,1.0,801
7135.630999999999,1.014659669294377, -1.5798180165820401, -1.8093937725538733, -1.3248483514446496, 1.5718013112644165, 2.6010403060154488,7.49080808251791e-05, -0.17527206233343431, -0.6009231341608245, 0.7764274064451036, -0.0003354754164411139, 0.07301681560894531,1.0,-8790.46118321492, -2846.0861668580637, 21692.72115928814, -76.90410621356918, 222.26581000588408, 38.190143472777805,1.0,801
7135.639,1.0146601916076616, -1.581016160507497, -1.8134470118961579, -1.319595397819585, 1.5717990059847937, 2.601534071933766,7.960762433439854e-05, -0.17919391586801223, -0.5982020551690076, 0.7776283416385051, -0.000346533357345788, 0.07306077993882922,1.0,-8789.998089593844, -2847.1655737698275, 21692.91573507498, -76.86411299843948, 222.29731284895917, 38.189513165959056,1.0,801
7135.647,1.0146607452087644, -1.5822401659751044, -1.817479559305557, -1.314337274390505, 1.5717966271985828, 2.6020278547016296,8.42545815373435e-05, -0.18312247613965577, -0.59545878680692, 0.7788137864824402, -0.0003576093914992283, 0.07310227731394617,1.0,-8789.281222331856, -2846.761555052084, 21692.980104416893, -76.89951858049366, 222.31821057138347, 38.19853371031698,1.0,801
7135.655,1.0146613297268625, -1.583490089248353, -1.8214914179850732, -1.3090739216922938, 1.57179417478892, 2.6025216536565714,8.884888802320555e-05, -0.18705742438978418, -0.5926934031907922, 0.7799834963452182, -0.00036870235953556906, 0.07314131109237286,1.0,-8787.904972469008, -2847.43671832765, 21692.10178670293, -76.8681118050379, 222.36898080966853, 38.193259315207314,1.0,801
7135.670999999999,1.0146625856140536, -1.5860591136667406, -1.8294265645725192, -1.2985666190889873, 1.5717890663168768, 2.603505991937489,9.784537436804576e-05, -0.19491874069864767, -0.5871154931775118, 0.7822671855885981, -0.0003908499021072419, 0.07321181741570944,1.0,-8789.558845224996, -2847.0450989226565, 21692.76000939103, -76.86223828045777, 222.28976079527666, 38.18607404171331,1.0,801
7135.687,1.0146638771709842, -1.5885740890389197, -1.8368267236957028, -1.2886485335898339, 1.5717839851303574, 2.6044333464134097,0.00010613599846888204, -0.20234426240330106, -0.581781342014093, 0.7843587813700134, -0.00041177103989899276, 0.07326930342410204,1.0,-8788.41316449532, -2847.7000513434077, 21695.399743584352, -76.86109793449631, 222.35297047391015, 38.2006798618514,1.0,801
7135.695,1.0146645189374925, -1.5897862560396518, -1.8402746481126186, -1.2839870569528076, 1.5717815102653803, 2.604868593909485,0.00010996277279611309, -0.2058351985284562, -0.5792515045111659, 0.7853199765792935, -0.0004216036849263959, 0.07329331560463996,1.0,-8788.902693875225, -2847.2273845056116, 21694.06017240531, -76.87697209859579, 222.3511458149382, 38.193028781169545,1.0,801
7135.7029999999995,1.0146651537132707, -1.5909646770011392, -1.8435572957521567, -1.2795246633477415, 1.5717790892692451, 2.6052848858500672,0.0001135844278520042, -0.20917728555376502, -0.5768162236729107, 0.7862268697400775, -0.0004310150412857139, 0.07331451383875148,1.0,-8789.87878534003, -2846.3362021994853, 21695.61182726018, -76.90142023437014, 222.30080575684843, 38.20427821590158,1.0,801
7135.710999999999,1.0146657785002704, -1.5921068353938823, -1.8466766724782984, -1.2752618634590718, 1.5717767292938083, 2.605682220654869,0.00011700611202954512, -0.21236989620935334, -0.5744776586757925, 0.7870809935228043, -0.0004400034247504046, 0.07333313853995174,1.0,-8790.487189264108, -2846.1633161985, 21695.25740644269, -76.89827892812096, 222.25380882176302, 38.18893122875005,1.0,801
7135.727,1.0146669870210954, -1.5942728363352607, -1.8524331817864246, -1.2673370044432932, 1.5717722194532577, 2.60642001331373,0.000123269014903485, -0.21830452903330722, -0.570098760662756, 0.7886368609173625, -0.00045670566581789546, 0.07336357080614808,1.0,-8788.468455856755, -2847.744484486713, 21694.870103668305, -76.86299900785357, 222.3571058031239, 38.196057898728554,1.0,801
7135.735,1.0146675656441928, -1.5952921867915348, -1.8550738716632997, -1.263675880146419, 1.5717700823260767, 2.6067604687507755,0.00012611938428847623, -0.2210456300511329, -0.5680621965782949, 0.7893414536713981, -0.0004644172300663396, 0.07337580105458297,1.0,-8788.139855951695, -2846.5476761526224, 21693.207692981818, -76.88441729947695, 222.3469995016764, 38.19644667890546,1.0,801
7135.7429999999995,1.0146681240446953, -1.596266292382432, -1.8575584053668734, -1.2602162171880575, 1.57176803169141, 2.6070819621962773,0.0001287880810958356, -0.22363540187007155, -0.5661298884119847, 0.7899989670174892, -0.00047170119219394445, 0.07338630321770423,1.0,-8790.018430571481, -2845.553552334788, 21694.115189162032, -76.93185385977657, 222.28533853772802, 38.20681159065384,1.0,801
7135.750999999999,1.014668660072816, -1.5971931832056434, -1.8598883347955004, -1.2569584335861475, 1.5717660731231797, 2.607384492748323,0.0001312791065018955, -0.22607351906199777, -0.5643034525079784, 0.7906106924747364, -0.0004785568266615664, 0.07339525979433469,1.0,-8790.406403993928, -2845.850300525055, 21694.19132741935, -76.90006863446851, 222.26150187146192, 38.18975049301284,1.0,801
7135.759,1.014669171731249, -1.598071001351637, -1.862065121126955, -1.2539029260855106, 1.5717642118741415, 2.6076680596097264,0.00013359623088553488, -0.22835970140781028, -0.5625844003012184, 0.791177861836588, -0.0004849835383790893, 0.07340284186156305,1.0,-8789.359290827886, -2847.738894368492, 21694.350058908007, -76.84752183513169, 222.31927808783053, 38.190301119524264,1.0,801
7135.767,1.0146696571703318, -1.5988980016808103, -1.8640901347546865, -1.2510500694444593, 1.5717624528743512, 2.6079326620788605,0.0001357430018621258, -0.23049370931091306, -0.5609741397049093, 0.791701643974376, -0.0004909808509257687, 0.07340920916577816,1.0,-8788.902039153701, -2847.03895948006, 21694.71843991731, -76.88455324504591, 222.33112868145184, 38.20567281219746,1.0,801
7135.775,1.014670114683557, -1.59967255255091, -1.8659646551997948, -1.2484002157954182, 1.571760800729764, 2.608178299540963,0.00013772274300112312, -0.23247533943919288, -0.5594739765245786, 0.792183141898896, -0.0004965483812129815, 0.0734145101989526,1.0,-8787.418286430126, -2849.3342487156942, 21693.839255444727, -76.81755762768088, 222.3935055481607, 38.19854888552766,1.0,801
7135.782999999999,1.014670542703438, -1.6003931364943185, -1.8676898710045027, -1.2459536940741813, 1.5717592597209644, 2.6084049714600024,0.00013953856206194552, -0.23430442061627738, -0.5580851158712706, 0.7926233900691229, -0.000501685818883528, 0.07341888230067976,1.0,-8790.296390728929, -2845.1900871401012, 21694.997189270387, -76.94055726546199, 222.27472872965797, 38.208440134937405,1.0,801
7135.790999999999,1.0146709397977014, -1.6010583508450775, -1.8692668796123977, -1.2437108095126668, 1.5717578338020133, 2.6086126773710676,0.00014119336464356975, -0.23598080995825008, -0.5568086635556366, 0.7930233519443818, -0.0005063929153461341, 0.07342245175952737,1.0,-8791.224296805358, -2844.3145534910072, 21694.712599874627, -76.93858181098676, 222.2252528148183, 38.196607479843465,1.0,801
7135.799,1.0146713046658151, -1.6016669083156225, -1.8706966872402973, -1.241671843190324, 1.5717565265994178, 2.6088014168732854,0.00014268986204823424, -0.237504389290084, -0.5556456274424525, 0.7933839177664233, -0.0005106694429122086, 0.07342533389745125,1.0,-8788.295570446979, -2849.2525234371697, 21694.966204102442, -76.7884277359189, 222.34266918138485, 38.19240456977897,1.0,801
7135.807,1.0146716361358257, -1.6022176375234176, -1.871980208746085, -1.2398370516396744, 1.5717553414112142, 2.60897118962332,0.000144030609292263, -0.2388750618194864, -0.5545969187455635, 0.79370590256776, -0.0005145151738067378, 0.07342763319814034,1.0,-8789.6836619836, -2844.8129831740516, 21694.89669006936, -76.94683194158802, 222.3071549703057, 38.206480938314655,1.0,801
7135.815,1.0146719331615082, -1.6027094834677467, -1.8731182674965066, -1.238206666501747, 1.5717542812061527, 2.609121995329409,0.00014521804508700362, -0.24009274910227085, -0.5536633532385468, 0.7939900444047293, -0.0005179298238462215, 0.0734294433844834,1.0,-8787.993898128181, -2847.641927994352, 21694.1996101204, -76.85482725250262, 222.3662216102665, 38.202172387655395,1.0,801
7135.822999999999,1.014672194819827, -1.603141507956975, -1.8741115952384693, -1.2367808942275111, 1.5717533486229853, 2.609253833746,0.00014625459614386305, -0.2411573882501965, -0.5528456523706018, 0.7942370028102673, -0.0005209129805873314, 0.07343084756075578,1.0,-8789.842868844094, -2846.266852462495, 21694.37786795404, -76.91192274617975, 222.2925453245016, 38.20512545555451,1.0,801
7135.831,1.0146724203086879, -1.6035128899867015, -1.8749608319770132, -1.2355599158217743, 1.571752545969846, 2.609366704668947,0.00014714287357621054, -0.24206892942864713, -0.5521444442302795, 0.7944473574838069, -0.0005234639295754828, 0.07343191834883527,1.0,-8790.653734378917, -2845.5674000476056, 21694.656603905827, -76.89948118066917, 222.2616734993328, 38.19343403311211,1.0,801
7135.839,1.014672608944991, -1.6038229260691885, -1.8756665258627123, -1.234543886626355, 1.571751875223724, 2.609460607931307,0.00014788615475642194, -0.24282733350212862, -0.5515602642881396, 0.7946216072862263, -0.000525581317107649, 0.07343271811980205,1.0,-8790.182469454925, -2846.4229899085485, 21694.041523615673, -76.88614226877621, 222.26497551012397, 38.19012203664522,1.0,801
7135.855,1.014672873512774, -1.6042567356637365, -1.876649017814879, -1.2331271678705749, 1.571750935702203, 2.609591510971409,0.0001489650311416606, -0.2438846121210974, -0.5507446679370874, 0.794863381926421, -0.000528498527957641, 0.07343370670630325,1.0,-8787.629132499842, -2848.3649529546883, 21693.967540218047, -76.84558662165932, 222.36739921179213, 38.19530737326372,1.0,801
7135.862999999999,1.0146729486594643, -1.6043796920746392, -1.8769264520744642, -1.232726659223661, 1.5717506692214822, 2.609628510571742,0.00014935325285875996, -0.24418342930061482, -0.5505138478404296, 0.7949315089026566, -0.0005292605564950234, 0.07343398342409867,1.0,-8789.455405637, -2846.1705530301224, 21695.330885970005, -76.9101439427638, 222.30328645010144, 38.20587691775097,1.0,801
7135.871,1.014672985382104, -1.6044396686600404, -1.8770616157417335, -1.2325314614156158, 1.5717505392366444, 2.6096465421524577,0.00015005275892974123, -0.24432884795634394, -0.5504010990642018, 0.7949648723446218, -0.0005292527611969572, 0.07343427890997462,1.0,-8790.658665536854, -2845.9141919961767, 21695.032121151464, -76.90410886171497, 222.2638348466716, 38.19716455673381,1.0,801
7135.879,1.0146729893387174, -1.6044460766154174, -1.8770760503758606, -1.2325106126387215, 1.5717505253716946, 2.6096484680440426,0.0, 0.0, 0.0, 0.0, 0.0, 0.0,1.0,-8789.788693143142, -2845.7084122795422, 21694.26062872586, -76.90671555129, 222.29606382913056, 38.19421924237375,1.0,801
7135.887,1.0146729893387174, -1.6044460766154174, -1.8770760503758606, -1.2325106126387215, 1.5717505253716946, 2.6096484680440426,0.0, 0.0, 0.0, 0.0, 0.0, 0.0,1.0,-8790.11609710671, -2845.4858857512254, 21693.648641784755, -76.91284678954935, 222.2924613204525, 38.211326628242006,1.0,801
7135.8949999999995,1.0146729893387174, -1.6044460766154174, -1.8770760503758606, -1.2325106126387215, 1.5717505253716946, 2.6096484680440426,0.0, 0.0, 0.0, 0.0, 0.0, 0.0,1.0,-8787.668465115747, -2848.2174875701658, 21691.32445633573, -76.82684573738368, 222.37919186968077, 38.185583809416386,1.0,801
7135.902999999999,1.0146729893387174, -1.6044460766154174, -1.8770760503758606, -1.2325106126387215, 1.5717505253716946, 2.6096484680440426,0.0, 0.0, 0.0, 0.0, 0.0, 0.0,1.0,-8789.549946569769, -2846.1268817924456, 21692.95358658171, -76.92424135264588, 222.28913240029993, 38.20732717766245,1.0,769
7135.911,1.0146729893387174, -1.6044460766154174, -1.8770760503758606, -1.2325106126387215, 1.5717505253716946, 2.6096484680440426,0.0, 0.0, 0.0, 0.0, 0.0, 0.0,1.0,-8790.538193830705, -2846.213554878439, 21692.167245213306, -76.89407921558782, 222.23878006564115, 38.19487692504572,1.0,769
7135.919,1.0146729893387174, -1.6044460766154174, -1.8770760503758606, -1.2325106126387215, 1.5717505253716946, 2.6096484680440426,0.0, 0.0, 0.0, 0.0, 0.0, 0.0,1.0,-8789.235299975071, -2846.7971779676627, 21691.422289042814, -76.87806695677804, 222.2996147594627, 38.193750080530094,1.0,769
7135.927,1.0146729893387174, -1.6044460766154174, -1.8770760503758606, -1.2325106126387215, 1.5717505253716946, 2.6096484680440426,0.0, 0.0, 0.0, 0.0, 0.0, 0.0,1.0,-8788.930290052649, -2847.0609652234707, 21692.39631070876, -76.90033069767415, 222.33527401064788, 38.2057233425129,1.0,769
7135.9349999999995,1.0146729893387174, -1.6044460766154174, -1.8770760503758606, -1.2325106126387215, 1.5717505253716946, 2.6096484680440426,0.0, 0.0, 0.0, 0.0, 0.0, 0.0,1.0,-8789.235129761135, -2845.941813746009, 21692.147985169177, -76.905101555686, 222.30502138270646, 38.192880327988235,1.0,769
7135.942999999999,1.0146729893387174, -1.6044460766154174, -1.8770760503758606, -1.2325106126387215, 1.5717505253716946, 2.6096484680440426,0.0, 0.0, 0.0, 0.0, 0.0, 0.0,1.0,-8790.085230342842, -2846.1977188512456, 21694.073848453736, -76.88456963800365, 222.29051516465836, 38.2053605996127,1.0,769
7135.951,1.0146729893387174, -1.6044460766154174, -1.8770760503758606, -1.2325106126387215, 1.5717505253716946, 2.6096484680440426,0.0, 0.0, 0.0, 0.0, 0.0, 0.0,1.0,-8788.678333541406, -2847.4648121087075, 21693.74358572482, -76.8471985461484, 222.3367262535918, 38.194116841063845,1.0,769
7135.959,1.0146729893387174, -1.6044460766154174, -1.8770760503758606, -1.2325106126387215, 1.5717505253716946, 2.6096484680440426,0.0, 0.0, 0.0, 0.0, 0.0, 0.0,1.0,-8790.30607383873, -2845.84379484501, 21693.421417904952, -76.91064936914549, 222.26906206350088, 38.19399607959849,1.0,769
7135.967,1.0146729893387174, -1.6044460766154174, -1.8770760503758606, -1.2325106126387215, 1.5717505253716946, 2.6096484680440426,0.0, 0.0, 0.0, 0.0, 0.0, 0.0,1.0,-8790.196114622348, -2845.5693483316063, 21693.176870248448, -76.91988321647113, 222.28362043064635, 38.20192768601984,1.0,769
7135.974999999999,1.0146729893387174, -1.6044460766154174, -1.8770760503758606, -1.2325106126387215, 1.5717505253716946, 2.6096484680440426,0.0, 0.0, 0.0, 0.0, 0.0, 0.0,1.0,-8787.958391348435, -2847.9096403547346, 21692.36803703962, -76.84777306262134, 222.34722070717993, 38.19393124374531,1.0,769
7135.982999999999,1.0146729893387174, -1.6044460766154174, -1.8770760503758606, -1.2325106126387215, 1.5717505253716946, 2.6096484680440426,0.0, 0.0, 0.0, 0.0, 0.0, 0.0,1.0,-8789.406094186892, -2846.8007373615155, 21692.31973245962, -76.87990326850871, 222.2782719383079, 38.19802862759346,1.0,769
7135.991,1.0146729893387174, -1.6044460766154174, -1.8770760503758606, -1.2325106126387215, 1.5717505253716946, 2.6096484680440426,0.0, 0.0, 0.0, 0.0, 0.0, 0.0,1.0,-8789.380951095472, -2845.8324327921628, 21692.05068123975, -76.90391411540625, 222.28661756918984, 38.194859510609064,1.0,769
7135.999,1.0146729893387174, -1.6044460766154174, -1.8770760503758606, -1.2325106126387215, 1.5717505253716946, 2.6096484680440426,0.0, 0.0, 0.0, 0.0, 0.0, 0.0,1.0,-8788.974231674156, -2846.5731376761023, 21692.092955165714, -76.89131174532719, 222.3092421158929, 38.19817147165452,1.0,769
7136.007,1.0146729893387174, -1.6044460766154174, -1.8770760503758606, -1.2325106126387215, 1.5717505253716946, 2.6096484680440426,0.0, 0.0, 0.0, 0.0, 0.0, 0.0,1.0,-8789.088286315375, -2846.613962587202, 21692.47161783796, -76.88756345625802, 222.30028328537094, 38.19237784962587,1.0,769
7136.014999999999,1.0146729893387174, -1.6044460766154174, -1.8770760503758606, -1.2325106126387215, 1.5717505253716946, 2.6096484680440426,0.0, 0.0, 0.0, 0.0, 0.0, 0.0,1.0,-8789.593993043038, -2846.0349295125006, 21693.061740414138, -76.89486546461245, 222.2969850263201, 38.19573206198922,1.0,769
7136.022999999999,1.0146729893387174, -1.6044460766154174, -1.8770760503758606, -1.2325106126387215, 1.5717505253716946, 2.6096484680440426,0.0, 0.0, 0.0, 0.0, 0.0, 0.0,1.0,-8789.291904637064, -2846.532569191363, 21693.350083728048, -76.88269357870985, 222.30682310929365, 38.200910976882625,1.0,769
7136.031,1.0146729893387174, -1.6044460766154174, -1.8770760503758606, -1.2325106126387215, 1.5717505253716946, 2.6096484680440426,0.0, 0.0, 0.0, 0.0, 0.0, 0.0,1.0,-8789.718909202305, -2846.844914825164, 21693.475150571325, -76.88120082941833, 222.31071035979954, 38.20267099034368,1.0,769
7136.047,1.0146729893387174, -1.6044460766154174, -1.8770760503758606, -1.2325106126387215, 1.5717505253716946, 2.6096484680440426,0.0, 0.0, 0.0, 0.0, 0.0, 0.0,1.0,-8789.27606529125, -2846.6466792296906, 21692.946788492693, -76.89105734404362, 222.30399869634795, 38.1986873124213,1.0,769
7136.054999999999,1.0146729893387174, -1.6044460766154174, -1.8770760503758606, -1.2325106126387215, 1.5717505253716946, 2.6096484680440426,0.0, 0.0, 0.0, 0.0, 0.0, 0.0,1.0,-8789.439904623185, -2846.648597716554, 21692.58214476026, -76.89476611823528, 222.30702712255334, 38.19616240288451,1.0,769
7136.063,1.0146729893387174, -1.6044460766154174, -1.8770760503758606, -1.2325106126387215, 1.5717505253716946, 2.6096484680440426,0.0, 0.0, 0.0, 0.0, 0.0, 0.0,1.0,-8789.013865065073, -2846.3937038231634, 21692.36963929261, -76.89596279825238, 222.30360231550753, 38.193990568288825,1.0,769
7136.071,1.0146729893387174, -1.6044460766154174, -1.8770760503758606, -1.2325106126387215, 1.5717505253716946, 2.6096484680440426,0.0, 0.0, 0.0, 0.0, 0.0, 0.0,1.0,-8789.183285409144, -2846.3560457704234, 21692.228386451698, -76.88767121774438, 222.2985676957519, 38.18529222889259,1.0,769
7136.079,1.0146729893387174, -1.6044460766154174, -1.8770760503758606, -1.2325106126387215, 1.5717505253716946, 2.6096484680440426,0.0, 0.0, 0.0, 0.0, 0.0, 0.0,1.0,-8789.236933549242, -2846.4990545459186, 21692.665845187454, -76.8930666240613, 222.29976096332553, 38.1995892206225,1.0,769
7136.0869999999995,1.0146729893387174, -1.6044460766154174, -1.8770760503758606, -1.2325106126387215, 1.5717505253716946, 2.6096484680440426,0.0, 0.0, 0.0, 0.0, 0.0, 0.0,1.0,-8789.087081553356, -2846.9395611566842, 21692.79512140991, -76.88039666637289, 222.3040499975541, 38.19122882906325,1.0,769
7136.094999999999,1.0146729893387174, -1.6044460766154174, -1.8770760503758606, -1.2325106126387215, 1.5717505253716946, 2.6096484680440426,0.0, 0.0, 0.0, 0.0, 0.0, 0.0,1.0,-8789.439160410426, -2846.8528391588225, 21693.1895581574, -76.88061776928308, 222.2987812128473, 38.200209156061845,1.0,769
7136.103,1.0146729893387174, -1.6044460766154174, -1.8770760503758606, -1.2325106126387215, 1.5717505253716946, 2.6096484680440426,0.0, 0.0, 0.0, 0.0, 0.0, 0.0,1.0,-8789.564646110131, -2846.298548554855, 21693.262773619615, -76.89285875081595, 222.29704421946786, 38.19331801118494,1.0,769
7136.111,1.0146729893387174, -1.6044460766154174, -1.8770760503758606, -1.2325106126387215, 1.5717505253716946, 2.6096484680440426,0.0, 0.0, 0.0, 0.0, 0.0, 0.0,1.0,-8789.30888848633, -2846.4137897124338, 21693.138909119996, -76.885432023465, 222.30644160770441, 38.1970660206301,1.0,769
7136.119,1.0146729893387174, -1.6044460766154174, -1.8770760503758606, -1.2325106126387215, 1.5717505253716946, 2.6096484680440426,0.0, 0.0, 0.0, 0.0, 0.0, 0.0,1.0,-8789.394596058382, -2846.4905532283456, 21692.95013701424, -76.88818797032965, 222.30632382911688, 38.18751747989589,1.0,769
7136.1269999999995,1.0146729893387174, -1.6044460766154174, -1.8770760503758606, -1.2325106126387215, 1.5717505253716946, 2.6096484680440426,0.0, 0.0, 0.0, 0.0, 0.0, 0.0,1.0,-8789.223073762043, -2846.4392469014265, 21692.763506418898, -76.88461665074266, 222.31826958578705, 38.20324718945952,1.0,769
7136.134999999999,1.0146729893387174, -1.6044460766154174, -1.8770760503758606, -1.2325106126387215, 1.5717505253716946, 2.6096484680440426,0.0, 0.0, 0.0, 0.0, 0.0, 0.0,1.0,-8788.980519786914, -2846.559795423558, 21692.376590846663, -76.88927793048137, 222.30267247864816, 38.18457504289569,1.0,769
7136.143,1.0146729893387174, -1.6044460766154174, -1.8770760503758606, -1.2325106126387215, 1.5717505253716946, 2.6096484680440426,0.0, 0.0, 0.0, 0.0, 0.0, 0.0,1.0,-8789.391588250506, -2846.7882809682887, 21692.39714786027, -76.89107768449671, 222.30035901763955, 38.20134583429197,1.0,769
7136.151,1.0146729893387174, -1.6044460766154174, -1.8770760503758606, -1.2325106126387215, 1.5717505253716946, 2.6096484680440426,0.0, 0.0, 0.0, 0.0, 0.0, 0.0,1.0,-8789.497070232661, -2846.986302470632, 21692.627535134197, -76.88939518004955, 222.2996523184882, 38.18946222267692,1.0,769
7136.159,1.0146729893387174, -1.6044460766154174, -1.8770760503758606, -1.2325106126387215, 1.5717505253716946, 2.6096484680440426,0.0, 0.0, 0.0, 0.0, 0.0, 0.0,1.0,-8789.73324617248, -2846.69163805055, 21692.765663019585, -76.88472268426065, 222.30225233843697, 38.19954485470831,1.0,769
7136.1669999999995,1.0146729893387174, -1.6044460766154174, -1.8770760503758606, -1.2325106126387215, 1.5717505253716946, 2.6096484680440426,0.0, 0.0, 0.0, 0.0, 0.0, 0.0,1.0,-8789.671650014121, -2846.5319067190367, 21693.166462141427, -76.88778187925931, 222.30000044563548, 38.19685151278236,1.0,769
7136.174999999999,1.0146729893387174, -1.6044460766154174, -1.8770760503758606, -1.2325106126387215, 1.5717505253716946, 2.6096484680440426,0.0, 0.0, 0.0, 0.0, 0.0, 0.0,1.0,-8789.334142204505, -2846.495060750898, 21693.30334258764, -76.88748653492738, 222.30176908678112, 38.199279311111496,1.0,769
7136.183,1.0146729893387174, -1.6044460766154174, -1.8770760503758606, -1.2325106126387215, 1.5717505253716946, 2.6096484680440426,0.0, 0.0, 0.0, 0.0, 0.0, 0.0,1.0,-8789.39540734245, -2846.3489009100704, 21693.124029915853, -76.89268666043054, 222.30669911471455, 38.203258106287336,1.0,769
7136.191,1.0146729893387174, -1.6044460766154174, -1.8770760503758606, -1.2325106126387215, 1.5717505253716946, 2.6096484680440426,0.0, 0.0, 0.0, 0.0, 0.0, 0.0,1.0,-8789.426374688479, -2846.2715079984964, 21692.99331068946, -76.89172461834931, 222.3089148528327, 38.195019484668734,1.0,769
7136.199,1.0146729893387174, -1.6044460766154174, -1.8770760503758606, -1.2325106126387215, 1.5717505253716946, 2.6096484680440426,0.0, 0.0, 0.0, 0.0, 0.0, 0.0,1.0,-8789.270939341995, -2846.5296905879895, 21692.87809953717, -76.89004506045728, 222.3083562426965, 38.20004274490114,1.0,769
7136.214999999999,1.0146729893387174, -1.6044460766154174, -1.8770760503758606, -1.2325106126387215, 1.5717505253716946, 2.6096484680440426,0.0, 0.0, 0.0, 0.0, 0.0, 0.0,1.0,-8789.117261326423, -2846.5772646218793, 21692.498611302628, -76.88634437986212, 222.2944926132567, 38.204298091150775,1.0,769
7136.231,1.0146729893387174, -1.6044460766154174, -1.8770760503758606, -1.2325106126387215, 1.5717505253716946, 2.6096484680440426,0.0, 0.0, 0.0, 0.0, 0.0, 0.0,1.0,-8789.292669279845, -2846.6446088094463, 21692.843664285105, -76.88908147312955, 222.30185238176142, 38.20593799307426,1.0,769
7136.246999999999,1.0146729893387174, -1.6044460766154174, -1.8770760503758606, -1.2325106126387215, 1.5717505253716946, 2.6096484680440426,0.0, 0.0, 0.0, 0.0, 0.0, 0.0,1.0,-8789.134039268185, -2846.5229408833457, 21692.983986189392, -76.8910578926916, 222.3064008642824, 38.206722057561876,1.0,769
7136.255,1.0146729893387174, -1.6044460766154174, -1.8770760503758606, -1.2325106126387215, 1.5717505253716946, 2.6096484680440426,0.0, 0.0, 0.0, 0.0, 0.0, 0.0,1.0,-8789.118926841722, -2846.441795123448, 21693.105344868047, -76.89123930451197, 222.3021857577857, 38.19668324213859,1.0,769
7136.263,1.0146729893387174, -1.6044460766154174, -1.8770760503758606, -1.2325106126387215, 1.5717505253716946, 2.6096484680440426,0.0, 0.0, 0.0, 0.0, 0.0, 0.0,1.0,-8789.40274949085, -2846.4267774057616, 21693.137329595244, -76.89022660471574, 222.30395814814875, 38.20040249755937,1.0,769
7136.2789999999995,1.0146729893387174, -1.6044460766154174, -1.8770760503758606, -1.2325106126387215, 1.5717505253716946, 2.6096484680440426,0.0, 0.0, 0.0, 0.0, 0.0, 0.0,1.0,-8789.257755931072, -2846.757074246042, 21692.759682737666, -76.88392959229012, 222.29790020054048, 38.20042479470288,1.0,769
7136.286999999999,1.0146729893387174, -1.6044460766154174, -1.8770760503758606, -1.2325106126387215, 1.5717505253716946, 2.6096484680440426,0.0, 0.0, 0.0, 0.0, 0.0, 0.0,1.0,-8789.536239854198, -2846.8428282444975, 21692.689241405355, -76.89190640704203, 222.30379211140945, 38.20192004836488,1.0,769
7136.295,1.0146729893387174, -1.6044460766154174, -1.8770760503758606, -1.2325106126387215, 1.5717505253716946, 2.6096484680440426,0.0, 0.0, 0.0, 0.0, 0.0, 0.0,1.0,-8789.579491541645, -2846.4357526275244, 21692.677595378835, -76.88310402435988, 222.30135064564496, 38.194890574825905,1.0,769
7136.303,1.0146729893387174, -1.6044460766154174, -1.8770760503758606, -1.2325106126387215, 1.5717505253716946, 2.6096484680440426,0.0, 0.0, 0.0, 0.0, 0.0, 0.0,1.0,-8789.345939246225, -2846.683198527384, 21692.68981864929, -76.89202114061743, 222.3026635856683, 38.204074568473544,1.0,769
7136.311,1.0146729893387174, -1.6044460766154174, -1.8770760503758606, -1.2325106126387215, 1.5717505253716946, 2.6096484680440426,0.0, 0.0, 0.0, 0.0, 0.0, 0.0,1.0,-8789.454692814472, -2846.5740142554187, 21693.04322273611, -76.89145826430064, 222.30386707821089, 38.19200412064649,1.0,769
7136.3189999999995,1.0146729893387174, -1.6044460766154174, -1.8770760503758606, -1.2325106126387215, 1.5717505253716946, 2.6096484680440426,0.0, 0.0, 0.0, 0.0, 0.0, 0.0,1.0,-8789.332579390286, -2846.3964439774445, 21692.999712386358, -76.88879530520697, 222.30829911138653, 38.20723482514913,1.0,769
7136.326999999999,1.0146729893387174, -1.6044460766154174, -1.8770760503758606, -1.2325106126387215, 1.5717505253716946, 2.6096484680440426,0.0, 0.0, 0.0, 0.0, 0.0, 0.0,1.0,-8789.09993154204, -2846.61397726842, 21693.02633439591, -76.89026493967683, 222.2973105331139, 38.19015901519418,1.0,769
7136.335,1.0146729893387174, -1.6044460766154174, -1.8770760503758606, -1.2325106126387215, 1.5717505253716946, 2.6096484680440426,0.0, 0.0, 0.0, 0.0, 0.0, 0.0,1.0,-8789.551537151832, -2846.5239167793334, 21692.942699526495, -76.889395913346, 222.31020440872453, 38.2107184329179,1.0,769
7136.343,1.0146729893387174, -1.6044460766154174, -1.8770760503758606, -1.2325106126387215, 1.5717505253716946, 2.6096484680440426,0.0, 0.0, 0.0, 0.0, 0.0, 0.0,1.0,-8789.425668274134, -2846.70875009501, 21692.929893361706, -76.88713183116383, 222.30121324807953, 38.192073919322524,1.0,769
7136.351,1.0146729893387174, -1.6044460766154174, -1.8770760503758606, -1.2325106126387215, 1.5717505253716946, 2.6096484680440426,0.0, 0.0, 0.0, 0.0, 0.0, 0.0,1.0,-8789.318760332886, -2846.6413025287593, 21692.80215827333, -76.89097921179115, 222.30089111099642, 38.203226349608286,1.0,769
7136.3589999999995,1.0146729893387174, -1.6044460766154174, -1.8770760503758606, -1.2325106126387215, 1.5717505253716946, 2.6096484680440426,0.0, 0.0, 0.0, 0.0, 0.0, 0.0,1.0,-8789.137089393904, -2846.6318623171474, 21692.601892196875, -76.88733346901623, 222.2967774333868, 38.194876130820774,1.0,769
7136.366999999999,1.0146729893387174, -1.6044460766154174, -1.8770760503758606, -1.2325106126387215, 1.5717505253716946, 2.6096484680440426,0.0, 0.0, 0.0, 0.0, 0.0, 0.0,1.0,-8789.394204215076, -2846.7443936580985, 21692.69307106634, -76.89446285241999, 222.30596208216008, 38.2022165062038,1.0,769
7136.375,1.0146729893387174, -1.6044460766154174, -1.8770760503758606, -1.2325106126387215, 1.5717505253716946, 2.6096484680440426,0.0, 0.0, 0.0, 0.0, 0.0, 0.0,1.0,-8789.494329692223, -2846.7710909736916, 21692.645174564244, -76.8930073732993, 222.3091013316116, 38.196939026676034,1.0,769
7136.391,1.0146729893387174, -1.6044460766154174, -1.8770760503758606, -1.2325106126387215, 1.5717505253716946, 2.6096484680440426,0.0, 0.0, 0.0, 0.0, 0.0, 0.0,1.0,-8789.159222247916, -2846.6508840797933, 21692.794470708894, -76.89057745566956, 222.30164151226967, 38.20151216713799,1.0,769
7136.406999999999,1.0146729893387174, -1.6044460766154174, -1.8770760503758606, -1.2325106126387215, 1.5717505253716946, 2.6096484680440426,0.0, 0.0, 0.0, 0.0, 0.0, 0.0,1.0,-8789.256395160952, -2846.6382492425237, 21692.964994288875, -76.88919806016875, 222.29934599445795, 38.20730305225328,1.0,769
7136.415,1.0146729893387174, -1.6044460766154174, -1.8770760503758606, -1.2325106126387215, 1.5717505253716946, 2.6096484680440426,0.0, 0.0, 0.0, 0.0, 0.0, 0.0,1.0,-8789.334984743951, -2846.8122203295434, 21692.967798786583, -76.89424060165331, 222.30359045333864, 38.1922597300497,1.0,769
7136.423,1.0146729893387174, -1.6044460766154174, -1.8770760503758606, -1.2325106126387215, 1.5717505253716946, 2.6096484680440426,0.0, 0.0, 0.0, 0.0, 0.0, 0.0,1.0,-8789.468459962614, -2846.528674199074, 21692.705903165635, -76.8905617077726, 222.30566877332717, 38.21716832010091,1.0,769
7136.431,1.0146729893387174, -1.6044460766154174, -1.8770760503758606, -1.2325106126387215, 1.5717505253716946, 2.6096484680440426,0.0, 0.0, 0.0, 0.0, 0.0, 0.0,1.0,-8789.377219353864, -2846.690841884568, 21692.802134378166, -76.88245416736899, 222.30189136285202, 38.18966460275777,1.0,769
7136.438999999999,1.0146729893387174, -1.6044460766154174, -1.8770760503758606, -1.2325106126387215, 1.5717505253716946, 2.6096484680440426,0.0, 0.0, 0.0, 0.0, 0.0, 0.0,1.0,-8789.269666589069, -2846.7606574692854, 21692.626357664954, -76.89505006455761, 222.30277680574727, 38.20501851877461,1.0,769
7136.447,1.0146729893387174, -1.6044460766154174, -1.8770760503758606, -1.2325106126387215, 1.5717505253716946, 2.6096484680440426,0.0, 0.0, 0.0, 0.0, 0.0, 0.0,1.0,-8789.67328204748, -2846.6921099883393, 21692.807681571307, -76.8872655115068, 222.3035666828236, 38.19540110192219,1.0,769
7136.455,1.0146729893387174, -1.6044460766154174, -1.8770760503758606, -1.2325106126387215, 1.5717505253716946, 2.6096484680440426,0.0, 0.0, 0.0, 0.0, 0.0, 0.0,1.0,-8789.337503922054, -2846.568360488106, 21692.816377172832, -76.88635175317725, 222.30637396770004, 38.210856154884766,1.0,769
7136.463,1.0146729893387174, -1.6044460766154174, -1.8770760503758606, -1.2325106126387215, 1.5717505253716946, 2.6096484680440426,0.0, 0.0, 0.0, 0.0, 0.0, 0.0,1.0,-8789.227901661965, -2846.655017789608, 21692.844479215953, -76.88799190628407, 222.29456079838548, 38.19465789636021,1.0,769
7136.471,1.0146729893387174, -1.6044460766154174, -1.8770760503758606, -1.2325106126387215, 1.5717505253716946, 2.6096484680440426,0.0, 0.0, 0.0, 0.0, 0.0, 0.0,1.0,-8789.705333040489, -2846.4378852825494, 21692.96449357514, -76.88726609511735, 222.31245495934695, 38.200216171407476,1.0,769
7136.478999999999,1.0146729893387174, -1.6044460766154174, -1.8770760503758606, -1.2325106126387215, 1.5717505253716946, 2.6096484680440426,0.0, 0.0, 0.0, 0.0, 0.0, 0.0,1.0,-8789.567659027009, -2846.7785437159473, 21693.050276005084, -76.89202613914546, 222.30355605883398, 38.19858751207494,1.0,769
7136.487,1.0146729893387174, -1.6044460766154174, -1.8770760503758606, -1.2325106126387215, 1.5717505253716946, 2.6096484680440426,0.0, 0.0, 0.0, 0.0, 0.0, 0.0,1.0,-8789.192159830503, -2846.5299744829126, 21692.96271336778, -76.88807526317734, 222.2987785751547, 38.196679793629585,1.0,769
7136.495,1.0146729893387174, -1.6044460766154174, -1.8770760503758606, -1.2325106126387215, 1.5717505253716946, 2.6096484680440426,0.0, 0.0, 0.0, 0.0, 0.0, 0.0,1.0,-8789.327210412797, -2846.4934738478596, 21692.731215378877, -76.88531255103752, 222.30597907344873, 38.20007068684154,1.0,769
7136.503,1.0146729893387174, -1.6044460766154174, -1.8770760503758606, -1.2325106126387215, 1.5717505253716946, 2.6096484680440426,0.0, 0.0, 0.0, 0.0, 0.0, 0.0,1.0,-8789.51946995455, -2846.7446054320126, 21692.711690368764, -76.88920603797717, 222.30607795507115, 38.19696839972099,1.0,769
7136.5109999999995,1.0146729893387174, -1.6044460766154174, -1.8770760503758606, -1.2325106126387215, 1.5717505253716946, 2.6096484680440426,0.0, 0.0, 0.0, 0.0, 0.0, 0.0,1.0,-8789.443865086096, -2846.4834127046297, 21692.607209964037, -76.89076822970094, 222.3053679165551, 38.208500442958496,1.0,769
7136.518999999999,1.0146729893387174, -1.6044460766154174, -1.8770760503758606, -1.2325106126387215, 1.5717505253716946, 2.6096484680440426,0.0, 0.0, 0.0, 0.0, 0.0, 0.0,1.0,-8789.205889556182, -2846.4870301307637, 21692.592673543924, -76.88895914018309, 222.30055359077988, 38.192763692606434,1.0,769
7136.527,1.0146729893387174, -1.6044460766154174, -1.8770760503758606, -1.2325106126387215, 1.5717505253716946, 2.6096484680440426,0.0, 0.0, 0.0, 0.0, 0.0, 0.0,1.0,-8789.496797552, -2846.7365420157857, 21692.797565643334, -76.89567048006097, 222.30391858138125, 38.20998555012602,1.0,769
7136.535,1.0146729893387174, -1.6044460766154174, -1.8770760503758606, -1.2325106126387215, 1.5717505253716946, 2.6096484680440426,0.0, 0.0, 0.0, 0.0, 0.0, 0.0,1.0,-8789.388056872258, -2846.62539312458, 21692.766261066638, -76.89536822936489, 222.30302195779433, 38.19545867367211,1.0,769
7136.543,1.0146729893387174, -1.6044460766154174, -1.8770760503758606, -1.2325106126387215, 1.5717505253716946, 2.6096484680440426,0.0, 0.0, 0.0, 0.0, 0.0, 0.0,1.0,-8789.443979804764, -2846.3287709639408, 21692.839590846477, -76.88715499892427, 222.30283626193597, 38.2103951502809,1.0,769
7136.5509999999995,1.0146729893387174, -1.6044460766154174, -1.8770760503758606, -1.2325106126387215, 1.5717505253716946, 2.6096484680440426,0.0, 0.0, 0.0, 0.0, 0.0, 0.0,1.0,-8789.588885193216, -2846.5954977401316, 21692.987110215414, -76.8924085111673, 222.30644152346946, 38.19624511583038,1.0,769
7136.567,1.0146729893387174, -1.6044460766154174, -1.8770760503758606, -1.2325106126387215, 1.5717505253716946, 2.6096484680440426,0.0, 0.0, 0.0, 0.0, 0.0, 0.0,1.0,-8789.317492208836, -2846.7177153402927, 21692.90722090477, -76.88853277355398, 222.30039732983926, 38.19656143339154,1.0,769
7136.575,1.0146729893387174, -1.6044460766154174, -1.8770760503758606, -1.2325106126387215, 1.5717505253716946, 2.6096484680440426,0.0, 0.0, 0.0, 0.0, 0.0, 0.0,1.0,-8789.173157190968, -2846.4947858276937, 21692.76961523787, -76.88538606502993, 222.30032288556572, 38.20170441946618,1.0,769
7136.598999999999,1.0146729893387174, -1.6044460766154174, -1.8770760503758606, -1.2325106126387215, 1.5717505253716946, 2.6096484680440426,0.0, 0.0, 0.0, 0.0, 0.0, 0.0,1.0,-8789.61187416103, -2846.3973208412544, 21692.901381968928, -76.88194219519929, 222.31136604337058, 38.202156313161936,1.0,769
7136.615,1.0146729893387174, -1.6044460766154174, -1.8770760503758606, -1.2325106126387215, 1.5717505253716946, 2.6096484680440426,0.0, 0.0, 0.0, 0.0, 0.0, 0.0,1.0,-8789.337018251337, -2846.5156088234935, 21692.834823573387, -76.88909313861353, 222.30162001993466, 38.206100129053254,1.0,769
7136.623,1.0146729893387174, -1.6044460766154174, -1.8770760503758606, -1.2325106126387215, 1.5717505253716946, 2.6096484680440426,0.0, 0.0, 0.0, 0.0, 0.0, 0.0,1.0,-8789.46046793738, -2846.5659530189005, 21693.04473066597, -76.8832112684579, 222.30884138384664, 38.200398776408605,1.0,769
7136.630999999999,1.0146729893387174, -1.6044460766154174, -1.8770760503758606, -1.2325106126387215, 1.5717505253716946, 2.6096484680440426,0.0, 0.0, 0.0, 0.0, 0.0, 0.0,1.0,-8789.60549375018, -2846.522367760499, 21692.852360324796, -76.88435443885137, 222.31046606885786, 38.19961312047988,1.0,769
7136.639,1.0146729893387174, -1.6044460766154174, -1.8770760503758606, -1.2325106126387215, 1.5717505253716946, 2.6096484680440426,0.0, 0.0, 0.0, 0.0, 0.0, 0.0,1.0,-8789.23519784448, -2846.621163434632, 21692.937280054688, -76.88478568718645, 222.30067211612663, 38.19332984345883,1.0,769
7136.647,1.0146729893387174, -1.6044460766154174, -1.8770760503758606, -1.2325106126387215, 1.5717505253716946, 2.6096484680440426,0.0, 0.0, 0.0, 0.0, 0.0, 0.0,1.0,-8789.315242353825, -2846.685370127093, 21692.792564711668, -76.8839572882936, 222.30143778571352, 38.19459117488117,1.0,769
7136.655,1.0146729893387174, -1.6044460766154174, -1.8770760503758606, -1.2325106126387215, 1.5717505253716946, 2.6096484680440426,0.0, 0.0, 0.0, 0.0, 0.0, 0.0,1.0,-8789.441517197967, -2846.7213490177974, 21692.668250962335, -76.88612628345933, 222.30926230051404, 38.19898188463753,1.0,769
7136.663,1.0146729893387174, -1.6044460766154174, -1.8770760503758606, -1.2325106126387215, 1.5717505253716946, 2.6096484680440426,0.0, 0.0, 0.0, 0.0, 0.0, 0.0,1.0,-8789.341445932792, -2846.7508378656594, 21692.704765938517, -76.88628316876824, 222.3026847132628, 38.199526798995606,1.0,769
7136.670999999999,1.0146729893387174, -1.6044460766154174, -1.8770760503758606, -1.2325106126387215, 1.5717505253716946, 2.6096484680440426,0.0, 0.0, 0.0, 0.0, 0.0, 0.0,1.0,-8789.368354773169, -2846.7673199561923, 21692.808965770815, -76.88962227356973, 222.30401392280186, 38.1967794982115,1.0,769
7136.679,1.0146729893387174, -1.6044460766154174, -1.8770760503758606, -1.2325106126387215, 1.5717505253716946, 2.6096484680440426,0.0, 0.0, 0.0, 0.0, 0.0, 0.0,1.0,-8789.556507247393, -2846.5818718948804, 21692.873811074554, -76.88585622918256, 222.31274366876983, 38.19838652378169,1.0,769
7136.687,1.0146729893387174, -1.6044460766154174, -1.8770760503758606, -1.2325106126387215, 1.5717505253716946, 2.6096484680440426,0.0, 0.0, 0.0, 0.0, 0.0, 0.0,1.0,-8789.739365448588, -2846.54227996196, 21692.95030567333, -76.88621141953766, 222.31149592580192, 38.19776238639656,1.0,769
7136.695,1.0146729893387174, -1.6044460766154174, -1.8770760503758606, -1.2325106126387215, 1.5717505253716946, 2.6096484680440426,0.0, 0.0, 0.0, 0.0, 0.0, 0.0,1.0,-8789.357505103171, -2846.5310499003435, 21693.045433746036, -76.89112801235709, 222.30931588617642, 38.199922990436676,1.0,769
7136.7029999999995,1.0146729893387174, -1.6044460766154174, -1.8770760503758606, -1.2325106126387215, 1.5717505253716946, 2.6096484680440426,0.0, 0.0, 0.0, 0.0, 0.0, 0.0,1.0,-8789.509716781653, -2846.57687132496, 21693.11751416799, -76.89100670009657, 222.30203222919556, 38.20508951094038,1.0,769
7136.719,1.0146729893387174, -1.6044460766154174, -1.8770760503758606, -1.2325106126387215, 1.5717505253716946, 2.6096484680440426,0.0, 0.0, 0.0, 0.0, 0.0, 0.0,1.0,-8789.555696226575, -2846.7634050545157, 21692.801140637774, -76.89609384715826, 222.3085418900721, 38.20376051020531,1.0,769
7136.735,1.0146729893387174, -1.6044460766154174, -1.8770760503758606, -1.2325106126387215, 1.5717505253716946, 2.6096484680440426,0.0, 0.0, 0.0, 0.0, 0.0, 0.0,1.0,-8789.371911203029, -2846.5849724149757, 21692.85657750054, -76.88866180531127, 222.30093209753483, 38.20190473612601,1.0,769
7136.7429999999995,1.0146729893387174, -1.6044460766154174, -1.8770760503758606, -1.2325106126387215, 1.5717505253716946, 2.6096484680440426,0.0, 0.0, 0.0, 0.0, 0.0, 0.0,1.0,-8789.170150058428, -2846.6434227525733, 21692.729994116176, -76.88816289915115, 222.3003661012104, 38.20186646007892,1.0,769
7136.750999999999,1.0146729893387174, -1.6044460766154174, -1.8770760503758606, -1.2325106126387215, 1.5717505253716946, 2.6096484680440426,0.0, 0.0, 0.0, 0.0, 0.0, 0.0,1.0,-8789.210069068933, -2846.530505151556, 21692.847729951587, -76.88546129325897, 222.30325254027548, 38.193967173330776,1.0,769
7136.759,1.0146729893387174, -1.6044460766154174, -1.8770760503758606, -1.2325106126387215, 1.5717505253716946, 2.6096484680440426,0.0, 0.0, 0.0, 0.0, 0.0, 0.0,1.0,-8789.185518133461, -2846.564983178522, 21692.890036257137, -76.88759235315331, 222.30356548320304, 38.20140876395169,1.0,769
7136.767,1.0146729893387174, -1.6044460766154174, -1.8770760503758606, -1.2325106126387215, 1.5717505253716946, 2.6096484680440426,0.0, 0.0, 0.0, 0.0, 0.0, 0.0,1.0,-8789.339942023862, -2846.6626165566468, 21692.948759563827, -76.88915258936129, 222.29913503070475, 38.20047630914516,1.0,769
7136.775,1.0146729893387174, -1.6044460766154174, -1.8770760503758606, -1.2325106126387215, 1.5717505253716946, 2.6096484680440426,0.0, 0.0, 0.0, 0.0, 0.0, 0.0,1.0,-8789.369451691957, -2846.5705482685253, 21692.832623881066, -76.8851356646197, 222.30532103071408, 38.20004321272822,1.0,769
