dlisjak-bit/sensor_synchronization/realtime_sync/robot_reference.csv
t,q0,q1,q2,q3,q4,q5,qd0,qd1,qd2,qd3,qd4,qd5,ss,f0,f1,f2,f3,f4,f5,tsf,do
9391.389,0.7269052265185433, -1.4236082758652255, -1.4757606901550453, -1.8154121902832205, 1.5721135142512621, 2.3201682575886164,0.0, 0.0, 0.0, 0.0, 0.0, 0.0,1.0,-8788.035711297796, -2844.912313130497, 21692.522546361983, -76.91104883136782, 222.24720097474625, 38.18895362277192,1.0,769
9391.396999999999,0.7269052265185433, -1.4236082758652255, -1.4757606901550453, -1.8154121902832205, 1.5721135142512621, 2.3201682575886164,0.0, 0.0, 0.0, 0.0, 0.0, 0.0,1.0,-8788.225813811123, -2845.1084463837815, 21692.501694587936, -76.90903607184057, 222.2370631630377, 38.19309953577795,1.0,769
9391.404999999999,0.7269052265185433, -1.4236082758652255, -1.4757606901550453, -1.8154121902832205, 1.5721135142512621, 2.3201682575886164,0.0, 0.0, 0.0, 0.0, 0.0, 0.0,1.0,-8788.38727016854, -2845.0758615153773, 21692.216782385, -76.90931700728956, 222.23812799680138, 38.19054195062279,1.0,769
9391.413,0.7269052265185433, -1.4236082758652255, -1.4757606901550453, -1.8154121902832205, 1.5721135142512621, 2.3201682575886164,0.0, 0.0, 0.0, 0.0, 0.0, 0.0,1.0,-8787.951745172564, -2844.82495239489, 21692.19302730014, -76.90544166900199, 222.2360249142016, 38.18903381465097,1.0,769
9391.421,0.7269052265185433, -1.4236082758652255, -1.4757606901550453, -1.8154121902832205, 1.5721135142512621, 2.3201682575886164,0.0, 0.0, 0.0, 0.0, 0.0, 0.0,1.0,-8787.70788861117, -2844.9193968349337, 21692.077581075202, -76.90911418143571, 222.24714031524013, 38.19154234401739,1.0,769
9391.429,0.7269052265185433, -1.4236082758652255, -1.4757606901550453, -1.8154121902832205, 1.5721135142512621, 2.3201682575886164,0.0, 0.0, 0.0, 0.0, 0.0, 0.0,1.0,-8787.986037946459, -2845.197988675326, 21692.008197221974, -76.89933528358537, 222.23285106521638, 38.18933008694242,1.0,769
9391.437,0.7269052265185433, -1.4236082758652255, -1.4757606901550453, -1.8154121902832205, 1.5721135142512621, 2.3201682575886164,0.0, 0.0, 0.0, 0.0, 0.0, 0.0,1.0,-8788.008891832247, -2845.168033184259, 21691.975364751146, -76.89706288982472, 222.2433128012658, 38.189114052974105,1.0,769
9391.445,0.7269052265185433, -1.4236082758652255, -1.4757606901550453, -1.8154121902832205, 1.5721135142512621, 2.3201682575886164,0.0, 0.0, 0.0, 0.0, 0.0, 0.0,1.0,-8788.04822196306, -2845.1722331492665, 21692.013287492053, -76.90076179399549, 222.24252866583635, 38.188273159690056,1.0,769
9391.453,0.7269052265185433, -1.4236082758652255, -1.4757606901550453, -1.8154121902832205, 1.5721135142512621, 2.3201682575886164,0.0, 0.0, 0.0, 0.0, 0.0, 0.0,1.0,-8787.891677012221, -2844.8693752379722, 21692.011066473096, -76.90514433883229, 222.2368058660731, 38.19066810748333,1.0,769
9391.461,0.7269052265185433, -1.4236082758652255, -1.4757606901550453, -1.8154121902832205, 1.5721135142512621, 2.3201682575886164,0.0, 0.0, 0.0, 0.0, 0.0, 0.0,1.0,-8787.848473324162, -2844.99385780373, 21692.12239569045, -76.90164600578595, 222.230992647221, 38.19368906536539,1.0,769
9391.469,0.7269052265185433, -1.4236082758652255, -1.4757606901550453, -1.8154121902832205, 1.5721135142512621, 2.3201682575886164,0.0, 0.0, 0.0, 0.0, 0.0, 0.0,1.0,-8788.069900644488, -2845.093520270885, 21692.418412134954, -76.90700116739407, 222.24311158047215, 38.19191032203983,1.0,769
9391.476999999999,0.7269052265185433, -1.4236082758652255, -1.4757606901550453, -1.8154121902832205, 1.5721135142512621, 2.3201682575886164,0.0, 0.0, 0.0, 0.0, 0.0, 0.0,1.0,-8788.262859661681, -2844.7702601085884, 21692.318346827877, -76.90330375089715, 222.2398525737446, 38.19278670325343,1.0,769
9391.484999999999,0.7269052265185433, -1.4236082758652255, -1.4757606901550453, -1.8154121902832205, 1.5721135142512621, 2.3201682575886164,0.0, 0.0, 0.0, 0.0, 0.0, 0.0,1.0,-8788.24791506488, -2844.7907524571156, 21692.38088480227, -76.90465749297573, 222.24140026576492, 38.19134074766592,1.0,769
9391.493,0.7269052265185433, -1.4236082758652255, -1.4757606901550453, -1.8154121902832205, 1.5721135142512621, 2.3201682575886164,0.0, 0.0, 0.0, 0.0, 0.0, 0.0,1.0,-8788.199389667481, -2845.0827667434705, 21692.263417528247, -76.90016047888128, 222.23812839544428, 38.19379015396311,1.0,769
9391.501,0.7269052265185433, -1.4236082758652255, -1.4757606901550453, -1.8154121902832205, 1.5721135142512621, 2.3201682575886164,0.0, 0.0, 0.0, 0.0, 0.0, 0.0,1.0,-8788.052940896614, -2845.253306919587, 21692.282162295538, -76.90737547578689, 222.24006326966827, 38.194131597073806,1.0,769
9391.509,0.7269052265185433, -1.4236082758652255, -1.4757606901550453, -1.8154121902832205, 1.5721135142512621, 2.3201682575886164,0.0, 0.0, 0.0, 0.0, 0.0, 0.0,1.0,-8787.940150046583, -2845.058595027912, 21691.994600272315, -76.90485697083477, 222.2387238746971, 38.19074214060504,1.0,769
9391.517,0.7269052265185433, -1.4236082758652255, -1.4757606901550453, -1.8154121902832205, 1.5721135142512621, 2.3201682575886164,0.0, 0.0, 0.0, 0.0, 0.0, 0.0,1.0,-8787.887614531874, -2845.0064108746938, 21691.977323402145, -76.89862503176883, 222.2390022649385, 38.1928534551065,1.0,769
9391.525,0.7269052265185433, -1.4236082758652255, -1.4757606901550453, -1.8154121902832205, 1.5721135142512621, 2.3201682575886164,0.0, 0.0, 0.0, 0.0, 0.0, 0.0,1.0,-8787.82022572211, -2845.152639258702, 21691.874882864962, -76.90213055401281, 222.23263124069393, 38.190736116034714,1.0,769
9391.533,0.7269052265185433, -1.4236082758652255, -1.4757606901550453, -1.8154121902832205, 1.5721135142512621, 2.3201682575886164,0.0, 0.0, 0.0, 0.0, 0.0, 0.0,1.0,-8787.869168679119, -2845.0035753302973, 21691.939365801925, -76.89906144743725, 222.23960097618618, 38.19221480991763,1.0,769
9391.541,0.7269052265185433, -1.4236082758652255, -1.4757606901550453, -1.8154121902832205, 1.5721135142512621, 2.3201682575886164,0.0, 0.0, 0.0, 0.0, 0.0, 0.0,1.0,-8787.971523447211, -2845.1478478793597, 21692.225718067442, -76.90535551170947, 222.24505542779872, 38.190586840436026,1.0,769
9391.548999999999,0.7269052265185433, -1.4236082758652255, -1.4757606901550453, -1.8154121902832205, 1.5721135142512621, 2.3201682575886164,0.0, 0.0, 0.0, 0.0, 0.0, 0.0,1.0,-8788.278410477124, -2845.1566836039283, 21692.156858156362, -76.90707545469911, 222.23697796551403, 38.19178623619092,1.0,769
9391.556999999999,0.7269052265185433, -1.4236082758652255, -1.4757606901550453, -1.8154121902832205, 1.5721135142512621, 2.3201682575886164,0.0, 0.0, 0.0, 0.0, 0.0, 0.0,1.0,-8788.087115707356, -2844.9502298741745, 21692.302902040094, -76.89859444929621, 222.23422559689345, 38.189855802593286,1.0,769
9391.564999999999,0.7269052265185433, -1.4236082758652255, -1.4757606901550453, -1.8154121902832205, 1.5721135142512621, 2.3201682575886164,0.0, 0.0, 0.0, 0.0, 0.0, 0.0,1.0,-8788.408410903636, -2845.0897629838782, 21692.340012164124, -76.90736333379994, 222.2448078460929, 38.19061484901826,1.0,769
9391.573,0.7269052265185433, -1.4236082758652255, -1.4757606901550453, -1.8154121902832205, 1.5721135142512621, 2.3201682575886164,0.0, 0.0, 0.0, 0.0, 0.0, 0.0,1.0,-8787.849255928559, -2844.9222130300013, 21692.223830775525, -76.90412604253692, 222.23585221766103, 38.19398874160865,1.0,769
9391.581,0.7269052265185433, -1.4236082758652255, -1.4757606901550453, -1.8154121902832205, 1.5721135142512621, 2.3201682575886164,0.0, 0.0, 0.0, 0.0, 0.0, 0.0,1.0,-8788.105950678419, -2844.9719869420614, 21692.139477262343, -76.90030393079337, 222.23932179259964, 38.19574447096491,1.0,769
9391.589,0.7269052265185433, -1.4236082758652255, -1.4757606901550453, -1.8154121902832205, 1.5721135142512621, 2.3201682575886164,0.0, 0.0, 0.0, 0.0, 0.0, 0.0,1.0,-8788.025832309595, -2844.9348998323267, 21692.060573910847, -76.90789802253298, 222.23382255390084, 38.191767043323125,1.0,769
9391.597,0.7269052265185433, -1.4236082758652255, -1.4757606901550453, -1.8154121902832205, 1.5721135142512621, 2.3201682575886164,0.0, 0.0, 0.0, 0.0, 0.0, 0.0,1.0,-8787.93770129207, -2845.290154522577, 21692.279895772102, -76.90740637728061, 222.2414369736387, 38.19224447572364,1.0,769
9391.605,0.7269052265185433, -1.4236082758652255, -1.4757606901550453, -1.8154121902832205, 1.5721135142512621, 2.3201682575886164,0.0, 0.0, 0.0, 0.0, 0.0, 0.0,1.0,-8787.991263530525, -2845.0254255983764, 21692.148643455545, -76.90304107220012, 222.24134581274564, 38.194981148781864,1.0,769
9391.613,0.7269052265185433, -1.4236082758652255, -1.4757606901550453, -1.8154121902832205, 1.5721135142512621, 2.3201682575886164,0.0, 0.0, 0.0, 0.0, 0.0, 0.0,1.0,-8788.125681576004, -2845.073244943479, 21692.10243816152, -76.9035151590536, 222.23749624388012, 38.19503827343223,1.0,769
9391.621,0.7269052265185433, -1.4236082758652255, -1.4757606901550453, -1.8154121902832205, 1.5721135142512621, 2.3201682575886164,0.0, 0.0, 0.0, 0.0, 0.0, 0.0,1.0,-8788.202537967567, -2845.145081319488, 21692.14653954632, -76.90706061631977, 222.2442089077599, 38.19654622096232,1.0,769
9391.628999999999,0.7269052265185433, -1.4236082758652255, -1.4757606901550453, -1.8154121902832205, 1.5721135142512621, 2.3201682575886164,0.0, 0.0, 0.0, 0.0, 0.0, 0.0,1.0,-8788.170619085591, -2844.7751177188793, 21692.2430707371, -76.90367198277025, 222.2479358743102, 38.19705597984159,1.0,769
9391.636999999999,0.7269052265185433, -1.4236082758652255, -1.4757606901550453, -1.8154121902832205, 1.5721135142512621, 2.3201682575886164,0.0, 0.0, 0.0, 0.0, 0.0, 0.0,1.0,-8788.229179960177, -2844.8727073467116, 21692.1984700961, -76.90753365600048, 222.24174794904457, 38.19492214466575,1.0,769
9391.645,0.7269052265185433, -1.4236082758652255, -1.4757606901550453, -1.8154121902832205, 1.5721135142512621, 2.3201682575886164,0.0, 0.0, 0.0, 0.0, 0.0, 0.0,1.0,-8788.267885266534, -2844.6761637070076, 21692.2437150025, -76.89994707713836, 222.24111261511138, 38.19212538747371,1.0,769
9391.653,0.7269052265185433, -1.4236082758652255, -1.4757606901550453, -1.8154121902832205, 1.5721135142512621, 2.3201682575886164,0.0, 0.0, 0.0, 0.0, 0.0, 0.0,1.0,-8788.174377333311, -2844.8270388760902, 21692.32441439068, -76.89973871323741, 222.24115545479174, 38.19802647114804,1.0,769
9391.661,0.7269052265185433, -1.4236082758652255, -1.4757606901550453, -1.8154121902832205, 1.5721135142512621, 2.3201682575886164,0.0, 0.0, 0.0, 0.0, 0.0, 0.0,1.0,-8788.03250917832, -2844.885267500814, 21692.183991963237, -76.90239978873268, 222.2400717390617, 38.19797367393974,1.0,769
9391.669,0.7269052265185433, -1.4236082758652255, -1.4757606901550453, -1.8154121902832205, 1.5721135142512621, 2.3201682575886164,0.0, 0.0, 0.0, 0.0, 0.0, 0.0,1.0,-8787.846483385001, -2845.122919029007, 21692.112477719125, -76.9029178423672, 222.2350414905655, 38.194079901005495,1.0,769
9391.677,0.7269052265185433, -1.4236082758652255, -1.4757606901550453, -1.8154121902832205, 1.5721135142512621, 2.3201682575886164,0.0, 0.0, 0.0, 0.0, 0.0, 0.0,1.0,-8787.918033504355, -2845.1188774410384, 21692.15788032761, -76.90061323629232, 222.2421883585447, 38.193754564429156,1.0,769
9391.685,0.7269052265185433, -1.4236082758652255, -1.4757606901550453, -1.8154121902832205, 1.5721135142512621, 2.3201682575886164,0.0, 0.0, 0.0, 0.0, 0.0, 0.0,1.0,-8788.160654066609, -2845.1832207363123, 21692.052559739463, -76.90690427055674, 222.24210761123572, 38.19792405508605,1.0,769
9391.693,0.7269052265185433, -1.4236082758652255, -1.4757606901550453, -1.8154121902832205, 1.5721135142512621, 2.3201682575886164,0.0, 0.0, 0.0, 0.0, 0.0, 0.0,1.0,-8787.86091049782, -2844.918176788209, 21692.024902477366, -76.90137296882321, 222.23503146231195, 38.19634000951015,1.0,769
9391.701,0.7269052265185433, -1.4236082758652255, -1.4757606901550453, -1.8154121902832205, 1.5721135142512621, 2.3201682575886164,0.0, 0.0, 0.0, 0.0, 0.0, 0.0,1.0,-8788.095089043343, -2845.102805424842, 21692.17214455637, -76.90468433942121, 222.23941949081097, 38.19592139716289,1.0,769
9391.708999999999,0.7269052265185433, -1.4236082758652255, -1.4757606901550453, -1.8154121902832205, 1.5721135142512621, 2.3201682575886164,0.0, 0.0, 0.0, 0.0, 0.0, 0.0,1.0,-8788.027741517028, -2844.9240476258556, 21692.34320137557, -76.90328313313404, 222.2369515064288, 38.19393524223409,1.0,769
9391.716999999999,0.7269052265185433, -1.4236082758652255, -1.4757606901550453, -1.8154121902832205, 1.5721135142512621, 2.3201682575886164,0.0, 0.0, 0.0, 0.0, 0.0, 0.0,1.0,-8788.168294415676, -2845.124602500545, 21692.19797077995, -76.91132144067231, 222.23795304870447, 38.197296719323475,1.0,769
9391.725,0.7269052265185433, -1.4236082758652255, -1.4757606901550453, -1.8154121902832205, 1.5721135142512621, 2.3201682575886164,0.0, 0.0, 0.0, 0.0, 0.0, 0.0,1.0,-8788.383295317522, -2845.252043996681, 21692.22084969399, -76.90999689097723, 222.24380479591827, 38.19723476697152,1.0,769
9391.733,0.7269052265185433, -1.4236082758652255, -1.4757606901550453, -1.8154121902832205, 1.5721135142512621, 2.3201682575886164,0.0, 0.0, 0.0, 0.0, 0.0, 0.0,1.0,-8787.980635257572, -2844.9326040704636, 21692.237279822217, -76.90013679263942, 222.23819399958455, 38.19951614566375,1.0,769
9391.741,0.7269052265185433, -1.4236082758652255, -1.4757606901550453, -1.8154121902832205, 1.5721135142512621, 2.3201682575886164,0.0, 0.0, 0.0, 0.0, 0.0, 0.0,1.0,-8787.897274203187, -2845.0674596347626, 21692.30073201416, -76.90779363170196, 222.23566466319795, 38.19663879864976,1.0,769
9391.749,0.7269052265185433, -1.4236082758652255, -1.4757606901550453, -1.8154121902832205, 1.5721135142512621, 2.3201682575886164,0.0, 0.0, 0.0, 0.0, 0.0, 0.0,1.0,-8788.165773759916, -2845.172878802272, 21691.994517536, -76.90416524253044, 222.24486278554485, 38.194841333159076,1.0,769
9391.757,0.7269052265185433, -1.4236082758652255, -1.4757606901550453, -1.8154121902832205, 1.5721135142512621, 2.3201682575886164,0.0, 0.0, 0.0, 0.0, 0.0, 0.0,1.0,-8788.12978423278, -2845.0878145085117, 21692.111696202614, -76.90309957270628, 222.24018781882495, 38.199081501405146,1.0,769
9391.765,0.7269052265185433, -1.4236082758652255, -1.4757606901550453, -1.8154121902832205, 1.5721135142512621, 2.3201682575886164,0.0, 0.0, 0.0, 0.0, 0.0, 0.0,1.0,-8788.314552846317, -2845.3437140319347, 21692.081368363844, -76.91394897993067, 222.24658286972772, 38.200968893590925,1.0,769
9391.773,0.7269052265185433, -1.4236082758652255, -1.4757606901550453, -1.8154121902832205, 1.5721135142512621, 2.3201682575886164,0.0, 0.0, 0.0, 0.0, 0.0, 0.0,1.0,-8788.181109764288, -2845.1775262307256, 21692.159777496134, -76.90411770250981, 222.2431917010416, 38.19207537204974,1.0,769
9391.780999999999,0.7269052265185433, -1.4236082758652255, -1.4757606901550453, -1.8154121902832205, 1.5721135142512621, 2.3201682575886164,0.0, 0.0, 0.0, 0.0, 0.0, 0.0,1.0,-8788.148768548795, -2845.343198481087, 21692.12747088626, -76.9103156364626, 222.24008643544641, 38.19893467994183,1.0,769
9391.788999999999,0.7269052265185433, -1.4236082758652255, -1.4757606901550453, -1.8154121902832205, 1.5721135142512621, 2.3201682575886164,0.0, 0.0, 0.0, 0.0, 0.0, 0.0,1.0,-8788.25245022812, -2845.1426674244904, 21692.291087519792, -76.90913199107086, 222.24502229805393, 38.19612847732708,1.0,769
9391.797,0.7269052265185433, -1.4236082758652255, -1.4757606901550453, -1.8154121902832205, 1.5721135142512621, 2.3201682575886164,0.0, 0.0, 0.0, 0.0, 0.0, 0.0,1.0,-8788.05349821075, -2845.0644351905294, 21692.15563169328, -76.90670626317294, 222.23491993486783, 38.196644904717346,1.0,769
9391.805,0.7269052265185433, -1.4236082758652255, -1.4757606901550453, -1.8154121902832205, 1.5721135142512621, 2.3201682575886164,0.0, 0.0, 0.0, 0.0, 0.0, 0.0,1.0,-8788.032651204736, -2845.033451762668, 21692.19565210008, -76.90696236600806, 222.2371442210963, 38.19732445911447,1.0,769
9391.813,0.7269052265185433, -1.4236082758652255, -1.4757606901550453, -1.8154121902832205, 1.5721135142512621, 2.3201682575886164,0.0, 0.0, 0.0, 0.0, 0.0, 0.0,1.0,-8788.011539216404, -2844.943250824529, 21692.249106280466, -76.90613822716406, 222.23421104444776, 38.196997087722735,1.0,769
9391.821,0.7269052265185433, -1.4236082758652255, -1.4757606901550453, -1.8154121902832205, 1.5721135142512621, 2.3201682575886164,0.0, 0.0, 0.0, 0.0, 0.0, 0.0,1.0,-8787.955632042405, -2845.023245639022, 21692.18862114832, -76.90781872974614, 222.23697176939538, 38.19954520626743,1.0,769
9391.829,0.7269052265185433, -1.4236082758652255, -1.4757606901550453, -1.8154121902832205, 1.5721135142512621, 2.3201682575886164,0.0, 0.0, 0.0, 0.0, 0.0, 0.0,1.0,-8788.167036320816, -2845.1204140922628, 21692.13745337921, -76.90650048591175, 222.24561884319024, 38.19703061346243,1.0,769
9391.837,0.7269052265185433, -1.4236082758652255, -1.4757606901550453, -1.8154121902832205, 1.5721135142512621, 2.3201682575886164,0.0, 0.0, 0.0, 0.0, 0.0, 0.0,1.0,-8787.847935246691, -2845.22149036485, 21692.343735492817, -76.90648909139057, 222.2389482401365, 38.197084928895435,1.0,769
9391.845,0.7269052265185433, -1.4236082758652255, -1.4757606901550453, -1.8154121902832205, 1.5721135142512621, 2.3201682575886164,0.0, 0.0, 0.0, 0.0, 0.0, 0.0,1.0,-8788.195115884888, -2845.260248754241, 21692.166508038852, -76.90932267831971, 222.24686217602635, 38.19468278296796,1.0,769
9391.853,0.7269052265185433, -1.4236082758652255, -1.4757606901550453, -1.8154121902832205, 1.5721135142512621, 2.3201682575886164,0.0, 0.0, 0.0, 0.0, 0.0, 0.0,1.0,-8788.102470419322, -2844.8813788499647, 21692.180574744227, -76.90207089188323, 222.2435402619762, 38.20036005456984,1.0,769
9391.860999999999,0.7269052265185433, -1.4236082758652255, -1.4757606901550453, -1.8154121902832205, 1.5721135142512621, 2.3201682575886164,0.0, 0.0, 0.0, 0.0, 0.0, 0.0,1.0,-8787.997002906488, -2845.0382792563623, 21692.19235863601, -76.9060540451209, 222.23877767607615, 38.199570644675305,1.0,769
9391.868999999999,0.7269052265185433, -1.4236082758652255, -1.4757606901550453, -1.8154121902832205, 1.5721135142512621, 2.3201682575886164,0.0, 0.0, 0.0, 0.0, 0.0, 0.0,1.0,-8788.189292990213, -2845.1304681469383, 21692.29133637383, -76.90899526623772, 222.2401776114661, 38.19952598982246,1.0,769
9391.877,0.7269052265185433, -1.4236082758652255, -1.4757606901550453, -1.8154121902832205, 1.5721135142512621, 2.3201682575886164,0.0, 0.0, 0.0, 0.0, 0.0, 0.0,1.0,-8788.278285033639, -2845.0570740099456, 21692.342089710102, -76.90851264954634, 222.24251737333356, 38.19620459108128,1.0,769
9391.885,0.7269052265185433, -1.4236082758652255, -1.4757606901550453, -1.8154121902832205, 1.5721135142512621, 2.3201682575886164,0.0, 0.0, 0.0, 0.0, 0.0, 0.0,1.0,-8788.052411721632, -2845.1325880163313, 21692.329236879326, -76.90651741457773, 222.2393435770926, 38.19887473722852,1.0,769
9391.893,0.7269361143619375, -1.4236222562162268, -1.4757654493191197, -1.815393383666465, 1.5721134813193856, 2.320195161113792,0.6512238113226282, -0.2947547145389046, -0.10033983039200862, 0.396509283130945, -0.0006943191814826963, 0.5672204426607702,1.0,-8787.726219649874, -2845.236618041612, 21692.32963884603, -76.89397485273659, 222.24242735151972, 38.19562288642166,1.0,769
9391.901,0.7270550937030051, -1.4236761082423692, -1.4757837815218053, -1.8153209409633355, 1.5721133544664707, 2.320298792942565,0.6512238113226282, -0.2947547145389046, -0.10033983039200864, 0.396509283130945, -0.0006943191814826963, 0.5672204426607702,1.0,-8788.963540772002, -2846.7930949990105, 21692.203005109208, -76.83481607882632, 222.1955924766994, 38.1524642678616,1.0,769
9391.909,0.7272634339017748, -1.4237704064770895, -1.4758158823446639, -1.815194089301242, 1.5721131323391564, 2.3204802586962976,0.6512238113226282, -0.2947547145389046, -0.10033983039200862, 0.3965092831309451, -0.0006943191814826962, 0.5672204426607702,1.0,-8787.17834948298, -2846.1767345079606, 21692.204718407906, -76.8758582183745, 222.26939252386063, 38.15544261391267,1.0,769
9391.917,0.7275611349582467, -1.4239051509203868, -1.4758617517876953, -1.8150128286801825, 1.5721128149374424, 2.3207395583749895,0.6512238113226282, -0.2947547145389046, -0.10033983039200864, 0.3965092831309451, -0.0006943191814826963, 0.5672204426607702,1.0,-8788.659672985836, -2845.830868768593, 21691.54638634215, -76.87721587965189, 222.2256009847635, 38.15125574758224,1.0,769
9391.925,0.7279481968724206, -1.4240803415722603, -1.4759213898508987, -1.8147771591001582, 1.5721124022613289, 2.321076691978641,0.6512238113226281, -0.29475471453890456, -0.10033983039200862, 0.396509283130945, -0.0006943191814826962, 0.5672204426607701,1.0,-8788.31788115523, -2846.9686609709706, 21691.610334324287, -76.85805860019354, 222.23864394689554, 38.15613662990282,1.0,769
9391.932999999999,0.7284246196442966, -1.4242959784327098, -1.475994796534275, -1.8144870805611681, 1.572111894310816, 2.321491659507252,0.6512238113226282, -0.2947547145389046, -0.10033983039200862, 0.3965092831309451, -0.0006943191814826963, 0.5672204426607702,1.0,-8788.190297187008, -2846.989456080267, 21691.878646035235, -76.83926842381709, 222.230022653554, 38.15963761717495,1.0,769
9391.940999999999,0.7289904032738748, -1.4245520615017373, -1.4760819718378242, -1.8141425930632131, 1.5721112910859036, 2.3219844609608224,0.6512238113226281, -0.29475471453890456, -0.10033983039200862, 0.396509283130945, -0.0006943191814826962, 0.5672204426607702,1.0,-8787.447104818, -2846.4115613067233, 21692.011159260444, -76.86666757335578, 222.25917904005615, 38.16121051148852,1.0,769
9391.948999999999,0.729645547761155, -1.4248485907793418, -1.4761829157615463, -1.8137436966062932, 1.5721105925865915, 2.3225550963393524,0.6512238113226282, -0.2947547145389046, -0.10033983039200862, 0.39650928313094497, -0.0006943191814826962, 0.5672204426607701,1.0,-8787.473135005392, -2845.9053945334463, 21691.996815512815, -76.86794871109603, 222.25926510816095, 38.16149999054258,1.0,769
9391.957,0.7303900531061374, -1.4251855662655224, -1.4762976283054403, -1.8132903911904075, 1.57210979881288, 2.3232035656428422,0.6512238113226281, -0.29475471453890456, -0.10033983039200861, 0.396509283130945, -0.0006943191814826962, 0.5672204426607701,1.0,-8788.12908993584, -2846.8003068922035, 21692.068886685534, -76.85809754586182, 222.2374308101622, 38.16045714173495,1.0,769
9391.965,0.7312239193088218, -1.42556298796028, -1.4764261094695073, -1.8127826768155568, 1.572108909764769, 2.323929868871291,0.6512238113226282, -0.29475471453890467, -0.10033983039200864, 0.3965092831309451, -0.0006943191814826963, 0.5672204426607702,1.0,-8788.747689893064, -2846.1521313786243, 21691.832962027813, -76.87679335767376, 222.21699683821356, 38.16054852931208,1.0,769
9391.973,0.7321471463692084, -1.4259808558636147, -1.476568359253747, -1.8122205534817413, 1.5721079254422585, 2.3247340060246997,0.6512238113226281, -0.29475471453890456, -0.10033983039200862, 0.3965092831309451, -0.0006943191814826962, 0.5672204426607701,1.0,-8788.540409111989, -2846.212141336936, 21691.96322747411, -76.86629416581647, 222.23944510358706, 38.15667579898647,1.0,769
9391.981,0.7331597342872971, -1.4264391699755254, -1.4767243776581598, -1.81160402118896, 1.5721068458453484, 2.3256159771030678,0.6512238113226282, -0.2947547145389046, -0.10033983039200862, 0.396509283130945, -0.0006943191814826962, 0.5672204426607701,1.0,-8787.988007369406, -2846.082744282494, 21692.064496421423, -76.87555908528063, 222.2625839890166, 38.167722712934136,1.0,769
9391.989,0.7342616830630879, -1.4269379302960132, -1.4768941646827454, -1.8109330799372136, 1.5721056709740389, 2.3265757821063957,0.6512238113226281, -0.2947547145389046, -0.10033983039200862, 0.396509283130945, -0.0006943191814826962, 0.5672204426607702,1.0,-8788.39352157998, -2847.3676185869463, 21692.26048127769, -76.84269470489755, 222.23976574528928, 38.17447353063773,1.0,769
9391.997,0.7354529926965808, -1.427477136825079, -1.477077720327503, -1.8102077297265016, 1.5721044008283298, 2.3276134210346826,0.6512238113226282, -0.29475471453890456, -0.10033983039200861, 0.396509283130945, -0.0006943191814826962, 0.5672204426607702,1.0,-8787.958885098325, -2847.510913507742, 21692.238139488603, -76.83001196313504, 222.26964406978948, 38.16732686891413,1.0,769
9392.005,0.7367336631877759, -1.4280567895627199, -1.4772750445924334, -1.8094279705568255, 1.572103035408221, 2.3287288938879294,0.6512238113226282, -0.2947547145389046, -0.10033983039200862, 0.396509283130945, -0.0006943191814826963, 0.5672204426607702,1.0,-8787.710155644896, -2846.5326408214223, 21692.08965258768, -76.86517278620892, 222.26635719025643, 38.16440710368951,1.0,769
9392.012999999999,0.738103694536673, -1.4286768885089387, -1.4774861374775368, -1.8085938024281827, 1.572101574713713, 2.3299222006661355,0.6512238113226281, -0.29475471453890456, -0.10033983039200861, 0.396509283130945, -0.0006943191814826962, 0.5672204426607701,1.0,-8789.201913307292, -2845.864602684139, 21691.74588116266, -76.87893384449845, 222.20465589248562, 38.17087799077268,1.0,769
9392.020999999999,0.7395630867432722, -1.4293374336637337, -1.477710998982813, -1.8077052253405759, 1.5721000187448053, 2.331193341369301,0.6512238113226282, -0.29475471453890467, -0.10033983039200864, 0.3965092831309451, -0.0006943191814826963, 0.5672204426607702,1.0,-8788.46103790448, -2846.2542354325215, 21691.080407840505, -76.87491142502387, 222.21399072919553, 38.16947732410884,1.0,769
9392.029,0.7411118398075736, -1.4300384250271057, -1.4779496291082612, -1.8067622392940033, 1.5720983675014981, 2.3325423159974266,0.6512238113226282, -0.2947547145389046, -0.10033983039200864, 0.3965092831309451, -0.0006943191814826963, 0.5672204426607702,1.0,-8787.561755303357, -2846.692500883476, 21692.020683173432, -76.8496190935347, 222.26191473223957, 38.17840642321357,1.0,769
9392.037,0.742749953729577, -1.4307798625990547, -1.4782020278538832, -1.8057648442884657, 1.5720966209837914, 2.3339691245505114,0.6512238113226282, -0.2947547145389046, -0.10033983039200864, 0.3965092831309451, -0.0006943191814826963, 0.5672204426607702,1.0,-8787.68379431611, -2846.787994284513, 21692.597102774096, -76.86308264498459, 222.25301489070233, 38.186635325319315,1.0,769
9392.045,0.7444774285092826, -1.4315617463795807, -1.4784681952196772, -1.8047130403239624, 1.572094779191685, 2.3354737670285557,0.6512238113226282, -0.2947547145389046, -0.10033983039200862, 0.3965092831309451, -0.0006943191814826963, 0.5672204426607702,1.0,-8788.382511626847, -2846.019027879888, 21691.91662251368, -76.86687858473414, 222.22425450540834, 38.171078521587134,1.0,769
9392.053,0.7462942641466903, -1.4323840763686828, -1.478748131205644, -1.803606827400495, 1.5720928421251794, 2.3370562434315594,0.6512238113226282, -0.2947547145389046, -0.10033983039200864, 0.396509283130945, -0.0006943191814826962, 0.5672204426607702,1.0,-8788.055047900918, -2846.55020223109, 21691.3809779797, -76.8656517246925, 222.21773817523473, 38.180142815050374,1.0,769
9392.061,0.7482004606418, -1.433246852566362, -1.479041835811783, -1.802446205518061, 1.572090809784274, 2.3387165537595225,0.6512238113226282, -0.2947547145389046, -0.10033983039200862, 0.3965092831309451, -0.0006943191814826962, 0.5672204426607702,1.0,-8787.377585919485, -2846.5211582006614, 21691.924167540812, -76.85335782826539, 222.25798040982784, 38.16980989570979,1.0,769
9392.069,0.750196017994612, -1.4341500749726181, -1.4793493090380956, -1.801231174676663, 1.5720886821689695, 2.3404546980124454,0.6512238113226282, -0.2947547145389046, -0.10033983039200864, 0.3965092831309451, -0.0006943191814826964, 0.5672204426607702,1.0,-8789.34543201905, -2846.2926467354437, 21692.02377534221, -76.86870451332928, 222.18892235521525, 38.18954795356811,1.0,769
9392.077,0.7522809362051259, -1.4350937435874513, -1.4796705508845802, -1.799961734876299, 1.5720864592792652, 2.342270676190328,0.6512238113226282, -0.2947547145389046, -0.10033983039200864, 0.396509283130945, -0.0006943191814826963, 0.5672204426607702,1.0,-8787.341530915819, -2846.416447836178, 21691.520313262157, -76.8668871145239, 222.25905579096946, 38.170066985350644,1.0,769
9392.085,0.754455215273342, -1.4360778584108607, -1.4800055613512377, -1.7986378861169694, 1.5720841411151614, 2.3441644882931696,0.6512238113226282, -0.29475471453890456, -0.10033983039200862, 0.396509283130945, -0.0006943191814826962, 0.5672204426607701,1.0,-8788.05025892819, -2846.6950202810867, 21692.037848498345, -76.85805595538343, 222.2275205446971, 38.17895485948665,1.0,769
9392.092999999999,0.7567188551992603, -1.437102419442848, -1.4803543404380681, -1.7972596283986757, 1.5720817276766579, 2.3461361343209712,0.6512238113226282, -0.2947547145389046, -0.10033983039200864, 0.3965092831309451, -0.0006943191814826963, 0.5672204426607702,1.0,-8788.841779988752, -2846.703356213461, 21691.33061502364, -76.85328316062188, 222.17199474053308, 38.17214655320953,1.0,769
9392.100999999999,0.7590718559828806, -1.4381674266834104, -1.4807168881450714, -1.7958269617214162, 1.5720792189637551, 2.348185614273732,0.6512238113226282, -0.2947547145389046, -0.10033983039200862, 0.396509283130945, -0.0006943191814826963, 0.5672204426607701,1.0,-8786.609098888996, -2846.2929588460192, 21691.524196257767, -76.86255064961708, 222.28173768008503, 38.185409640706126,1.0,769
9392.109,0.7615142176242031, -1.4392728801325507, -1.4810932044722467, -1.7943398860851918, 1.5720766149764527, 2.3503129281514523,0.6512238113226282, -0.2947547145389046, -0.10033983039200862, 0.396509283130945, -0.0006943191814826962, 0.5672204426607701,1.0,-8788.927621516967, -2845.9797994716364, 21691.995281938423, -76.8946637884903, 222.19828643853032, 38.18052575494286,1.0,769
9392.117,0.7640459401232277, -1.4404187797902672, -1.4814832894195948, -1.7927984014900016, 1.5720739157147507, 2.352518075954132,0.6512238113226282, -0.2947547145389046, -0.10033983039200862, 0.3965092831309451, -0.0006943191814826963, 0.5672204426607702,1.0,-8787.558095534616, -2847.0786567917376, 21691.512410185667, -76.84346199943423, 222.23859787983662, 38.16119147086107,1.0,769
9392.125,0.7666670234799543, -1.4416051256565616, -1.4818871429871159, -1.7912025079358465, 1.5720711211786493, 2.3548010576817715,0.6512238113226282, -0.2947547145389046, -0.10033983039200864, 0.3965092831309451, -0.0006943191814826963, 0.5672204426607701,1.0,-8788.35326719757, -2845.711790515019, 21691.381669895778, -76.88526152339674, 222.21430734123885, 38.17833863562973,1.0,769
9392.133,0.7693774676943831, -1.4428319177314322, -1.4823047651748098, -1.7895522054227255, 1.5720682313681484, 2.3571618733343707,0.6512238113226282, -0.2947547145389046, -0.10033983039200862, 0.396509283130945, -0.0006943191814826963, 0.5672204426607702,1.0,-8788.102572354257, -2845.5282567975264, 21691.40850791621, -76.89048471376063, 222.2091628823855, 38.160917639434615,1.0,769
9392.141,0.7721772727665139, -1.4440991560148788, -1.4827361559826766, -1.7878474939506397, 1.572065246283248, 2.3596005229119292,0.6512238113226282, -0.29475471453890456, -0.10033983039200862, 0.396509283130945, -0.0006943191814826962, 0.5672204426607702,1.0,-8787.101046733125, -2847.230238081863, 21692.207094466787, -76.82068563751366, 222.26872894920308, 38.16707708039718,1.0,769
9392.149,0.775066438696347, -1.4454068405069034, -1.4831813154107154, -1.7860883735195898, 1.572062165923948, 2.362117006414447,0.6512238113226281, -0.2947547145389046, -0.10033983039200862, 0.396509283130945, -0.0006943191814826963, 0.5672204426607701,1.0,-8788.881754042954, -2845.6883867455017, 21691.52166675783, -76.89020843109788, 222.1759472073661, 38.19326830081798,1.0,769
9392.157,0.778044965483882, -1.446754971207504, -1.483640243458927, -1.7842748441295733, 1.5720589902902486, 2.3647113238419246,0.6512238113226281, -0.2947547145389046, -0.10033983039200862, 0.396509283130945, -0.0006943191814826963, 0.5672204426607701,1.0,-8786.582400606814, -2846.9413627640843, 21692.001439131334, -76.818188136933, 222.28743858944847, 38.17663087514987,1.0,769
9392.164999999999,0.7811128531291193, -1.4481435481166818, -1.4841129401273117, -1.7824069057805918, 1.5720557193821496, 2.367383475194362,0.6512238113226282, -0.2947547145389046, -0.10033983039200862, 0.396509283130945, -0.0006943191814826963, 0.5672204426607702,1.0,-8789.240601096235, -2844.8874817717315, 21691.55983807715, -76.9220156967194, 222.1576138115936, 38.166233929222585,1.0,769
9392.172999999999,0.7842701016320586, -1.4495725712344365, -1.484599405415869, -1.7804845584726454, 1.572052353199651, 2.370133460471758,0.6512238113226282, -0.29475471453890467, -0.10033983039200864, 0.3965092831309451, -0.0006943191814826964, 0.5672204426607702,1.0,-8787.001128613827, -2847.8766039079, 21692.26666773162, -76.78977846795576, 222.2660818128959, 38.166963581314775,1.0,769
9392.180999999999,0.7875167109927, -1.4510420405607682, -1.4850996393245985, -1.7785078022057341, 1.572048891742753, 2.372961279674114,0.6512238113226282, -0.29475471453890467, -0.10033983039200864, 0.3965092831309451, -0.0006943191814826964, 0.5672204426607702,1.0,-8788.305813910198, -2846.919248056506, 21692.05919776308, -76.85724052264331, 222.20231099073567, 38.16867137429753,1.0,769
9392.189,0.7908526812110436, -1.4525519560956761, -1.4856136418535009, -1.776476636979857, 1.5720453350114554, 2.3758669328014297,0.6512238113226283, -0.2947547145389046, -0.10033983039200865, 0.3965092831309451, -0.0006943191814826963, 0.5672204426607703,1.0,-8788.692550210033, -2844.8605303491377, 21691.809782216504, -76.89076441428634, 222.18898578705392, 38.182197078852255,1.0,769
9392.197,0.7942780122870893, -1.454102317839161, -1.486141413002576, -1.774391062795015, 1.5720416830057584, 2.378850419853705,0.6512238113226282, -0.29475471453890456, -0.10033983039200862, 0.3965092831309451, -0.0006943191814826962, 0.5672204426607701,1.0,-8786.873629118034, -2848.399951653797, 21691.372425166137, -76.79999657994935, 222.26467612048145, 38.170471980513355,1.0,769
9392.205,0.797792704220837, -1.455693125791223, -1.4866829527718242, -1.7722510796512072, 1.5720379357256618, 2.38191174083094,0.6512238113226281, -0.29475471453890456, -0.10033983039200862, 0.396509283130945, -0.0006943191814826962, 0.5672204426607701,1.0,-8789.49643512915, -2844.4080594335373, 21691.54098703329, -76.91768798100742, 222.16264572313906, 38.16401579499504,1.0,769
9392.213,0.8013967570122869, -1.4573243799518618, -1.4872382611612451, -1.7700566875484345, 1.5720340931711656, 2.3850508957331336,0.6512238113226282, -0.2947547145389046, -0.10033983039200862, 0.396509283130945, -0.0006943191814826962, 0.5672204426607702,1.0,-8787.289410632477, -2848.1191757120196, 21691.699923565564, -76.79268773086545, 222.28160491887564, 38.168024528148834,1.0,769
9392.221,0.8050901706614388, -1.4589960803210769, -1.487807338170838, -1.7678078864866968, 1.57203015534227, 2.3882678845602876,0.6512238113226282, -0.2947547145389046, -0.10033983039200861, 0.39650928313094497, -0.0006943191814826963, 0.5672204426607702,1.0,-8788.148556956585, -2845.147591574095, 21691.246586609857, -76.88719456575521, 222.2080507498116, 38.133007832271375,1.0,769
9392.229,0.808872945168293, -1.460708226898869, -1.488390183800604, -1.7655046764659934, 1.5720261222389749, 2.3915627073124006,0.6512238113226282, -0.29475471453890467, -0.10033983039200864, 0.3965092831309451, -0.0006943191814826963, 0.5672204426607702,1.0,-8789.258979973936, -2846.3595342372346, 21691.868401295797, -76.85554361345939, 222.1770654867517, 38.1512101573004,1.0,769
9392.237,0.8127450805328492, -1.462460819685238, -1.4889867980505427, -1.763147057486325, 1.57202199386128, 2.3949353639894735,0.6512238113226282, -0.2947547145389046, -0.10033983039200862, 0.396509283130945, -0.0006943191814826963, 0.5672204426607702,1.0,-8786.64987012569, -2847.2352627130385, 21692.004065452005, -76.83522413411734, 222.2772441353934, 38.14168000209614,1.0,769
9392.244999999999,0.8167065767551075, -1.464253858680184, -1.4895971809206543, -1.7607350295476918, 1.572017770209186, 2.3983858545915053,0.6512238113226281, -0.2947547145389046, -0.10033983039200862, 0.396509283130945, -0.0006943191814826962, 0.5672204426607702,1.0,-8788.53890250537, -2846.0035798824, 21691.57096487207, -76.85859799329043, 222.1804433652881, 38.15815825885966,1.0,769
9392.252999999999,0.8207574338350679, -1.4660873438837063, -1.490221332410938, -1.7582685926500927, 1.5720134512826922, 2.4019141791184975,0.6512238113226282, -0.2947547145389046, -0.10033983039200862, 0.396509283130945, -0.0006943191814826963, 0.5672204426607701,1.0,-8789.190365803028, -2846.643409206882, 21691.8648277817, -76.84123623671655, 222.16817462215317, 38.14617120873757,1.0,769
9392.261,0.8248976517727304, -1.4679612752958056, -1.4908592525213953, -1.7557477467935287, 1.572009037081799, 2.4055203375704486,0.6512238113226281, -0.2947547145389046, -0.10033983039200864, 0.396509283130945, -0.0006943191814826962, 0.5672204426607702,1.0,-8788.049245894295, -2847.0370552053846, 21691.990735315016, -76.85077522391384, 222.21533239755928, 38.14835349344469,1.0,769
9392.269,0.8291272305680951, -1.4698756529164818, -1.4915109412520247, -1.7531724919779998, 1.5720045276065062, 2.409204329947359,0.6512238113226282, -0.2947547145389046, -0.10033983039200864, 0.3965092831309451, -0.0006943191814826963, 0.5672204426607702,1.0,-8787.088025249632, -2848.5383864578716, 21691.95775303267, -76.79205942059755, 222.25244625077266, 38.134147673569515,1.0,769
9392.277,0.8334461702211619, -1.471830476745735, -1.492176398602827, -1.7505428282035052, 1.571999922856814, 2.4129661562492295,0.6512238113226283, -0.29475471453890467, -0.10033983039200864, 0.3965092831309451, -0.0006943191814826963, 0.5672204426607702,1.0,-8788.435050336715, -2844.5487359998097, 21691.99595264336, -76.92349912934566, 222.20200997240448, 38.15265449547181,1.0,769
9392.285,0.8378544707319306, -1.4738257467835645, -1.4928556245738012, -1.7478587554700455, 1.571995222832722, 2.4168058164760593,0.6512238113226282, -0.2947547145389046, -0.10033983039200864, 0.3965092831309451, -0.0006943191814826963, 0.5672204426607702,1.0,-8788.975264182971, -2846.931640133944, 21691.429604666606, -76.82582383665502, 222.18024373105686, 38.15562211120724,1.0,769
9392.293,0.8423521321004017, -1.4758614630299718, -1.4935486191649492, -1.745120273777621, 1.571990427534231, 2.4207233106278485,0.6512238113226282, -0.29475471453890467, -0.10033983039200862, 0.3965092831309451, -0.0006943191814826963, 0.5672204426607702,1.0,-8788.141723244324, -2845.3954402905156, 21691.37143428612, -76.8821550062595, 222.21218943679986, 38.17186339171482,1.0,769
9392.301,0.8469391543265747, -1.4779376254849552, -1.4942553823762692, -1.7423273831262307, 1.57198553696134, 2.4247186387045976,0.6512238113226282, -0.29475471453890456, -0.10033983039200862, 0.396509283130945, -0.0006943191814826962, 0.5672204426607702,1.0,-8787.41892792341, -2847.23753008121, 21691.311176230098, -76.83166152475428, 222.21887422193203, 38.148057627821714,1.0,769
9392.309,0.8516155374104499, -1.4800542341485148, -1.494975914207762, -1.7394800835158755, 1.5719805511140497, 2.428791800706306,0.6512238113226281, -0.2947547145389046, -0.10033983039200862, 0.3965092831309451, -0.0006943191814826963, 0.5672204426607702,1.0,-8787.681106413773, -2845.870698875492, 21691.381695024327, -76.8910321335457, 222.21829787137727, 38.163472727911454,1.0,769
9392.317,0.8563812813520273, -1.4822112890206522, -1.4957102146594279, -1.7365783749465553, 1.5719754699923598, 2.432942796632974,0.6512238113226281, -0.2947547145389046, -0.10033983039200862, 0.396509283130945, -0.0006943191814826962, 0.5672204426607702,1.0,-8788.769612103742, -2846.7486538229723, 21691.398813784625, -76.85664363392283, 222.1601881798261, 38.161520295948776,1.0,769
9392.324999999999,0.8612363861513067, -1.4844087901013658, -1.4964582837312665, -1.7336222574182694, 1.5719702935962703, 2.4371716264846013,0.6512238113226282, -0.2947547145389046, -0.10033983039200864, 0.3965092831309451, -0.0006943191814826964, 0.5672204426607702,1.0,-8788.931127272217, -2845.932806836656, 21691.48679120463, -76.86581450928807, 222.1500289338386, 38.13166339059859,1.0,769
9392.332999999999,0.8661808518082882, -1.4866467373906573, -1.4972201214232772, -1.7306117309310185, 1.5719650219257815, 2.441478290261188,0.6512238113226282, -0.29475471453890467, -0.10033983039200862, 0.3965092831309451, -0.0006943191814826963, 0.5672204426607702,1.0,-8787.552322055348, -2845.8573749780417, 21691.462171813124, -76.87602565483132, 222.2326585162475, 38.1758959607547,1.0,769
9392.341,0.8712140960518446, -1.4889248673429396, -1.4979956380197823, -1.7275471500110076, 1.5719596556016966, 2.4458622808005566,0.6512238113226282, -0.2947547145389046, -0.10033983039200864, 0.39650928313094513, -0.000694319181482696, 0.5672204426607703,1.0,-8789.609891231372, -2845.870314289733, 21691.562736754582, -76.87093993841731, 222.16571341432865, 38.17934470177312,1.0,769
9392.349,0.8762334958902188, -1.4911967310874665, -1.498769021485951, -1.7244909985050931, 1.5719543040381836, 2.4502342127672816,0.6512238113226282, -0.2947547145389046, -0.10033983039200865, 0.39650928313094513, -0.0006943191814826963, 0.5672204426607703,1.0,-8787.076643820526, -2846.06235125287, 21692.04505772486, -76.82433258322726, 222.2572554519897, 38.166234856450956,1.0,769
9392.357,0.8811635348708908, -1.4934281486234173, -1.4995286363319469, -1.7214892559581436, 1.5719490477490705, 2.454528310809047,0.6512238113226282, -0.2947547145389046, -0.10033983039200865, 0.39650928313094513, -0.0006943191814826962, 0.5672204426607703,1.0,-8786.785880527645, -2841.4818404628704, 21692.857584120735, -76.97407093615982, 222.3002035877289, 38.17115443871555,1.0,769
9392.365,0.8860042129938606, -1.4956191199507902, -1.5002744825577699, -1.718541922370159, 1.571943886734357, 2.4587445749258534,0.6512238113226281, -0.2947547145389046, -0.10033983039200865, 0.39650928313094513, -0.0006943191814826963, 0.5672204426607703,1.0,-8788.89977272931, -2844.0481880415737, 21693.198929262075, -76.88159078865073, 222.1799320063866, 38.155220008907065,1.0,769
9392.373,0.8907555302591283, -1.497769645069587, -1.50100656016342, -1.7156489977411393, 1.5719388209940426, 2.4628830051176998,0.6512238113226281, -0.2947547145389046, -0.10033983039200862, 0.3965092831309451, -0.0006943191814826962, 0.5672204426607703,1.0,-8788.219282432803, -2844.3683175672904, 21693.403870386926, -76.89739518714342, 222.19844134047514, 38.15991949515865,1.0,769
9392.381,0.8954174866666941, -1.4998797239798067, -1.501724869148898, -1.7128104820710863, 1.5719338505281277, 2.4669436013845867,0.6512238113226281, -0.29475471453890456, -0.10033983039200862, 0.396509283130945, -0.000694319181482696, 0.5672204426607702,1.0,-8787.391614784841, -2840.3712706354963, 21693.351094720314, -77.02538872182686, 222.2374825851266, 38.176725350490415,1.0,769
9392.389,0.8999900822165574, -1.5019493566814504, -1.5024294095142023, -1.7100263753599974, 1.5719289753366128, 2.470926363726514,0.6512238113226281, -0.29475471453890456, -0.10033983039200864, 0.39650928313094513, -0.0006943191814826962, 0.5672204426607702,1.0,-8786.652215919454, -2843.6051994496565, 21692.959424238543, -76.91558154794336, 222.28189422723437, 38.152494029735635,1.0,769
9392.396999999999,0.9044733169087189, -1.503978543174516, -1.5031201812593356, -1.7072966776078733, 1.5719241954194971, 2.4748312921434823,0.6512238113226281, -0.2947547145389045, -0.10033983039200864, 0.396509283130945, -0.0006943191814826959, 0.5672204426607702,1.0,-8788.32537734869, -2844.377394173024, 21692.86898427334, -76.8886246564096, 222.20817535501476, 38.14604571972916,1.0,769
9392.404999999999,0.9088671907431781, -1.5059672834590057, -1.503797184384295, -1.704621388814715, 1.571919510776781, 2.478658386635491,0.6512238113226281, -0.2947547145389046, -0.10033983039200864, 0.3965092831309451, -0.0006943191814826962, 0.5672204426607703,1.0,-8787.741514019983, -2846.032193879404, 21692.3971436449, -76.86441651639728, 222.23739109441811, 38.14924492889742,1.0,769
9392.413,0.9131717037199354, -1.5079155775349182, -1.5044604188890816, -1.7020005089805217, 1.5719149214084642, 2.48240764720254,0.6512238113226281, -0.29475471453890456, -0.10033983039200864, 0.39650928313094513, -0.000694319181482696, 0.5672204426607703,1.0,-8788.044340854281, -2842.863907288318, 21692.222045082046, -76.96136448489943, 222.2199991936469, 38.15749437775767,1.0,769
9392.421,0.9173868558389906, -1.5098234254022538, -1.5051098847736961, -1.6994340381052941, 1.5719104273145474, 2.4860790738446292,0.6512238113226281, -0.29475471453890456, -0.10033983039200862, 0.396509283130945, -0.000694319181482696, 0.5672204426607703,1.0,-8787.989536581941, -2843.749059290956, 21691.728227199274, -76.92744950977172, 222.2219244243858, 38.172949561019834,1.0,769
9392.429,0.9215126471003436, -1.5116908270610132, -1.5057455820381378, -1.6969219761890315, 1.5719060284950297, 2.489672666561759,0.6512238113226281, -0.29475471453890456, -0.10033983039200864, 0.3965092831309451, -0.000694319181482696, 0.5672204426607702,1.0,-8787.30952076003, -2845.2439648807795, 21691.581625122577, -76.8879378158002, 222.21205060143262, 38.154981101536805,1.0,769
9392.437,0.9255490775039943, -1.5135177825111947, -1.5063675106824057, -1.6944643232317338, 1.5719017249499116, 2.4931884253539294,0.6512238113226281, -0.2947547145389046, -0.10033983039200865, 0.39650928313094513, -0.0006943191814826962, 0.5672204426607702,1.0,-8786.83602127604, -2844.847180316485, 21691.63725561015, -76.89850688274777, 222.2365186618249, 38.17292968514846,1.0,769
9392.445,0.9294961470499432, -1.5153042917528001, -1.5069756707065025, -1.6920610792334019, 1.5718975166791933, 2.49662635022114,0.6512238113226281, -0.29475471453890456, -0.10033983039200864, 0.3965092831309451, -0.000694319181482696, 0.5672204426607703,1.0,-8787.387034272439, -2841.3167845063517, 21691.862700582424, -77.00065579653813, 222.21790955314435, 38.17782016124826,1.0,769
9392.453,0.9333538557381899, -1.5170503547858285, -1.5075700621104255, -1.6897122441940349, 1.5718934036828742, 2.4999864411633914,0.6512238113226281, -0.2947547145389046, -0.10033983039200864, 0.3965092831309451, -0.0006943191814826962, 0.5672204426607703,1.0,-8786.917570851838, -2844.143257429876, 21692.5071894647, -76.90191272642599, 222.2325426699938, 38.16461632320892,1.0,769
9392.461,0.9371223858049561, -1.5187560126292654, -1.5081514598293628, -1.6874170015478143, 1.5718893860419534, 2.5032689251319398,0.6509162338663526, -0.2945642909713818, -0.10121631169967767, 0.39719493959504815, -0.0006936509262612001, 0.5670369406204177,1.0,-8786.592488499144, -2843.816287868455, 21692.7774241531, -76.92230798944016, 222.2609728779172, 38.17485639574272,1.0,769
9392.469,0.9408078215598444, -1.5204226228498063, -1.508746274271875, -1.6851475627374608, 1.571885466611378, 2.5064814302057092,0.6477628265450859, -0.2926301407238459, -0.11003616603474276, 0.40407648445139244, -0.0006868846345791745, 0.5651412976889407,1.0,-8787.603255765634, -2842.796650323119, 21692.576125700474, -76.95183802058102, 222.21777366891388, 38.16551709242532,1.0,769
9392.476999999999,0.9444219308708418, -1.5220527552694243, -1.5094081499413123, -1.6828476728615094, 1.5718816516285379, 2.509638952707561,0.6412217008796504, -0.2886890042992348, -0.12748481509689644, 0.41757513260716256, -0.0006732246636425955, 0.5611341786365339,1.0,-8788.596708749135, -2843.064343503447, 21692.39553806136, -76.93681156936188, 222.20690633509315, 38.151843241021254,1.0,769
9392.484999999999,0.9479743020274681, -1.5236484043683634, -1.5101854802851111, -1.6804669095274285, 1.5718779474759075, 2.5127541550636114,0.6312835830937732, -0.28283825763504794, -0.15216326745865372, 0.43638885225388985, -0.000653239919560432, 0.5548821863032765,1.0,-8786.722878000164, -2845.7368541180567, 21691.68536805352, -76.86619538655191, 222.2760146155764, 38.14168087785097,1.0,769
9392.493,0.9514720322369148, -1.525210931623624, -1.5111197088651105, -1.6779624404991216, 1.5718743604266872, 2.515836942844927,0.617991211722234, -0.27521053390961236, -0.18240178915633262, 0.4589801575526346, -0.0006276475447093375, 0.5462713909801228,1.0,-8789.108083674511, -2844.1201470859205, 21691.356667325326, -76.89946129508391, 222.17695414153366, 38.143330965106145,1.0,769
9392.501,0.9549199081896381, -1.526741119450131, -1.512245685543637, -1.675298613085662, 1.5718708965986274, 2.5188946510757106,0.6015267360931237, -0.26600405949639205, -0.21641771209359087, 0.48376448417689927, -0.0005973496871198795, 0.5352965225098879,1.0,-8787.547137226444, -2843.9185764101703, 21690.61402396932, -76.91231235758733, 222.21054301578903, 38.140944898602584,1.0,769
9392.509,0.9583205866249523, -1.528239225141899, -1.51359202266958, -1.672446543530012, 1.5718675619078541, 2.5219322305414877,0.582248839306443, -0.25549019624185426, -0.25247967239748165, 0.5092820962441837, -0.000563413428379373, 0.5221077405929715,1.0,-8786.717226983541, -2844.2692482558223, 21689.683431871774, -76.90636802946798, 222.25463299940168, 38.17547602967548,1.0,769
9392.517,0.9616747748966229, -1.5297050348132002, -1.5151814512644721, -1.669383706397757, 1.5718643620226913, 2.524952434097291,0.5606719775144632, -0.24399613672676204, -0.2890536897599334, 0.5343268590638153, -0.0005269946296820136, 0.5070062260843181,1.0,-8786.707544750716, -2845.43296257, 21689.23273229186, -76.88085271203497, 222.23633425642953, 38.18530305327411,1.0,769
9392.525,0.9649814115384595, -1.5311379173397315, -1.5170311772085654, -1.666093523965828, 1.5718613023174877, 2.527956002975848,0.5374030778048606, -0.2318711736335927, -0.32490434708636956, 0.5580135830232075, -0.0004892324136561405, 0.490399284115781,1.0,-8786.32350913003, -2844.9639745905124, 21689.499729492632, -76.89410918865983, 222.24362979480952, 38.19054173546408,1.0,769
9392.533,0.9682378468299099, -1.5325368782997817, -1.519153237426912, -1.6625649556112307, 1.571858387826439, 2.5309418530957677,0.5130630059959871, -0.21944959460379485, -0.3591370143286148, 0.5797829878262942, -0.0004511492731060214, 0.47273704713854264,1.0,-8785.978619397478, -2845.1446368334346, 21689.316026355933, -76.88219172478753, 222.28105836390432, 38.17078533288384,1.0,769
9392.541,0.9714400233616525, -1.5339006139153977, -1.5215548560754435, -1.6587920871997692, 1.5718556231974146, 2.5339072613697238,0.4882180314455396, -0.2070212390360671, -0.39118533439736847, 0.599359596215463, -0.0004135826171244729, 0.4544527454925193,1.0,-8786.740813443217, -2843.7069522419424, 21689.15829414364, -76.93755367186046, 222.23004017593126, 38.162773410817096,1.0,769
9392.548999999999,0.9745826566011895, -1.5352275649935532, -1.5242388007270442, -1.6547737204747772, 1.57185301264578, 2.536848052012643,0.4633354399989806, -0.1948150136045906, -0.4207613290980104, 0.6166852469428222, -0.0003771565427443274, 0.43592023170172167,1.0,-8787.180591334703, -2845.7527024172323, 21689.34690786276, -76.85521313123806, 222.22028064998574, 38.14880980478185,1.0,769
9392.556999999999,0.9776594154584409, -1.5365159708673133, -1.52720373855764, -1.650512962445843, 1.5718505599082229, 2.5397587828498907,0.43876539033365075, -0.18299506332574347, -0.44778893987279, 0.6318487490382723, -0.00034228821034984144, 0.41743244429358933,1.0,-8786.926569784904, -2843.799667285233, 21690.03985307309, -76.91358423190454, 222.2392853650158, 38.14642001754302,1.0,769
9392.564999999999,0.9806631028513371, -1.5377639233370024, -1.5304445925322643, -1.6460168147775338, 1.5718482681965766, 2.5426329316254566,0.4147433542780105, -0.17166607296723885, -0.47233771317065404, 0.6450248547781503, -0.0003092163410230507, 0.3991974890885824,1.0,-8787.978299606744, -2845.3316847906626, 21690.269790669492, -76.88436924134203, 222.19741051310524, 38.16128006262343,1.0,769
9392.573,0.9835858362714119, -1.538969420611373, -1.5339528975911483, -1.6412957631781282, 1.5718461401516446, 2.5454630823101403,0.39140494961932387, -0.16088345995160266, -0.49456637055087693, 0.6564280380207497, -0.0002780392578066269, 0.3813462159796902,1.0,-8787.618775743262, -2842.602308871402, 21690.132406764464, -76.95417074244617, 222.18869141691528, 38.15959070596472,1.0,769
9392.581,0.9864192283493967, -1.5401304212487714, -1.5377171568357904, -1.6363633667883368, 1.5718441777970258, 2.548241111409739,0.36880594444778797, -0.15066502665320447, -0.5146797966128663, 0.6662811645851509, -0.00024875330938785116, 0.36394543530995016,1.0,-8787.354097012078, -2844.006088837499, 21689.81739664897, -76.91375741500485, 222.217923183871, 38.1700717107812,1.0,769
9392.589,0.9891545674208125, -1.5412448980983031, -1.54172319771504, -1.6312358475700357, 1.571842382492938, 2.5509583742732316,0.3469425467001102, -0.1410019224840298, -0.5328989890697926, 0.6747964388816409, -0.00022128656532370694, 0.3470125526524284,1.0,-8786.194958798978, -2842.9946639746213, 21690.469172893147, -76.95215369225133, 222.2566055869293, 38.18097950616607,1.0,769
9392.597,0.9917829980915641, -1.5423108922410034, -1.545954528211177, -1.625931679694986, 1.571840754890043, 2.553605891400965,0.3257693774572025, -0.13186789780054642, -0.5494416464459891, 0.6821652781154511, -0.00019552585811213926, 0.3305291855416702,1.0,-8786.63243550573, -2844.7044787231116, 21691.030856705955, -76.89184008176392, 222.23618714137916, 38.16292322487109,1.0,769
9392.605,0.9942957018035328, -1.5433265669309986, -1.5503926930259855, -1.6204711789335677, 1.5718392948832707, 2.5561745347528424,0.30521418681672025, -0.1232265974874367, -0.5645106214524621, 0.6885540871792112, -0.00017133721128188663, 0.3144527051516584,1.0,-8786.053956356107, -2844.113441301083, 21691.623586405643, -76.91288930388995, 222.25103117454853, 38.177522379634866,1.0,769
9392.613,0.9966840774001695, -1.5442902615366814, -1.5550176297668346, -1.6148760920435024, 1.571838001565644, 2.5586552140565058,0.28518935945104557, -0.11503706274973947, -0.5782877503552095, 0.6941036124640769, -0.00014858064690513763, 0.29872551669891867,1.0,-8786.21966566553, -2842.463391885024, 21690.81758930012, -76.95597621945637, 222.25564628331398, 38.175357441567286,1.0,769
9392.621,0.9989399216920888, -1.5452005454818707, -1.559808025132761, -1.6091691861585815, 1.5718368731821024, 2.5610390631155244,0.2656007387182351, -0.10725778754366373, -0.5909311111984218, 0.6989302744429933, -0.00012712066938102523, 0.28328235336628727,1.0,-8787.145241214406, -2841.9206052613717, 21690.69475645598, -76.96283033963306, 222.20657979941586, 38.15850489081174,1.0,769
9392.628999999999,1.001055610022661, -1.5460562721869815, -1.564741671100542, -1.6033738381773937, 1.5718359070833277, 2.563317626117581,0.24635446706093952, -0.09984971281210994, -0.6025743172227571, 0.7031284696094612, -0.00010683368029754723, 0.2680560528046502,1.0,-8786.662282179026, -2842.264778820884, 21690.804891948595, -76.96116990421413, 222.22094114122586, 38.17244406839879,1.0,769
9392.636999999999,1.0030242768336062, -1.5468566330101918, -1.569795821110775, -1.5975136241520476, 1.5718350996795674, 2.5654830439426553,0.22736254597885427, -0.0927785101434652, -0.6133269155357451, 0.7067732646677327, -8.761339225214308e-05, 0.2529823315881756,1.0,-8787.009434301313, -2843.7359351733758, 21691.786728642688, -76.93714107102659, 222.20379316265604, 38.1782653650819,1.0,769
9392.645,1.0048399962305872, -1.5476012111886082, -1.5749475462539593, -1.5916119086769074, 1.5718344463944596, 2.567528240471213,0.20854775507907042, -0.08601644984495962, -0.6232753146263523, 0.7099232027421984, -6.93750873833628e-05, 0.23800404992421414,1.0,-8785.845038340321, -2844.3728064758407, 21691.985933117885, -76.91338991929885, 222.25960622481944, 38.16834507822085,1.0,769
9392.653,1.0064979625488026, -1.548290035779437, -1.5801740914565734, -1.5856914342773116, 1.5718339416188574, 2.5694471088923905,0.18984848599362472, -0.0795440880170585, -0.6324839219915408, 0.7126231385387553, -5.205935741198797e-05, 0.22307541002687567,1.0,-8786.19209410928, -2842.6428345944405, 21692.51643857563, -76.94424754361268, 222.25802326251022, 38.172994814009684,1.0,769
9392.661,1.0079946709185805, -1.5489236356011453, -1.5854532316671506, -1.579773910798302, 1.5718335786646536, 2.5712346980121796,0.17122396248808106, -0.07335195050019058, -0.640996359054301, 0.7149071484592313, -3.563577875310448e-05, 0.20816647549211495,1.0,-8786.272049913738, -2843.1782090483985, 21692.14585291393, -76.928638332209, 222.26236299744517, 38.162143327930096,1.0,769
9392.669,1.009328097830971, -1.5495030931746339, -1.5907636280423612, -1.573879604793353, 1.5718333497186048, 2.5728873985616167,0.1526602328581924, -0.06744233797312475, -0.6488367566053794, 0.7168016439867433, -2.010681238603906e-05, 0.19326833782032415,1.0,-8787.6005363981, -2842.362886342271, 21691.712424146113, -76.95560312245397, 222.20445603319433, 38.16575269655024,1.0,769
9392.677,1.0104978817033403, -1.550030098664398, -1.5960851841330905, -1.5680269289130973, 1.5718332457961555, 2.5744031295049656,0.13417722233532714, -0.061831320940334875, -0.6560112345259035, 0.7183288614614003, -5.512058268375331e-06, 0.17839918075522435,1.0,-8786.352753581494, -2842.656474778498, 21692.096158645923, -76.9449461395817, 222.24215064595506, 38.16362470891269,1.0,769
9392.685,1.011505503444963, -1.5505070038197006, -1.6013994020705162, -1.5622320312940516, 1.571833256695264, 2.575781524347905,0.1158370008423478, -0.05655092830139651, -0.6625097384972335, 0.7195109050091353, 8.067180659237493e-06, 0.16361138605941627,1.0,-8785.848500696235, -2841.4202916432323, 21692.878870705124, -76.99722817648674, 222.27789214756348, 38.17728143150799,1.0,769
9392.693,1.012354467022616, -1.5509368759157356, -1.6066897387521877, -1.5565083849473433, 1.5718333709502252, 2.577024117445715,0.09775322860223855, -0.05165145000421242, -0.6683084353245345, 0.7203744647160705, 2.0503277802761548e-05, 0.14899966258023498,1.0,-8786.09412374103, -2843.387863191412, 21692.907491233298, -76.92004797905332, 222.27610707148182, 38.15713240897301,1.0,769
9392.701,1.013050480026171, -1.5513235516947947, -1.6119419620281032, -1.5508663771474414, 1.5718335757854962, 2.5781345303114627,0.0801014603660269, -0.04720366467815367, -0.6733728354136856, 0.7209561888453865, 3.1618113898678555e-05, 0.13470993794425837,1.0,-8786.688375772734, -2842.482173152198, 21692.85093742391, -76.96187990693727, 222.25794643894181, 38.17015623530378,1.0,769
9392.708999999999,1.0136016342341891, -1.5516716913074386, -1.6171445068867918, -1.5453128988208773, 1.57183385706952, 2.579118657924187,0.06312959375790998, -0.04330066128422175, -0.6776616822559114, 0.7213084174820649, 4.1180176333420917e-05, 0.12094840511602804,1.0,-8786.476885449434, -2843.427878562774, 21692.789331494077, -76.94641736394706, 222.26097929927732, 38.17043587561375,1.0,769
9392.716999999999,1.0140185861795123, -1.5519868322536583, -1.6222888316413897, -1.5398509339349769, 1.5718341992685503, 2.579984855037087,0.04716722585510477, -0.04005874911144985, -0.6811313885006334, 0.7215045488408848, 4.890409710746227e-05, 0.1079896505886534,1.0,-8788.311266074781, -2841.4759022741027, 21692.34059704997, -76.98481681720992, 222.19644199215497, 38.16521854224601,1.0,769
9392.725,1.0143147377148582, -1.552275443324044, -1.6273697741157171, -1.534479148886584, 1.5718345854004763, 2.5807441224857053,0.03263204344424107, -0.0376167509607109, -0.6837403902728153, 0.7216427006067236, 5.445417449694791e-05, 0.09618221349692825,1.0,-8786.548097290553, -2844.7450631313577, 21692.849563210337, -76.89606061434912, 222.2653575929857, 38.165421339649214,1.0,769
9392.733,1.0145064165784121, -1.552544978540956, -1.6323859078303613, -1.5291914818907912, 1.5718349969886465, 2.581410293496117,0.02003065438656518, -0.03613277076118454, -0.6854522797281891, 0.7218456117726404, 5.7453777890807934e-05, 0.08594927248697276,1.0,-8787.2837706305, -2842.8618267044812, 21693.08522443886, -76.95486113817799, 222.2128740155576, 38.17000477232878,1.0,769
9392.741,1.0146130569594205, -1.5528039310996862, -1.6373398981887526, -1.5239767323696602, 1.5718354140156936, 2.582000219993113,0.009950543425735715, -0.03577735815591019, -0.6862361191048445, 0.7222541033677063, 5.750280817177488e-05, 0.07778150825726844,1.0,-8786.659136136517, -2843.7692277383794, 21692.871445159817, -76.92150972488292, 222.25665570328403, 38.172693035911465,1.0,769
9392.749,1.0146573800637853, -1.553061887309628, -1.6422388586632408, -1.5188181503409552, 1.571835814877359, 2.5825339589083876,0.003039230319965462, -0.03672192810657931, -0.686062259659289, 0.7230112708620537, 5.420547673168902e-05, 0.07221868327927194,1.0,-8786.968763191735, -2843.801301556081, 21692.365715514396, -76.93150542203668, 222.23055863370894, 38.17879064598651,1.0,769
9392.757,1.0146655746796553, -1.5533295805354435, -1.6470947069811785, -1.5136930258068695, 1.5718361763363167, 2.5830349584887236,-3.354365849462485e-05, -0.03912145865866701, -0.6848927622900729, 0.7242355193271315, 4.721037041869001e-05, 0.06981636503038403,1.0,-8785.63939637126, -2845.166136721189, 21692.23949532296, -76.88730693071147, 222.27533371361733, 38.16757721190089,1.0,769
9392.765,1.0146646695258426, -1.55361784466906, -1.651922671935008, -1.5085752344207481, 1.571836475736616, 2.583527678852707,-0.00012489607513352296, -0.0425907362556872, -0.683004254440523, 0.725816536906816, 3.752154267988347e-05, 0.06986812826349703,1.0,-8788.752544902853, -2843.3647801190473, 21691.99734958319, -76.95388039652119, 222.1555212640883, 38.16761547426728,1.0,769
9392.773,1.0146638122876552, -1.5539303264455144, -1.656728426946465, -1.5034554350700233, 1.5718367055371885, 2.5840204391481163,-0.00011842907649599079, -0.04610857413862229, -0.6810722500022947, 0.727402799599371, 2.7695113049363614e-05, 0.06999815719179166,1.0,-8787.238187231433, -2846.4748404112534, 21691.836652559217, -76.8599792864201, 222.23005450234297, 38.17078947888055,1.0,769
9392.780999999999,1.0146630018848912, -1.554267053293775, -1.661512056004895, -1.498333516358036, 1.5718368656534822, 2.5845132382202163,-0.00011200807693058841, -0.04964108886542961, -0.6791190108909029, 0.7289824972510305, 1.782242408930197e-05, 0.0701258667042301,1.0,-8787.594239188962, -2844.9257459587943, 21691.691757860688, -76.9298769421219, 222.20045787460822, 38.1699866837229,1.0,769
9392.788999999999,1.0146622378043872, -1.5546280542039268, -1.6662736406399183, -1.493209367766375, 1.5718369560101533, 2.58500607547649,-0.00010563334359332127, -0.05318815265911065, -0.6771444325165505, 0.7305553974671807, 7.903928968695814e-06, 0.07025124866679783,1.0,-8786.484153914698, -2846.4798499665194, 21691.832582247607, -76.85658083549134, 222.24341710263684, 38.17557621143979,1.0,769
9392.797,1.014661519538167, -1.5550133594790925, -1.6710132595921072, -1.4880828802526365, 1.571836976528762, 2.5854989503240278,-9.930514051686412e-05, -0.05674963213576686, -0.6751484136431589, 0.7321212656013195, -2.059901289826189e-06, 0.07037429499575343,1.0,-8787.695794033963, -2844.8954926487504, 21691.67242721464, -76.91347532188877, 222.1955184119406, 38.17246743182815,1.0,769
9392.805,1.0146608465833442, -1.5554230007023815, -1.6757309888574552, -1.4829539462390198, 1.5718369271278854, 2.5859918621694393,-9.302372798933706e-05, -0.060325388275524604, -0.6731308564975554, 0.7336798648331768, -1.206857737284765e-05, 0.07049499769190408,1.0,-8787.373587216649, -2845.76420658168, 21692.1913233166, -76.90066902702455, 222.20589100075972, 38.17825511031384,1.0,769
9392.813,1.0146602184420337, -1.5558570107041287, -1.6804269017306037, -1.4778224596018497, 1.5718368077232154, 2.5864848104187366,-8.678936327500609e-05, -0.06391527639443852, -0.671091666879694, 0.7352309562522866, -2.2121591027701952e-05, 0.07061334884174404,1.0,-8786.669557404655, -2845.3763599045405, 21691.8882950768, -76.88267460040953, 222.23153102802206, 38.17480687568789,1.0,769
9392.821,1.0146596346212664, -1.5563154235294316, -1.6851010688468495, -1.4726883156620332, 1.5718366182276713, 2.586977794477228,-8.060230127959879e-05, -0.06751914612200356, -0.6690307542716811, 0.7367742989433599, -3.221841431751796e-05, 0.07072934064010657,1.0,-8786.283399413966, -2845.6776181115074, 21692.21134621377, -76.88403619150367, 222.23159965907564, 38.169166296301,1.0,769
9392.829,1.014659094632901, -1.5567982744059439, -1.6897535582229857, -1.467551411176439, 1.5718363585515043, 2.5874708137494262,-7.44627908179113e-05, -0.07113684137655067, -0.666948031948672, 0.7383096500745064, -4.235850256969058e-05, 0.07084296540003501,1.0,-8786.998560916985, -2845.9034392069334, 21692.082932754227, -76.8711679983004, 222.23279378879005, 38.17106122864868,1.0,769
9392.837,1.0146585979935474, -1.5573055997118912, -1.6943844352970236, -1.4624116443301407, 1.571836028602403, 2.587963867638933,-6.837107954325313e-05, -0.07476820035104272, -0.6648434170865816, 0.7398367649896348, -5.254128973957908e-05, 0.07095421557162129,1.0,-8788.318865461919, -2844.707292480345, 21692.150694071923, -76.93450756207747, 222.17377749445865, 38.17470043725132,1.0,769
9392.845,1.014658144224483, -1.5578374369443138, -1.6989937629668201, -1.4572689147295605, 1.5718356282856005, 2.58845695554834,-6.232740982536433e-05, -0.07841305549736717, -0.6627168308725372, 0.7413553973022202, -6.276619082186703e-05, 0.0710630837523552,1.0,-8786.449653061783, -2846.8010375289778, 21691.695250867426, -76.85705072276957, 222.24588740739614, 38.180627696814696,1.0,769
9392.853,1.0146577328515771, -1.5583938246874869, -1.7035816016276595, -1.452123123396456, 1.5718351575039828, 2.5889500768791405,-5.6332020387817345e-05, -0.08207123351582617, -0.660568198611619, 0.742865298993847, -7.30326019906807e-05, 0.07116956270707486,1.0,-8786.57771331477, -2846.2052420102264, 21691.785409331835, -76.87598660193731, 222.22604063505054, 38.18333479804056,1.0,769
9392.860999999999,1.0146573634052152, -1.558974802581509, -1.7081480092088324, -1.4469741727627632, 1.5718346161581946, 2.5894432310316184,-5.038514605622859e-05, -0.08574255534882633, -0.6583974498352535, 0.744366220514072, -8.333989841181414e-05, 0.0712736453823043,1.0,-8786.63723447662, -2846.2240106580384, 21692.27184107474, -76.8637037972984, 222.23095378667517, 38.1739095197228,1.0,769
9392.868999999999,1.0146570354202287, -1.5595804112910328, -1.712693041209235, -1.4418219666662608, 1.5718340041467447, 2.589936417404761,-4.44870160957957e-05, -0.08942683617723064, -0.656204518407159, 0.7458579108848804, -9.368743733184896e-05, 0.07137532491954574,1.0,-8786.741888302227, -2846.4392661041666, 21691.676715088703, -76.86028022378977, 222.22488769491707, 38.172236632714004,1.0,769
9392.877,1.0146567484358218, -1.5602106924741221, -1.7172167507320282, -1.4366664103470548, 1.5718333213661195, 2.590429635396155,-3.863785701624868e-05, -0.09312388542253179, -0.6539893426291079, 0.7473401178069023, -0.00010407455362771195, 0.07147459467060419,1.0,-8786.650084439683, -2846.2997277176955, 21691.851307257606, -76.87398864501202, 222.22323406290587, 38.17427968801198,1.0,769
9392.885,1.0146565019955027, -1.560865688751207, -1.7217191885183958, -1.4315074104448637, 1.5718325677108902, 2.5909228844019045,-3.2837890107582494e-05, -0.09683350675091436, -0.6517518653452133, 0.7488125877686258, -0.0001145005630712591, 0.07157144821717473,1.0,-8787.102577626603, -2845.628474488327, 21691.792024641643, -76.88028519668265, 222.20290683329108, 38.171695630789486,1.0,769
9392.893,1.014656295647019, -1.561545443674123, -1.7262004029804352, -1.4263448749970955, 1.5718317430738191, 2.5914161638165263,-2.7087331028937446e-05, -0.10055549808206472, -0.6494920340448519, 0.7502750661592215, -0.0001249647624669382, 0.07166587938209779,1.0,-8788.006199641577, -2844.6991916346333, 21691.861206022004, -76.92343795740749, 222.18976877341055, 38.17897778244799,1.0,769
9392.901,1.0146561289422915, -1.5622500016952099, -1.7306604402331942, -1.4211787134376976, 1.5718308473459721, 2.591909473032869,-2.1386391576883106e-05, -0.10428965160515606, -0.6472098009643265, 0.7517272973829242, -0.00013546642592640693, 0.07175788224736257,1.0,-8786.463873963168, -2845.5478566648626, 21691.881859900896, -76.88193914872764, 222.2202468997878, 38.17873437607025,1.0,769
9392.909,1.0146560014373522, -1.5629794081364663, -1.735099344125909, -1.4160088365967836, 1.5718298804168311, 2.5924028114420143,-1.5735277766479245e-05, -0.10803575379337504, -0.6449051231863677, 0.7531690249776608, -0.000146004808964912, 0.0718474511689163,1.0,-8786.019896731415, -2845.71276250724, 21692.129599548374, -76.88418363582468, 222.2349454741115, 38.18069480312366,1.0,769
9392.917,1.0146559126922836, -1.563733709158706, -1.7395171562724672, -1.410835156700995, 1.5718288421744016, 2.5928961784332,-1.0134190518177138e-05, -0.11179358542899592, -0.6425779627385427, 0.754599991734769, -0.0001565791457431428, 0.07193458079303257,1.0,-8786.062481866838, -2847.357877097488, 21692.857227007305, -76.84289769860726, 222.25582570730006, 38.18038385376596,1.0,769
9392.925,1.01465586227116, -1.5645129517307526, -1.7439139160810972, -1.4056575873746304, 1.5718277325053291, 2.5933895733937185,-4.583325835386675e-06, -0.11556292163016524, -0.6402282866885574, 0.7560199398228596, -0.00016718864992689388, 0.07201926607042612,1.0,-8786.304716667539, -2846.2235958013107, 21692.05807893892, -76.86154169776091, 222.23291788335365, 38.17201423420181,1.0,769
9392.932999999999,1.0146558497419889, -1.5653171835986015, -1.7482896607833602, -1.4004760436414854, 1.5718265512950103, 2.5938829957088507,9.17126922862123e-07, -0.11934353187993962, -0.6378560672396616, 0.7574286109122478, -0.00017783251488562307, 0.07210150227472868,1.0,-8787.563063371927, -2845.227124712026, 21692.084764583036, -76.90819097443043, 222.19345428593948, 38.18041909898909,1.0,769
9392.940999999999,1.014655874676656, -1.566146453254568, -1.7526444254624298, -1.3952904419274281, 1.5718252984277084, 2.594376444761758,6.366983189420294e-06, -0.12313518006629984, -0.6354612818201928, 0.7588257463046023, -0.00018850991277098922, 0.07218128501360388,1.0,-8787.519907707005, -2845.2807816059703, 21691.646025829858, -76.90490130757735, 222.1959073831967, 38.17898268788977,1.0,769
9392.948999999999,1.0146559366508725, -1.5670008099063812, -1.7569782430807068, -1.390100700063683, 1.571823973786667, 2.5948699199334166,1.1766065202101807e-05, -0.12693762451991364, -0.633043913174699, 0.760211087061455, -0.00019921999650228766, 0.0722586102516458,1.0,-8787.751751369775, -2844.478997616099, 21692.07438147862, -76.92911271582116, 222.19510290587715, 38.17823119156964,1.0,769
9392.957,1.0146560352441214, -1.5678803034462385, -1.761291144506787, -1.3849067372908177, 1.5718225772542278, 2.5953634206025398,1.711420016965919e-05, -0.13075061806331606, -0.630603949448991, 0.7615843741380283, -0.00020996189608982457, 0.07233347432060439,1.0,-8787.069955699795, -2845.0212702751705, 21692.08169103278, -76.90871303083205, 222.20977644123354, 38.17713265147742,1.0,769
9392.965,1.0146561700396064, -1.5687849844197652, -1.7655831585418138, -1.3797084742634258, 1.571821108711949, 2.5958569461454766,2.2411223231656284e-05, -0.1345739080585502, -0.6281413842750555, 0.7629453485175226, -0.00022073472290055424, 0.07240587393479249,1.0,-8786.117512855426, -2846.1025375572453, 21692.0467715432, -76.88098229090232, 222.242519915789, 38.18345723426785,1.0,769
9392.973,1.0146563406242037, -1.569714903994904, -1.7698543119452275, -1.3745058330554887, 1.571819568040723, 2.5963504959361545,2.7656974094918263e-05, -0.1384072364669753, -0.6256562168504022, 0.7642937513483818, -0.00023153756622224466, 0.07247580620650175,1.0,-8786.24955578501, -2845.724733995171, 21692.155210143428, -76.87165961776952, 222.22978245840358, 38.17821832134598,1.0,769
9392.981,1.0146565465884145, -1.5706701139306842, -1.7741046294599512, -1.36929873716642, 1.571817955120896, 2.596844069345992,3.2851300462573774e-05, -0.14225033990625746, -0.6231484520169482, 0.7656293240820617, -0.00024236949573502948, 0.07254326866705153,1.0,-8786.720109466307, -2845.079369310539, 21692.086501314094, -76.90017925333672, 222.2173073461824, 38.175757412777244,1.0,769
9392.989,1.0146567875263168, -1.5716506665458878, -1.7783341338370224, -1.3640871115277688, 1.5718162698323899, 2.597337665743826,3.799405607634983e-05, -0.14610294971987417, -0.6206181003343653, 0.7669518086141587, -0.0002532295599667539, 0.07260825927694574,1.0,-8787.519878793073, -2844.385132403241, 21691.319814305025, -76.9205097775737, 222.1975517901596, 38.17590683889412,1.0,769
9392.997,1.0146570630355216, -1.5726566146875776, -1.7825428458596901, -1.3588708825105948, 1.5718145120548255, 2.597831284495836,4.3085102506590664e-05, -0.14996479204579072, -0.6180651781521349, 0.7682609474262946, -0.00026411678770102935, 0.0726707764378582,1.0,-8787.529180492906, -2844.969514499752, 21691.926824324222, -76.90331676246927, 222.1928261386335, 38.171607097813535,1.0,769
9393.005,1.01465737271713, -1.5736880116994767, -1.7867307843670224, -1.3536499779334763, 1.5718126816676437, 2.5983249249654676,4.812430780989633e-05, -0.15383558789455617, -0.6154897076751379, 0.7695564837297849, -0.00027503018654858615, 0.07273081901784342,1.0,-8787.859868098049, -2844.6376296604794, 21692.049653950064, -76.92282846150749, 222.1557251459335, 38.17079480908137,1.0,769
9393.012999999999,1.0146577161756911, -1.5747449113902032, -1.790897966277015, -1.3484243270711733, 1.5718107785502329, 2.5988185865133753,5.311154708200145e-05, -0.15771505323015736, -0.6128917170282436, 0.7708381616108696, -0.00028596874408161983, 0.0727883863552127,1.0,-8786.165404469188, -2846.793022472092, 21692.557260806898, -76.84334428791675, 222.26210612213782, 38.16690302237055,1.0,769
9393.020999999999,1.014658093019155, -1.5758273680013213, -1.7950444066092395, -1.3431938606639253, 1.5718088025820596, 2.5993122684973318,5.80467031020035e-05, -0.1616028990577114, -0.6102712403149158, 0.7721057261766315, -0.000296931427552024, 0.07284347828187178,1.0,-8786.758440801303, -2845.4343874245023, 21692.11508370605, -76.88989797493974, 222.21928428111676, 38.16814659036464,1.0,769
9393.029,1.0146585028588455, -1.5769354361752201, -1.7991701185070506, -1.337958510927363, 1.571806753642787, 2.5998059702721785,6.292966730089364e-05, -0.16549883151346445, -0.6076283176736722, 0.773358923702539, -0.0003079171847442918, 0.07289609513036614,1.0,-8786.928629417129, -2845.183027064185, 21692.444444589455, -76.89538836198753, 222.22152304275102, 38.178997522652764,1.0,769
9393.037,1.014658945309409, -1.5780691709227952, -1.803275113259363, -1.332718211563054, 1.571804631612413, 2.6002996911897465,6.776033745761589e-05, -0.16940255196412904, -0.6049629953274513, 0.7745975017810024, -0.0003189249435443107, 0.07294623775443063,1.0,-8786.25049584322, -2846.0568535033162, 21691.372699296004, -76.86734921263047, 222.26193169636758, 38.16884515671609,1.0,769
9393.045,1.014659419988785, -1.579228627590922, -1.807359400322027, -1.3274728977696473, 1.571802436371397, 2.600793430598802,7.253861979888018e-05, -0.1733137571083779, -0.6022753256318283, 0.77582120946961, -0.00032995361126779535, 0.07299390753979382,1.0,-8787.31353625568, -2845.0713957549497, 21691.528269181646, -76.91462359831056, 222.19859142776858, 38.17409091437847,1.0,769
9393.053,1.014659926518165, -1.580413861829724, -1.8114229873388101, -1.3222225062546311, 1.5718001678007956, 2.6012871878449704,7.726442924973994e-05, -0.17723213908388083, -0.5995653671162174, 0.7770297974414135, -0.0003410020765144446, 0.07303910641906064,1.0,-8787.796188647138, -2844.636029396247, 21691.997718304974, -76.91424429728605, 222.1853776723563, 38.16834580567581,1.0,769
9393.061,1.0146604645219615, -1.5816249295596023, -1.8154658801620158, -1.316966975246677, 1.5717978257823955, 2.6017809622706864,8.193768794678568e-05, -0.18115738558219643, -0.5968331845204278, 0.7782230181351979, -0.00035206920744109647, 0.07308183688345643,1.0,-8786.73472320234, -2846.365330198769, 21692.093126242715, -76.86169885906759, 222.2091691834417, 38.16777042046721,1.0,769
9393.069,1.01466103362777, -1.582861886938037, -1.819488082872752, -1.3117062445085752, 1.5717954101988492, 2.6022747532151285,8.655832768709302e-05, -0.1850891799627406, -0.5940788488291827, 0.7794006259047629, -0.00036315385508132027, 0.07312210199871559,1.0,-8786.750889340583, -2846.10743724871, 21692.174737561534, -76.85857612913199, 222.21310484775677, 38.16958028114331,1.0,769
9393.077,1.0146616334663408, -1.5841247903261406, -1.8234895978008518, -1.3064402553507586, 1.5717929209338148, 2.6027685600141606,9.112628758979514e-05, -0.18902720137980727, -0.591302437297253, 0.7805623771703286, -0.00037425484936313215, 0.07315990541518773,1.0,-8787.164654338387, -2845.80066951305, 21691.957562660315, -76.88762061010834, 222.22313633817788, 38.167628034895955,1.0,769
9393.085,1.0146622635776044, -1.58541350661734, -1.8274698472066042, -1.3011697188497289, 1.5717903582508128, 2.6032623100694825,9.564104971934793e-05, -0.19297055007690408, -0.5885044426242452, 0.7817078648958176, -0.00038536936703749034, 0.07319524655198989,1.0,-8787.097426110933, -2845.0407006202768, 21691.387775375344, -76.91071925816411, 222.21546764272608, 38.17063480740316,1.0,769
9393.092999999999,1.0146629084421168, -1.5866983336862441, -1.8313403384949654, -1.2960128648290254, 1.5717877820220605, 2.6037449383578357,9.99994285584636e-05, -0.19683033607057507, -0.5857483891185402, 0.7828117374860346, -0.0003962364857098937, 0.07322745453883375,1.0,-8788.060910230115, -2844.185515857578, 21692.842379777627, -76.93698044744156, 222.15834597743498, 38.16936933483481,1.0,769
9393.100999999999,1.0146635546563478, -1.5879561688646877, -1.8350401383883188, -1.2910537542527267, 1.5717852404389248, 2.604208615810147,0.00010414402667185518, -0.20054320025611516, -0.5830810089311594, 0.7838573339984739, -0.0004066973477436474, 0.07325616385636612,1.0,-8785.980380085977, -2847.368919209902, 21694.6233759774, -76.82575964592212, 222.27102991521082, 38.15950718524013,1.0,769
9393.109,1.0146641987349458, -1.5891842318477813, -1.8385714815478869, -1.286292932790536, 1.5717827414182513, 2.6046533403996857,0.00010807536044805729, -0.20410830167690336, -0.5805047377455198, 0.7848462659242073, -0.00041673992573001284, 0.07328167679546332,1.0,-8787.432340689882, -2845.3668391039128, 21694.450750075965, -76.88878901952614, 222.20561028386277, 38.165190397484366,1.0,769
9393.117,1.0146648373924918, -1.590379846996937, -1.8419365108059305, -1.2817309332692925, 1.5717802925744715, 2.6050791102867916,0.00011179891719568267, -0.2075248960094457, -0.5780219019295021, 0.7857801161239566, -0.00042636215168178514, 0.07330425121784243,1.0,-8787.432001828369, -2845.468223340141, 21694.12451459472, -76.87464781858125, 222.20302616873715, 38.16912851156283,1.0,769
9393.125,1.014665467537031, -1.5915404444773973, -1.8451372776111175, -1.2773682740945276, 1.5717779012142545, 2.6054859238077883,0.00011531995678226393, -0.2107923183807112, -0.5756347162472792, 0.7866604352687053, -0.00043556221587569136, 0.07332413335535695,1.0,-8788.026355871341, -2844.234334859212, 21694.041372418535, -76.91487417300462, 222.2025588373878, 38.18064883597924,1.0,769
9393.133,1.0146660862626078, -1.5926635613280595, -1.848175742300472, -1.2732054579087198, 1.5717755743340505, 2.6058737794627853,0.00011864351420892283, -0.21390997773020975, -0.573345284461627, 0.7874887368078265, -0.00044433855246628335, 0.07334155780223246,1.0,-8787.495801020495, -2845.4244571899235, 21694.268278440926, -76.88408762725004, 222.20760029878824, 38.1704235821108,1.0,769
9393.141,1.014666690842246, -1.5937468424920738, -1.851053774296055, -1.2692429703640329, 1.5717733186177782, 2.606242675903929,0.00012177439345700041, -0.2168773512792779, -0.5711556001307592, 0.7882664922335789, -0.0004526898155447364, 0.07335674751550965,1.0,-8787.175985351369, -2844.508872084143, 21694.215992023965, -76.92040715333695, 222.2135925160141, 38.17006249734507,1.0,769
9393.149,1.014667278721354, -1.594788041805435, -1.853773152235922, -1.2654812790027972, 1.5717711404346557, 2.6065926119240737,0.00012471717031864495, -0.219693979111661, -0.5690675475816781, 0.788995126636325, -0.000460614859613663, 0.07336991382826939,1.0,-8787.2043824957, -2845.8777575439635, 21693.744693635716, -76.85616153821911, 222.21833951467949, 38.16298317139427,1.0,769
9393.157,1.0146678475115476, -1.5957850229412633, -1.8563355640482504, -1.261920832239121, 1.5717690458371774, 2.606923586445904,0.00012747618858998994, -0.22235945890733638, -0.5670829030183531, 0.7896760145485724, -0.0004681127215397023, 0.07338125650122058,1.0,-8786.45095221264, -2846.0106074042105, 21693.1616984183, -76.87359132097075, 222.2373926296366, 38.168240027834656,1.0,769
9393.164999999999,1.0146683949848718, -1.5967357603079035, -1.8587426069768798, -1.2585620584352757, 1.5717670405592303, 2.6072355985115476,0.00013005556242339989, -0.22487344084304867, -0.565203335747008, 0.7903104760712717, -0.0004751826004472548, 0.07339096376877342,1.0,-8786.937851753943, -2845.590901996323, 21692.88769961914, -76.88124210937045, 222.2263893651625, 38.17352828573402,1.0,769
9393.172999999999,1.0146689190684093, -1.5976383398994338, -1.8609957875658996, -1.2554053650666148, 1.5717651300143534, 2.6075286472726367,0.0001324591798254851, -0.22723562268108272, -0.5634304094874875, 0.7908997732752991, -0.0004818238389919018, 0.07339921241360309,1.0,-8786.896710926147, -2845.8282474602493, 21693.340976070744, -76.88039422180552, 222.217006678392, 38.169070894086275,1.0,769
9393.180999999999,1.0146694178392566, -1.5984909600974735, -1.863096521610359, -1.2524511379690813, 1.5717633192941352, 2.6078027319808768,0.00013469069772180134, -0.22944574507454651, -0.561765583736233, 0.7914451068771776, -0.0004880359033225596, 0.07340616783501017,1.0,-8787.170304586261, -2845.001700972871, 21693.7766862992, -76.89666340591148, 222.22148677835077, 38.16606869746303,1.0,769
9393.189,1.0146698895198678, -1.5992919324235277, -1.8650461340796314, -1.2496997406635062, 1.5717616131667482, 2.608057851979127,0.00013675355086508045, -0.2315035870894502, -0.560210215175693, 0.7919476131690781, -0.0004938183649011519, 0.07341198413889884,1.0,-8787.795807209068, -2844.979724544589, 21694.14538877094, -76.89761094097332, 222.18951198530578, 38.16969896183505,1.0,769
9393.197,1.0146703324737438, -1.600039682241377, -1.8668458590194534, -1.2471515137512084, 1.5717600160756107, 2.6082940066929727,0.00013865095491700025, -0.23340896196862224, -0.5587655590881404, 0.7924083612069064, -0.0004991708829427303, 0.07341680423020021,1.0,-8787.882711226446, -2844.068730196903, 21694.211878019818, -76.92404067720204, 222.1982447230743, 38.175304881728664,1.0,769
9393.205,1.0146707452014596, -1.6007327494092358, -1.8684968394381416, -1.2448067743756273, 1.571758532138181, 2.608511195622867,0.00014038591521017179, -0.23516171314623732, -0.5574327707622981, 0.7928283502411966, -0.0005040931792143381, 0.07342075991215188,1.0,-8786.356098936709, -2846.4530618564804, 21693.770966920853, -76.83381486517615, 222.25403825792006, 38.170462562098265,1.0,769
9393.213,1.0146711263370276, -1.601369788881624, -1.8700001271820792, -1.2426658157449815, 1.5717571651448654, 2.608709418336766,0.0001419612363113936, -0.23676171052745035, -0.5562129068694786, 0.7932085073850801, -0.000508585016473497, 0.07342397197198179,1.0,-8788.052158363686, -2843.3785169193543, 21693.59447860479, -76.95518195826779, 222.17891558882184, 38.177958563483884,1.0,769
9393.221,1.0146714746445802, -1.6019495712610237, -1.8713566828050388, -1.2407289067113023, 1.5717559185580414, 2.6088886744633424,0.00014337954784650106, -0.23820884702489856, -0.555106926791191, 0.7935496855105011, -0.0005126461755381751, 0.073426550306387,1.0,-8787.285181284691, -2844.8851001483863, 21694.36190891443, -76.89669780915634, 222.22672260267774, 38.17362168183129,1.0,769
9393.229,1.014671789015364, -1.6024709832995576, -1.8725673754355254, -1.238996291401424, 1.5717547955111983, 2.6090489636857526,0.0001446433354851157, -0.23950303538651038, -0.5541156938742428, 0.7938526613696123, -0.000516276405225882, 0.07342859399632337,1.0,-8785.390257192277, -2847.6379788961376, 21694.202176953582, -76.80070988898288, 222.284547630534, 38.16624652164515,1.0,769
9393.237,1.014672068465049, -1.60293302835096, -1.8736329826459182, -1.2374681888958836, 1.5717537988081705, 2.60919028573598,0.0001457550189234414, -0.2406442052739885, -0.5532399766009254, 0.7941181339345869, -0.0005194753694028895, 0.07343019144549887,1.0,-8787.859584554633, -2842.3572982984742, 21693.42011293351, -76.9844751267533, 222.17542753941666, 38.18423707505136,1.0,769
9393.244999999999,1.0146723121313332, -1.6033348267732404, -1.8745541903267267, -1.236144792952004, 1.5717529309224687, 2.6093126403897364,0.00014671708220906723, -0.2416323006267928, -0.5524804496281918, 0.7943467229695796, -0.0005222425393349119, 0.07343142050070853,1.0,-8786.519023432647, -2847.3477246167604, 21693.04083466374, -76.80824976347813, 222.2529639946659, 38.167927324880196,1.0,769
9393.252999999999,1.014672519271844, -1.6036756162824233, -1.8753315925689522, -1.2350262717678104, 1.571752193996718, 2.6094160274619624,0.00014753237390211378, -0.2424672772476489, -0.551837694662936, 0.794538967857709, -0.000524576940535819, 0.0734323486077234,1.0,-8787.649607724377, -2843.6004695238935, 21693.301359062538, -76.95442534060436, 222.18462118256286, 38.174559459088044,1.0,769
9393.261,1.0146726892623357, -1.6039547522577768, -1.8759656915571394, -1.2341127677837518, 1.5717515898421626, 2.6095004468029304,0.0001482048872513636, -0.24314910048610727, -0.5513122010197032, 0.7946953267999483, -0.0005264765976946888, 0.07343303316378855,1.0,-8786.748546474319, -2846.131871353942, 21693.372209902336, -76.86851619703299, 222.2285639430463, 38.169816236760056,1.0,769
9393.269,1.014672821595163, -1.6041717079989475, -1.8764568974753209, -1.2334043975196263, 1.5717511199382734, 2.609565898294902,0.0001487420555473719, -0.24367774261283992, -0.550904365389091, 0.7948161768052725, -0.0005279367980721379, 0.0734335223010673,1.0,-8786.968622447725, -2844.9836276913375, 21693.792473473968, -76.89837263958023, 222.21166285511765, 38.17456298081072,1.0,769
9393.277,1.0146729158780503, -1.6043260749353543, -1.8768055284277505, -1.232901251444467, 1.57175078543242, 2.6096123818494394,0.00014916423038649235, -0.2440531775229621, -0.5506144884263272, 0.7949018166682211, -0.0005289430670672655, 0.07343385801376405,1.0,-8786.407019800923, -2846.275447531374, 21694.130920590702, -76.85902805896592, 222.23886187865145, 38.17307509720246,1.0,769
9393.285,1.0146729718331349, -1.6044175627881785, -1.8770118103758966, -1.2326033938775485, 1.5717505871396256, 2.6096398974052857,0.000149573735675452, -0.2442753512237738, -0.5504427456150043, 0.7949524935995244, -0.0005294198548547189, 0.07343409866356887,1.0,-8787.021757193477, -2845.612356218169, 21694.15684708448, -76.87346655357689, 222.21333593254155, 38.17495787008687,1.0,769
9393.293,1.014672989338604, -1.604446076617469, -1.8770760503814605, -1.23251061263041, 1.5717505253720843, 2.609648468045564,0.09634943509358047, 0.28173173595110745, 0.586185528260342, -0.7488367082498005, 0.07229948638903004, -0.041796057454651925,1.0,-8787.607478246144, -2844.8423060777186, 21693.83900822877, -76.89772195085007, 222.21547011896962, 38.17090361544507,1.0,769
9393.301,1.014672989338604, -1.604446076617469, -1.8770760503814605, -1.23251061263041, 1.5717505253720843, 2.609648468045564,0.0, 0.0, 0.0, 0.0, 0.0, 0.0,1.0,-8785.605049007314, -2846.8915127076625, 21693.184846892902, -76.82351448831048, 222.27747358986068, 38.17130436697067,1.0,769
9393.309,1.014672989338604, -1.604446076617469, -1.8770760503814605, -1.23251061263041, 1.5717505253720843, 2.609648468045564,0.0, 0.0, 0.0, 0.0, 0.0, 0.0,1.0,-8788.626810891841, -2842.739258521863, 21691.755958800422, -76.9593589429868, 222.16097455777958, 38.175077268790915,1.0,769
9393.317,1.014672989338604, -1.604446076617469, -1.8770760503814605, -1.23251061263041, 1.5717505253720843, 2.609648468045564,0.0, 0.0, 0.0, 0.0, 0.0, 0.0,1.0,-8786.764742312203, -2846.48264031094, 21691.575453835285, -76.85394651703947, 222.23985356517778, 38.17188492193699,1.0,769
9393.324999999999,1.014672989338604, -1.604446076617469, -1.8770760503814605, -1.23251061263041, 1.5717505253720843, 2.609648468045564,0.0, 0.0, 0.0, 0.0, 0.0, 0.0,1.0,-8786.69798905908, -2846.3030201059537, 21691.26903047121, -76.8732754312206, 222.23724866587952, 38.17256587933355,1.0,769
9393.332999999999,1.014672989338604, -1.604446076617469, -1.8770760503814605, -1.23251061263041, 1.5717505253720843, 2.609648468045564,0.0, 0.0, 0.0, 0.0, 0.0, 0.0,1.0,-8787.363889780438, -2845.732818941031, 21690.805740231397, -76.87460406802853, 222.20375179834122, 38.16817408578612,1.0,769
9393.341,1.014672989338604, -1.604446076617469, -1.8770760503814605, -1.23251061263041, 1.5717505253720843, 2.609648468045564,0.0, 0.0, 0.0, 0.0, 0.0, 0.0,1.0,-8787.058002496915, -2845.488320946937, 21691.041171465764, -76.88679227027569, 222.2133665862059, 38.172935584360744,1.0,769
9393.349,1.014672989338604, -1.604446076617469, -1.8770760503814605, -1.23251061263041, 1.5717505253720843, 2.609648468045564,0.0, 0.0, 0.0, 0.0, 0.0, 0.0,1.0,-8786.905542224185, -2845.672530582272, 21691.64911557953, -76.87418052095936, 222.21121465817714, 38.1696990404391,1.0,769
9393.357,1.014672989338604, -1.604446076617469, -1.8770760503814605, -1.23251061263041, 1.5717505253720843, 2.609648468045564,0.0, 0.0, 0.0, 0.0, 0.0, 0.0,1.0,-8786.799803903248, -2845.809986010845, 21692.404263336473, -76.87514137240876, 222.23328813256524, 38.17333029574678,1.0,769
9393.365,1.014672989338604, -1.604446076617469, -1.8770760503814605, -1.23251061263041, 1.5717505253720843, 2.609648468045564,0.0, 0.0, 0.0, 0.0, 0.0, 0.0,1.0,-8787.182092363118, -2845.481900151699, 21692.838465941346, -76.8805016306861, 222.2223174009618, 38.17130819727771,1.0,769
9393.373,1.014672989338604, -1.604446076617469, -1.8770760503814605, -1.23251061263041, 1.5717505253720843, 2.609648468045564,0.0, 0.0, 0.0, 0.0, 0.0, 0.0,1.0,-8787.293279992613, -2845.5881634496272, 21692.716325370762, -76.88317711858943, 222.2192821378705, 38.171229645920334,1.0,769
9393.381,1.014672989338604, -1.604446076617469, -1.8770760503814605, -1.23251061263041, 1.5717505253720843, 2.609648468045564,0.0, 0.0, 0.0, 0.0, 0.0, 0.0,1.0,-8786.745084926277, -2845.463200631465, 21692.584429713403, -76.88232082409522, 222.22419987172907, 38.169167525180455,1.0,769
9393.389,1.014672989338604, -1.604446076617469, -1.8770760503814605, -1.23251061263041, 1.5717505253720843, 2.609648468045564,0.0, 0.0, 0.0, 0.0, 0.0, 0.0,1.0,-8787.423393742023, -2845.6767718987503, 21692.310465699426, -76.87909994015655, 222.20778820782647, 38.170609332827866,1.0,769
9393.396999999999,1.014672989338604, -1.604446076617469, -1.8770760503814605, -1.23251061263041, 1.5717505253720843, 2.609648468045564,0.0, 0.0, 0.0, 0.0, 0.0, 0.0,1.0,-8787.156732157628, -2845.7348604437902, 21691.656991777058, -76.88276831340897, 222.2377128182191, 38.170091674782356,1.0,769
9393.404999999999,1.014672989338604, -1.604446076617469, -1.8770760503814605, -1.23251061263041, 1.5717505253720843, 2.609648468045564,0.0, 0.0, 0.0, 0.0, 0.0, 0.0,1.0,-8786.959134715544, -2845.723538034901, 21691.39786210745, -76.87855171686425, 222.21529453596298, 38.17554906826075,1.0,769
9393.413,1.014672989338604, -1.604446076617469, -1.8770760503814605, -1.23251061263041, 1.5717505253720843, 2.609648468045564,0.0, 0.0, 0.0, 0.0, 0.0, 0.0,1.0,-8786.96968603122, -2845.4549599771935, 21691.272316332615, -76.887125163788, 222.22459345803384, 38.17162511535824,1.0,769
9393.421,1.014672989338604, -1.604446076617469, -1.8770760503814605, -1.23251061263041, 1.5717505253720843, 2.609648468045564,0.0, 0.0, 0.0, 0.0, 0.0, 0.0,1.0,-8787.140925425041, -2845.4393011041147, 21691.45191300121, -76.88647530094747, 222.2229138621277, 38.170628773962704,1.0,769
9393.429,1.014672989338604, -1.604446076617469, -1.8770760503814605, -1.23251061263041, 1.5717505253720843, 2.609648468045564,0.0, 0.0, 0.0, 0.0, 0.0, 0.0,1.0,-8787.103191048247, -2845.6006416588925, 21691.77937690981, -76.89121126732846, 222.21427548551003, 38.17079268731737,1.0,769
9393.437,1.014672989338604, -1.604446076617469, -1.8770760503814605, -1.23251061263041, 1.5717505253720843, 2.609648468045564,0.0, 0.0, 0.0, 0.0, 0.0, 0.0,1.0,-8786.838117898422, -2844.778502622401, 21692.19364929982, -76.88072115877094, 222.20743256426124, 38.17320669432729,1.0,769
9393.445,1.014672989338604, -1.604446076617469, -1.8770760503814605, -1.23251061263041, 1.5717505253720843, 2.609648468045564,0.0, 0.0, 0.0, 0.0, 0.0, 0.0,1.0,-8787.064077942145, -2845.175146441533, 21692.384286774508, -76.8807885640829, 222.22428369550653, 38.172354764796694,1.0,769
9393.453,1.014672989338604, -1.604446076617469, -1.8770760503814605, -1.23251061263041, 1.5717505253720843, 2.609648468045564,0.0, 0.0, 0.0, 0.0, 0.0, 0.0,1.0,-8787.120554263567, -2845.102449975354, 21692.499197315163, -76.88674011339492, 222.21669189538926, 38.17377546739084,1.0,769
9393.461,1.014672989338604, -1.604446076617469, -1.8770760503814605, -1.23251061263041, 1.5717505253720843, 2.609648468045564,0.0, 0.0, 0.0, 0.0, 0.0, 0.0,1.0,-8787.422574967544, -2845.2203430189575, 21692.33897775231, -76.8828536333254, 222.21533942940846, 38.16862521769261,1.0,769
9393.469,1.014672989338604, -1.604446076617469, -1.8770760503814605, -1.23251061263041, 1.5717505253720843, 2.609648468045564,0.0, 0.0, 0.0, 0.0, 0.0, 0.0,1.0,-8787.17251682402, -2845.540313654539, 21692.29456848786, -76.8970831117548, 222.20659278272962, 38.17709054919723,1.0,769
9393.476999999999,1.014672989338604, -1.604446076617469, -1.8770760503814605, -1.23251061263041, 1.5717505253720843, 2.609648468045564,0.0, 0.0, 0.0, 0.0, 0.0, 0.0,1.0,-8786.43154550438, -2845.2872750993683, 21691.863486090057, -76.89420991469663, 222.21981367696026, 38.166060335696244,1.0,769
9393.484999999999,1.014672989338604, -1.604446076617469, -1.8770760503814605, -1.23251061263041, 1.5717505253720843, 2.609648468045564,0.0, 0.0, 0.0, 0.0, 0.0, 0.0,1.0,-8786.704227486878, -2845.265100903567, 21691.5579030782, -76.885424828797, 222.2267356458512, 38.16516177765723,1.0,769
9393.493,1.014672989338604, -1.604446076617469, -1.8770760503814605, -1.23251061263041, 1.5717505253720843, 2.609648468045564,0.0, 0.0, 0.0, 0.0, 0.0, 0.0,1.0,-8787.042161997657, -2845.2637403230765, 21691.48552342471, -76.8903944835159, 222.21372197364298, 38.16789065802021,1.0,769
9393.501,1.014672989338604, -1.604446076617469, -1.8770760503814605, -1.23251061263041, 1.5717505253720843, 2.609648468045564,0.0, 0.0, 0.0, 0.0, 0.0, 0.0,1.0,-8787.49549956445, -2845.298343395347, 21691.77243529155, -76.89494426458731, 222.1960043553686, 38.16446371694735,1.0,769
9393.509,1.014672989338604, -1.604446076617469, -1.8770760503814605, -1.23251061263041, 1.5717505253720843, 2.609648468045564,0.0, 0.0, 0.0, 0.0, 0.0, 0.0,1.0,-8786.708927023932, -2845.4756852935197, 21692.309177288636, -76.8812363059063, 222.20697982262112, 38.16331924487159,1.0,769
9393.517,1.014672989338604, -1.604446076617469, -1.8770760503814605, -1.23251061263041, 1.5717505253720843, 2.609648468045564,0.0, 0.0, 0.0, 0.0, 0.0, 0.0,1.0,-8786.99702083502, -2845.3495723672395, 21692.439278770253, -76.8789011006742, 222.2203434992885, 38.1710885653975,1.0,769
9393.525,1.014672989338604, -1.604446076617469, -1.8770760503814605, -1.23251061263041, 1.5717505253720843, 2.609648468045564,0.0, 0.0, 0.0, 0.0, 0.0, 0.0,1.0,-8786.685111040584, -2844.940431046364, 21692.213092083744, -76.87988661972196, 222.20573008257435, 38.167139431542125,1.0,769
9393.533,1.014672989338604, -1.604446076617469, -1.8770760503814605, -1.23251061263041, 1.5717505253720843, 2.609648468045564,0.0, 0.0, 0.0, 0.0, 0.0, 0.0,1.0,-8786.858470268811, -2844.928086577519, 21692.35351338379, -76.89395868932402, 222.2103067201407, 38.1776430685745,1.0,769
9393.541,1.014672989338604, -1.604446076617469, -1.8770760503814605, -1.23251061263041, 1.5717505253720843, 2.609648468045564,0.0, 0.0, 0.0, 0.0, 0.0, 0.0,1.0,-8786.880627659148, -2845.4797556224003, 21692.132285639822, -76.87810675208945, 222.21313427524547, 38.16366496545521,1.0,769
9393.548999999999,1.014672989338604, -1.604446076617469, -1.8770760503814605, -1.23251061263041, 1.5717505253720843, 2.609648468045564,0.0, 0.0, 0.0, 0.0, 0.0, 0.0,1.0,-8787.11326762723, -2845.70807632177, 21691.600142414383, -76.87510545624141, 222.20993431132962, 38.17483580845868,1.0,769
9393.556999999999,1.014672989338604, -1.604446076617469, -1.8770760503814605, -1.23251061263041, 1.5717505253720843, 2.609648468045564,0.0, 0.0, 0.0, 0.0, 0.0, 0.0,1.0,-8786.80622985902, -2845.4673417330623, 21691.567989464573, -76.88381218100534, 222.2346792343094, 38.16886610738976,1.0,769
9393.564999999999,1.014672989338604, -1.604446076617469, -1.8770760503814605, -1.23251061263041, 1.5717505253720843, 2.609648468045564,0.0, 0.0, 0.0, 0.0, 0.0, 0.0,1.0,-8786.764889417138, -2845.7817983385476, 21691.4712419729, -76.87156187139803, 222.2024125219213, 38.171724122065655,1.0,769
9393.573,1.014672989338604, -1.604446076617469, -1.8770760503814605, -1.23251061263041, 1.5717505253720843, 2.609648468045564,0.0, 0.0, 0.0, 0.0, 0.0, 0.0,1.0,-8786.896781507883, -2845.7468483437206, 21691.46018405701, -76.88594166808403, 222.2100314548568, 38.165425302034436,1.0,769
9393.581,1.014672989338604, -1.604446076617469, -1.8770760503814605, -1.23251061263041, 1.5717505253720843, 2.609648468045564,0.0, 0.0, 0.0, 0.0, 0.0, 0.0,1.0,-8787.02207841401, -2845.587220207576, 21691.527143718846, -76.88019839215431, 222.21380015759644, 38.167054715827675,1.0,769
9393.589,1.014672989338604, -1.604446076617469, -1.8770760503814605, -1.23251061263041, 1.5717505253720843, 2.609648468045564,0.0, 0.0, 0.0, 0.0, 0.0, 0.0,1.0,-8787.159135970627, -2845.4334006371428, 21692.25427104004, -76.88927684008164, 222.22077806161928, 38.16045410192399,1.0,769
9393.597,1.014672989338604, -1.604446076617469, -1.8770760503814605, -1.23251061263041, 1.5717505253720843, 2.609648468045564,0.0, 0.0, 0.0, 0.0, 0.0, 0.0,1.0,-8785.959801893649, -2844.8544522632374, 21692.24497666805, -76.91281187242072, 222.26034464173983, 38.17331867101444,1.0,769
9393.605,1.014672989338604, -1.604446076617469, -1.8770760503814605, -1.23251061263041, 1.5717505253720843, 2.609648468045564,0.0, 0.0, 0.0, 0.0, 0.0, 0.0,1.0,-8786.89383311701, -2845.665096475538, 21692.096460806613, -76.87186159349974, 222.21672945866857, 38.174244771729576,1.0,769
9393.613,1.014672989338604, -1.604446076617469, -1.8770760503814605, -1.23251061263041, 1.5717505253720843, 2.609648468045564,0.0, 0.0, 0.0, 0.0, 0.0, 0.0,1.0,-8787.050070038034, -2846.043875238166, 21691.87904777569, -76.87302572734012, 222.20854184478526, 38.165615795558494,1.0,769
9393.621,1.014672989338604, -1.604446076617469, -1.8770760503814605, -1.23251061263041, 1.5717505253720843, 2.609648468045564,0.0, 0.0, 0.0, 0.0, 0.0, 0.0,1.0,-8787.213144195168, -2845.383175296646, 21691.786141510158, -76.88127386558025, 222.22111385333102, 38.17899466254747,1.0,769
9393.628999999999,1.014672989338604, -1.604446076617469, -1.8770760503814605, -1.23251061263041, 1.5717505253720843, 2.609648468045564,0.0, 0.0, 0.0, 0.0, 0.0, 0.0,1.0,-8787.061737028343, -2845.753176981688, 21691.662062873944, -76.87374941661483, 222.2136320405586, 38.1650187856948,1.0,769
9393.636999999999,1.014672989338604, -1.604446076617469, -1.8770760503814605, -1.23251061263041, 1.5717505253720843, 2.609648468045564,0.0, 0.0, 0.0, 0.0, 0.0, 0.0,1.0,-8786.883380765834, -2845.6208007005707, 21691.627889465162, -76.88801366989864, 222.2210410163231, 38.18547751319434,1.0,769
9393.645,1.014672989338604, -1.604446076617469, -1.8770760503814605, -1.23251061263041, 1.5717505253720843, 2.609648468045564,0.0, 0.0, 0.0, 0.0, 0.0, 0.0,1.0,-8786.994886005265, -2845.4104432351296, 21691.556261223523, -76.88664182672781, 222.22744219801126, 38.168424009623266,1.0,769
9393.653,1.014672989338604, -1.604446076617469, -1.8770760503814605, -1.23251061263041, 1.5717505253720843, 2.609648468045564,0.0, 0.0, 0.0, 0.0, 0.0, 0.0,1.0,-8787.214639481595, -2845.749417839351, 21691.65851367114, -76.88378042326181, 222.2084904579121, 38.1798881888345,1.0,769
