dlisjak-bit/sensor_synchronization/realtime_sync/robot_reference.csv
t,q0,q1,q2,q3,q4,q5,qd0,qd1,qd2,qd3,qd4,qd5,ss,f0,f1,f2,f3,f4,f5,tsf,do
15541.884999999998,1.7008904218996816, -1.2395330679867254, -1.6309483768498314, -1.8442703117734203, 1.5713680982742249, 1.700252175376031,0.0, 0.0, 0.0, 0.0, 0.0, 0.0,1.0,-8749.388082398471, -2832.8076131777907, 21551.224002331783, -76.69913637633687, 221.13830162056138, 38.133751224206094,1.0,801
15541.893,1.7008904218996816, -1.2395330679867254, -1.6309483768498314, -1.8442703117734203, 1.5713680982742249, 1.700252175376031,0.0, 0.0, 0.0, 0.0, 0.0, 0.0,1.0,-8748.450038010902, -2832.4546201982703, 21550.963609447226, -76.70868623030731, 221.15251557830288, 38.13612471881092,1.0,801
15541.901,1.7008904218996816, -1.2395330679867254, -1.6309483768498314, -1.8442703117734203, 1.5713680982742249, 1.700252175376031,0.0, 0.0, 0.0, 0.0, 0.0, 0.0,1.0,-8749.544606417941, -2833.250581859522, 21551.10485147296, -76.6686633262251, 221.1162196170264, 38.131740652230064,1.0,801
15541.909,1.7008904218996816, -1.2395330679867254, -1.6309483768498314, -1.8442703117734203, 1.5713680982742249, 1.700252175376031,0.0, 0.0, 0.0, 0.0, 0.0, 0.0,1.0,-8751.563246619566, -2834.1505690253925, 21551.8671798472, -76.62291500571851, 221.02426279072375, 38.126047742300614,1.0,801
15541.917,1.700879251792469, -1.2395338734551302, -1.6309499039703894, -1.8442679616284448, 1.571368083754226, 1.7002410064146476,-0.6953918457364038, -0.05014420629179155, -0.09507045571576787, 0.1463076066740126, -0.0009039383877807165, -0.6953205124497577,1.0,-8750.897055191208, -2834.1552525747657, 21551.618097497216, -76.64565830984174, 221.05600891245808, 38.1318698896188,1.0,801
15541.925,1.7007898909347667, -1.2395403172023647, -1.6309621209348482, -1.8442491604686362, 1.5713679675942365, 1.700151654723581,-0.6953918457364038, -0.05014420629179156, -0.0950704557157679, 0.14630760667401263, -0.0009039383877807166, -0.6953205124497578,1.0,-8749.443625932669, -2831.7209682497287, 21550.93788358115, -76.72500128777489, 221.11885559696566, 38.16425329517688,1.0,801
15541.932999999999,1.7006111692193626, -1.2395532046968336, -1.6309865548637674, -1.8442115581490208, 1.571367735274257, 1.699972951341448,-0.6953918457364038, -0.05014420629179155, -0.09507045571576789, 0.1463076066740126, -0.0009039383877807166, -0.6953205124497577,1.0,-8748.798166874267, -2830.963874153381, 21550.735145781888, -76.7626184137668, 221.16557913785675, 38.21133243088602,1.0,801
15541.940999999999,1.7003430866462563, -1.239572535938538, -1.6310232057571472, -1.8441551546695978, 1.571367386794288, 1.6997048962682488,-0.6953918457364038, -0.05014420629179155, -0.09507045571576787, 0.1463076066740126, -0.0009039383877807166, -0.6953205124497576,1.0,-8749.916210497864, -2833.241606030776, 21551.34813406966, -76.67570008393315, 221.09273134573965, 38.25003440176491,1.0,801
15541.948999999999,1.6999856432154479, -1.2395983109274766, -1.6310720736149857, -1.8440799500303662, 1.5713669221543292, 1.6993474895039828,-0.6953918457364038, -0.05014420629179155, -0.09507045571576789, 0.1463076066740126, -0.0009039383877807165, -0.6953205124497576,1.0,-8751.492318234177, -2833.3469915961305, 21552.022139486053, -76.6487143004436, 221.01585037479595, 38.29480684381298,1.0,801
15541.956999999999,1.6995388389269372, -1.2396305296636507, -1.631133158437284, -1.8439859442313278, 1.5713663413543806, 1.6989007310486506,-0.6953918457364039, -0.05014420629179156, -0.09507045571576789, 0.14630760667401263, -0.0009039383877807167, -0.6953205124497577,1.0,-8751.049820555041, -2832.2711635845562, 21551.279898639285, -76.70384645877388, 221.04888977316347, 38.3775712338946,1.0,801
15541.965,1.6990026737807247, -1.2396691921470593, -1.6312064602240417, -1.84387313727248, 1.5713656443944424, 1.6983646209022518,-0.6953918457364038, -0.05014420629179156, -0.09507045571576789, 0.1463076066740126, -0.0009039383877807166, -0.6953205124497577,1.0,-8749.777383477438, -2832.577551628141, 21550.962650221456, -76.73488903864737, 221.12195162322496, 38.34570307975574,1.0,801
15541.973,1.6983771477768097, -1.2397142983777023, -1.6312919789752591, -1.8437415291538262, 1.5713648312745143, 1.6977391590647866,-0.6953918457364038, -0.05014420629179156, -0.09507045571576789, 0.1463076066740126, -0.0009039383877807167, -0.6953205124497577,1.0,-8748.916213017226, -2832.548447342926, 21551.00862176042, -76.73401365790875, 221.13577736703144, 38.33099198645516,1.0,801
15541.981,1.697662260915193, -1.2397658483555807, -1.6313897146909362, -1.843591119875363, 1.5713639019945969, 1.6970243455362548,-0.6953918457364039, -0.05014420629179157, -0.0950704557157679, 0.14630760667401266, -0.0009039383877807167, -0.6953205124497577,1.0,-8749.583967179711, -2832.959228158915, 21551.507397125384, -76.68802648456645, 221.0971449149598, 38.31511383355908,1.0,801
15541.989,1.696858013195874, -1.2398238420806926, -1.6314996673710729, -1.843421909437093, 1.5713628565546893, 1.6962201803166566,-0.6953918457364038, -0.05014420629179156, -0.09507045571576789, 0.14630760667401263, -0.0009039383877807166, -0.6953205124497577,1.0,-8751.358967027596, -2832.999247891321, 21551.916267470584, -76.68418418384022, 221.02950085266826, 38.31029402883024,1.0,801
15541.997,1.695964404618853, -1.2398882795530408, -1.63162183701567, -1.8432338978390153, 1.5713616949547924, 1.6953266634059918,-0.6953918457364038, -0.05014420629179155, -0.09507045571576789, 0.14630760667401263, -0.0009039383877807166, -0.6953205124497577,1.0,-8750.716008743004, -2833.0028918448024, 21551.299802041955, -76.69134499107105, 221.06050968513296, 38.31951738267938,1.0,801
15542.005,1.6949814351841297, -1.2399591607726226, -1.6317562236247252, -1.843027085081129, 1.5713604171949056, 1.6943437948042606,-0.6953918457364038, -0.05014420629179156, -0.0950704557157679, 0.14630760667401263, -0.0009039383877807167, -0.6953205124497578,1.0,-8749.696415261182, -2832.8078158344806, 21551.030650478002, -76.71551043083181, 221.10946021159464, 38.31702596522169,1.0,801
15542.012999999999,1.6939091048917043, -1.2400364857394397, -1.6319028271982416, -1.842801471163436, 1.5713590232750292, 1.693271574511463,-0.6953918457364038, -0.05014420629179155, -0.09507045571576789, 0.1463076066740126, -0.0009039383877807165, -0.6953205124497576,1.0,-8748.844285145928, -2832.1561158673185, 21551.262261485936, -76.73753607322223, 221.12390167092747, 38.3225889582294,1.0,801
15542.020999999999,1.692747413741577, -1.2401202544534913, -1.6320616477362169, -1.8425570560859343, 1.571357513195163, 1.692110002527599,-0.6953918457364038, -0.05014420629179155, -0.09507045571576789, 0.1463076066740126, -0.0009039383877807166, -0.6953205124497577,1.0,-8749.540194739637, -2832.026948657316, 21551.35934698054, -76.74029277032054, 221.08768156842558, 38.323413795668785,1.0,801
15542.028999999999,1.6914963617337473, -1.2402104669147773, -1.6322326852386517, -1.842293839848625, 1.571355886955307, 1.6908590788526683,-0.6953918457364038, -0.05014420629179156, -0.09507045571576789, 0.1463076066740126, -0.0009039383877807167, -0.6953205124497577,1.0,-8750.694624860775, -2833.8144151169918, 21551.772363760556, -76.65647202812528, 221.02378457238052, 38.3134155431367,1.0,801
15542.036999999998,1.6901559488682156, -1.2403071231232987, -1.632415939705547, -1.842011822451508, 1.5713541445554615, 1.6895188034866713,-0.6953918457364038, -0.05014420629179155, -0.09507045571576789, 0.1463076066740126, -0.0009039383877807165, -0.6953205124497577,1.0,-8750.571905644907, -2833.228418014799, 21551.47052627918, -76.66100651581127, 221.04149994211735, 38.32005625057394,1.0,801
15542.045,1.688760383598321, -1.2404077563320666, -1.632606734330194, -1.8417182012135722, 1.571352330463122, 1.6881233813738443,-0.6953918457364038, -0.05014420629179155, -0.09507045571576789, 0.1463076066740126, -0.0009039383877807166, -0.6953205124497577,1.0,-8749.74816214127, -2832.3435858448256, 21551.61966214434, -76.7127420813755, 221.09988401049725, 38.33893825887134,1.0,801
15542.053,1.6873641201967255, -1.2405084398826087, -1.6327976243998759, -1.841424433091575, 1.571350515463283, 1.6867272612009307,-0.6953918457364038, -0.05014420629179155, -0.09507045571576789, 0.1463076066740126, -0.0009039383877807166, -0.6953205124497577,1.0,-8748.539233048421, -2833.492684758631, 21551.977645513572, -76.69435989510302, 221.14183735957988, 38.336426469718646,1.0,801
15542.061,1.6859678567951302, -1.2406091234331518, -1.6329885144695577, -1.8411306649695778, 1.5713487004634439, 1.6853311410280172,-0.6953918457364038, -0.05014420629179155, -0.09507045571576789, 0.1463076066740126, -0.0009039383877807166, -0.6953205124497577,1.0,-8749.711242697349, -2833.053352467781, 21551.86109852963, -76.67784435535475, 221.0969578176796, 38.328396625586066,1.0,801
15542.069,1.6845715933935346, -1.2407098069836948, -1.6331794045392396, -1.8408368968475814, 1.5713468854636046, 1.6839350208551036,-0.6953918457364038, -0.05014420629179155, -0.09507045571576789, 0.1463076066740126, -0.0009039383877807166, -0.6953205124497577,1.0,-8751.521329094034, -2833.819511007683, 21552.198077791014, -76.64173587531221, 221.02224279924343, 38.306993433318695,1.0,801
15542.077,1.6831753299919392, -1.2408104905342379, -1.6333702946089224, -1.8405431287255842, 1.5713450704637655, 1.68253890068219,-0.6953918457364038, -0.05014420629179155, -0.09507045571576789, 0.1463076066740126, -0.0009039383877807166, -0.6953205124497577,1.0,-8750.852760406418, -2833.5023051794924, 21551.57618359051, -76.65210538138368, 221.0392897808157, 38.311594341519054,1.0,801
15542.085,1.6817790665903436, -1.240911174084781, -1.6335611846786042, -1.840249360603588, 1.5713432554639264, 1.6811427805092765,-0.6953918457364038, -0.05014420629179155, -0.09507045571576789, 0.1463076066740126, -0.0009039383877807166, -0.6953205124497577,1.0,-8749.719781445578, -2833.7767910545017, 21551.401863823347, -76.66815376028376, 221.0932533534302, 38.325505262802835,1.0,801
15542.092999999999,1.6803828031887482, -1.241011857635323, -1.633752074748286, -1.8399555924815907, 1.5713414404640873, 1.6797466603363627,-0.6953918457364038, -0.05014420629179155, -0.09507045571576789, 0.1463076066740126, -0.0009039383877807166, -0.6953205124497577,1.0,-8749.10356595989, -2832.8198203166867, 21551.659758184935, -76.70045033119794, 221.1325918082407, 38.3246030777415,1.0,801
15542.100999999999,1.6789865397871528, -1.2411125411858661, -1.633942964817968, -1.8396618243595935, 1.571339625464248, 1.678350540163449,-0.6953918457364038, -0.05014420629179155, -0.09507045571576789, 0.1463076066740126, -0.0009039383877807166, -0.6953205124497577,1.0,-8749.543625978167, -2832.353576064931, 21551.69979841155, -76.7111381640708, 221.08706188994182, 38.326317645168245,1.0,801
15542.108999999999,1.6775902763855572, -1.2412132247364092, -1.6341338548876498, -1.8393680562375962, 1.571337810464409, 1.6769544199905355,-0.6953918457364038, -0.05014420629179155, -0.09507045571576789, 0.1463076066740126, -0.0009039383877807166, -0.6953205124497577,1.0,-8750.894130900164, -2833.3597073779, 21552.20884330009, -76.65408540258173, 221.02687567400517, 38.30695720327475,1.0,801
15542.117,1.6761940129839619, -1.2413139082869522, -1.6343247449573326, -1.8390742881156, 1.5713359954645698, 1.675558299817622,-0.6953918457364038, -0.05014420629179155, -0.09507045571576789, 0.1463076066740126, -0.0009039383877807166, -0.6953205124497577,1.0,-8750.447929491362, -2835.0707807896342, 21551.60193024436, -76.60799300467806, 221.05602382729563, 38.32008650440636,1.0,801
15542.125,1.6747977495823663, -1.2414145918374953, -1.6345156350270145, -1.8387805199936027, 1.5713341804647307, 1.6741621796447084,-0.6953918457364038, -0.05014420629179155, -0.09507045571576789, 0.1463076066740126, -0.0009039383877807166, -0.6953205124497577,1.0,-8749.546937404642, -2833.518037105224, 21551.62453805593, -76.68121926468845, 221.09825155952024, 38.32500899976833,1.0,801
15542.133,1.673401486180771, -1.2415152753880374, -1.6347065250966963, -1.8384867518716064, 1.5713323654648914, 1.6727660594717948,-0.6953918457364038, -0.05014420629179155, -0.09507045571576789, 0.1463076066740126, -0.0009039383877807166, -0.6953205124497577,1.0,-8748.620128445047, -2832.270800144066, 21551.57948145927, -76.71389485222818, 221.1187258411967, 38.32012217463475,1.0,801
15542.141,1.6720052227791755, -1.2416159589385805, -1.6348974151663782, -1.8381929837496092, 1.5713305504650523, 1.6713699392988812,-0.6953918457364038, -0.05014420629179155, -0.09507045571576789, 0.1463076066740126, -0.0009039383877807166, -0.6953205124497577,1.0,-8749.776679469287, -2832.4427741548416, 21551.60605393779, -76.70533831820686, 221.07737105867227, 38.33351163278405,1.0,801
15542.149,1.67060895937758, -1.2417166424891235, -1.63508830523606, -1.837899215627612, 1.5713287354652132, 1.6699738191259677,-0.6953918457364038, -0.05014420629179155, -0.09507045571576789, 0.1463076066740126, -0.0009039383877807166, -0.6953205124497577,1.0,-8750.29463391078, -2835.395684653614, 21552.324829775713, -76.58844099312404, 221.0354999172729, 38.306333349973585,1.0,801
15542.157,1.6692126959759845, -1.2418173260396657, -1.635279195305742, -1.8376054475056147, 1.5713269204653741, 1.668577698953054,-0.6953918457364038, -0.05014420629179155, -0.09507045571576789, 0.1463076066740126, -0.0009039383877807166, -0.6953205124497577,1.0,-8750.317141266714, -2834.664544128418, 21551.905653414156, -76.63368070469707, 221.0475964478074, 38.32534960760157,1.0,801
15542.164999999999,1.6678164325743892, -1.2419180095902087, -1.6354700853754238, -1.8373116793836184, 1.5713251054655348, 1.6671815787801405,-0.6953918457364038, -0.05014420629179155, -0.09507045571576789, 0.1463076066740126, -0.0009039383877807166, -0.6953205124497577,1.0,-8749.996187104476, -2832.463099064892, 21551.628655901408, -76.70965157491574, 221.1064645027588, 38.32589845085684,1.0,801
15542.172999999999,1.6664201691727936, -1.2420186931407518, -1.6356609754451066, -1.8370179112616212, 1.5713232904656957, 1.665785458607227,-0.6953918457364038, -0.05014420629179155, -0.09507045571576789, 0.1463076066740126, -0.0009039383877807166, -0.6953205124497577,1.0,-8749.175146377649, -2832.5775052010167, 21551.348435705586, -76.72019594796126, 221.08131172039833, 38.32883506398335,1.0,801
15542.180999999999,1.6650239057711982, -1.2421193766912948, -1.6358518655147885, -1.8367241431396248, 1.5713214754658567, 1.6643893384343134,-0.6953918457364038, -0.05014420629179155, -0.09507045571576789, 0.1463076066740126, -0.0009039383877807166, -0.6953205124497577,1.0,-8749.483413526825, -2833.431991227667, 21551.229805440278, -76.67996514684512, 221.06599676321133, 38.33260630681582,1.0,801
15542.188999999998,1.6636276423696026, -1.2422200602418378, -1.6360427555844703, -1.8364303750176276, 1.5713196604660176, 1.6629932182613998,-0.6953918457364038, -0.05014420629179155, -0.09507045571576789, 0.1463076066740126, -0.0009039383877807166, -0.6953205124497577,1.0,-8750.899867611175, -2833.971536661269, 21551.982047779784, -76.64763278628357, 221.01178847412865, 38.31287491872013,1.0,801
15542.197,1.6622313789680072, -1.24232074379238, -1.6362336456541522, -1.8361366068956304, 1.5713178454661783, 1.6615970980884862,-0.6953918457364038, -0.05014420629179155, -0.09507045571576789, 0.1463076066740126, -0.0009039383877807166, -0.6953205124497577,1.0,-8750.244543138013, -2834.08716528842, 21551.892821274225, -76.6417738706908, 221.069928719269, 38.32511308789941,1.0,801
15542.205,1.6608351155664118, -1.242421427342923, -1.636424535723834, -1.835842838773634, 1.5713160304663392, 1.6602009779155726,-0.6953918457364038, -0.05014420629179155, -0.09507045571576789, 0.1463076066740126, -0.0009039383877807166, -0.6953205124497577,1.0,-8749.207657657675, -2833.5754203489378, 21551.475007256427, -76.67025771452737, 221.10280144591997, 38.330081884162325,1.0,801
15542.213,1.6594388521648162, -1.242522110893466, -1.6366154257935168, -1.8355490706516369, 1.5713142154665, 1.658804857742659,-0.6953918457364038, -0.05014420629179155, -0.09507045571576789, 0.1463076066740126, -0.0009039383877807166, -0.6953205124497577,1.0,-8749.013399770625, -2832.3530967140896, 21551.365543228745, -76.71000615733479, 221.12046528040935, 38.337491022348985,1.0,801
15542.221,1.6580425887632209, -1.2426227944440091, -1.6368063158631987, -1.8352553025296396, 1.571312400466661, 1.6574087375697455,-0.6953918457364038, -0.05014420629179155, -0.09507045571576789, 0.1463076066740126, -0.0009039383877807166, -0.6953205124497577,1.0,-8750.179803693738, -2832.338196327026, 21551.73423822649, -76.71409392542452, 221.06311735959616, 38.33993113431859,1.0,801
15542.229,1.6566463253616253, -1.2427234779945522, -1.6369972059328806, -1.8349615344076433, 1.5713105854668217, 1.656012617396832,-0.6953918457364038, -0.05014420629179155, -0.09507045571576789, 0.1463076066740126, -0.0009039383877807166, -0.6953205124497577,1.0,-8750.286707671186, -2834.2106559153417, 21552.29634300977, -76.62995382645792, 221.04252932205384, 38.31566822248911,1.0,801
15542.237,1.6552500619600299, -1.2428241615450943, -1.6371880960025624, -1.834667766285646, 1.5713087704669826, 1.6546164972239183,-0.6953918457364038, -0.05014420629179155, -0.09507045571576789, 0.1463076066740126, -0.0009039383877807166, -0.6953205124497577,1.0,-8750.598613206801, -2834.9341670465246, 21551.969892929563, -76.61680211504029, 221.07456830002445, 38.325234962012246,1.0,801
15542.244999999999,1.6538537985584345, -1.2429248450956374, -1.6373789860722443, -1.8343739981636489, 1.5713069554671435, 1.6532203770510048,-0.6953918457364038, -0.05014420629179155, -0.09507045571576789, 0.1463076066740126, -0.0009039383877807166, -0.6953205124497577,1.0,-8749.630557883265, -2833.034056874173, 21551.674936803498, -76.69168271592136, 221.0996144730284, 38.326425930362774,1.0,801
15542.252999999999,1.652457535156839, -1.2430255286461804, -1.6375698761419262, -1.8340802300416525, 1.5713051404673044, 1.6518242568780912,-0.6953918457364038, -0.05014420629179155, -0.09507045571576789, 0.1463076066740126, -0.0009039383877807166, -0.6953205124497577,1.0,-8749.502228308038, -2831.7029587165234, 21551.367401088977, -76.72926071674621, 221.10164317730909, 38.32661219305311,1.0,801
15542.260999999999,1.6510612717552435, -1.2431262121967226, -1.637760766211608, -1.8337864619196553, 1.571303325467465, 1.6504281367051776,-0.6953918457364038, -0.05014420629179155, -0.09507045571576789, 0.1463076066740126, -0.0009039383877807166, -0.6953205124497577,1.0,-8750.300868506298, -2832.7004141253656, 21551.447858245054, -76.69221197899483, 221.07061918241862, 38.332299193433045,1.0,801
15542.268999999998,1.649665008353648, -1.2432268957472656, -1.6379516562812908, -1.833492693797659, 1.571301510467626, 1.649032016532264,-0.6953918457364038, -0.05014420629179155, -0.09507045571576789, 0.1463076066740126, -0.0009039383877807166, -0.6953205124497577,1.0,-8750.729246459272, -2835.2287909057304, 21551.826822176565, -76.59108296765766, 221.0374817372466, 38.30275333029064,1.0,801
15542.277,1.6482687449520526, -1.2433275792978087, -1.6381425463509727, -1.8331989256756618, 1.571299695467787, 1.6476358963593505,-0.6953918457364038, -0.05014420629179155, -0.09507045571576789, 0.1463076066740126, -0.0009039383877807166, -0.6953205124497577,1.0,-8750.926407073584, -2833.4052136372993, 21551.653413797205, -76.6406916082203, 221.05562537134057, 38.324925791889086,1.0,801
15542.285,1.6468724815504572, -1.2434282628483517, -1.6383334364206545, -1.8329051575536646, 1.5712978804679476, 1.646239776186437,-0.6953918457364038, -0.05014420629179155, -0.09507045571576789, 0.1463076066740126, -0.0009039383877807166, -0.6953205124497577,1.0,-8749.66192836061, -2832.8220481917697, 21551.342130875248, -76.70561576006477, 221.09943468308865, 38.32048323137232,1.0,801
15542.293,1.6454762181488616, -1.2435289463988948, -1.6385243264903364, -1.8326113894316673, 1.5712960654681085, 1.6448436560135233,-0.6953918457364038, -0.05014420629179155, -0.09507045571576789, 0.1463076066740126, -0.0009039383877807166, -0.6953205124497577,1.0,-8748.97824399093, -2832.678393736205, 21551.40769730469, -76.70990857914774, 221.12702019976956, 38.32116715278153,1.0,801
15542.301,1.6440799547472662, -1.243629629949437, -1.6387152165600183, -1.832317621309671, 1.5712942504682694, 1.6434475358406098,-0.6953918457364038, -0.05014420629179155, -0.09507045571576789, 0.1463076066740126, -0.0009039383877807166, -0.6953205124497577,1.0,-8749.181172171695, -2833.582601688694, 21551.453744553026, -76.6592973641645, 221.0882304778683, 38.33085347424159,1.0,801
15542.309,1.6426836913456706, -1.24373031349998, -1.638906106629701, -1.8320238531876738, 1.5712924354684303, 1.6420514156676962,-0.6953918457364038, -0.05014420629179155, -0.09507045571576789, 0.1463076066740126, -0.0009039383877807166, -0.6953205124497577,1.0,-8751.02061248063, -2834.123720275051, 21552.10290049234, -76.6278620300393, 221.03498092860798, 38.30642133412999,1.0,801
15542.317,1.6412874279440752, -1.243830997050523, -1.639096996699383, -1.8317300850656775, 1.571290620468591, 1.6406552954947826,-0.6953918457364038, -0.05014420629179155, -0.09507045571576789, 0.1463076066740126, -0.0009039383877807166, -0.6953205124497577,1.0,-8750.409447275377, -2833.0566720102497, 21551.512474231735, -76.66731732779249, 221.0571547633357, 38.32419027723844,1.0,801
15542.324999999999,1.6398911645424799, -1.243931680601066, -1.6392878867690648, -1.8314363169436803, 1.571288805468752, 1.639259175321869,-0.6953918457364038, -0.05014420629179155, -0.09507045571576789, 0.1463076066740126, -0.0009039383877807166, -0.6953205124497577,1.0,-8749.34286897585, -2834.064657025836, 21551.385456737084, -76.65752739895282, 221.10831803170015, 38.32546252372583,1.0,801
15542.332999999999,1.6384949011408843, -1.2440323641516091, -1.6394787768387467, -1.831142548821683, 1.5712869904689128, 1.6378630551489555,-0.6953918457364038, -0.05014420629179155, -0.09507045571576789, 0.1463076066740126, -0.0009039383877807166, -0.6953205124497577,1.0,-8748.782023920125, -2832.5904880158414, 21551.59823518791, -76.70300483329197, 221.12754886939535, 38.32435115057686,1.0,801
15542.340999999999,1.6370986377392889, -1.2441330477021513, -1.6396696669084285, -1.8308487806996858, 1.5712851754690738, 1.636466934976042,-0.6953918457364038, -0.05014420629179155, -0.09507045571576789, 0.1463076066740126, -0.0009039383877807166, -0.6953205124497577,1.0,-8749.271388803876, -2832.917495403446, 21551.824335232945, -76.67487311090048, 221.10088269755175, 38.330049236796356,1.0,801
15542.349,1.6357023743376933, -1.2442337312526943, -1.6398605569781104, -1.8305550125776895, 1.5712833604692344, 1.6350708148031283,-0.6953918457364038, -0.05014420629179155, -0.09507045571576789, 0.1463076066740126, -0.0009039383877807166, -0.6953205124497577,1.0,-8750.93426706346, -2833.6208269560684, 21552.172565962108, -76.64206789683192, 221.02187339738163, 38.31300245536539,1.0,801
15542.357,1.634306110936098, -1.2443344148032374, -1.6400514470477923, -1.8302612444556923, 1.5712815454693954, 1.6336746946302148,-0.6953918457364038, -0.05014420629179155, -0.09507045571576789, 0.1463076066740126, -0.0009039383877807166, -0.6953205124497577,1.0,-8750.26215647779, -2834.96908032183, 21551.479413492212, -76.61927189066424, 221.05492580868327, 38.32548157021196,1.0,801
15542.365,1.6329098475345025, -1.2444350983537795, -1.6402423371174741, -1.829967476333696, 1.5712797304695563, 1.6322785744573012,-0.6953918457364038, -0.05014420629179155, -0.09507045571576789, 0.1463076066740126, -0.0009039383877807166, -0.6953205124497577,1.0,-8749.963541990464, -2832.9207748071703, 21551.14524558498, -76.68129283349447, 221.0802187251378, 38.328201541958975,1.0,801
15542.373,1.631513584132907, -1.2445357819043226, -1.640433227187157, -1.8296737082116987, 1.5712779154697172, 1.6308824542843876,-0.6953918457364038, -0.05014420629179155, -0.09507045571576789, 0.1463076066740126, -0.0009039383877807166, -0.6953205124497577,1.0,-8748.834189363823, -2832.2083988396143, 21551.244143163018, -76.71169522782697, 221.0949473434033, 38.32431532919733,1.0,801
15542.381,1.6301173207313115, -1.2446364654548656, -1.6406241172568388, -1.8293799400897015, 1.5712761004698779, 1.629486334111474,-0.6953918457364038, -0.05014420629179155, -0.09507045571576789, 0.1463076066740126, -0.0009039383877807166, -0.6953205124497577,1.0,-8749.625598965642, -2833.2324071076346, 21551.327514985765, -76.66294038994448, 221.0793062610431, 38.33929838943766,1.0,801
15542.389,1.628721057329716, -1.2447371490054087, -1.6408150073265206, -1.8290861719677043, 1.5712742854700388, 1.6280902139385605,-0.6953918457364038, -0.05014420629179155, -0.09507045571576789, 0.1463076066740126, -0.0009039383877807166, -0.6953205124497577,1.0,-8749.923889638842, -2834.3295726884144, 21552.037616997382, -76.61343592215204, 221.03599881284777, 38.31723770470509,1.0,801
15542.396999999999,1.6273247939281206, -1.2448378325559517, -1.6410058973962025, -1.828792403845708, 1.5712724704701997, 1.6266940937656469,-0.6953918457364038, -0.05014420629179155, -0.09507045571576789, 0.1463076066740126, -0.0009039383877807166, -0.6953205124497577,1.0,-8750.224836542195, -2833.264198034947, 21551.452791239215, -76.66313706661035, 221.05417518180838, 38.33319211747056,1.0,801
15542.404999999999,1.6259285305265252, -1.2449385161064939, -1.6411967874658853, -1.8284986357237107, 1.5712706554703606, 1.6252979735927333,-0.6953918457364038, -0.05014420629179155, -0.09507045571576789, 0.1463076066740126, -0.0009039383877807166, -0.6953205124497577,1.0,-8749.014386053179, -2832.792672264938, 21551.396779610943, -76.68802151040632, 221.0907359636946, 38.32935495245644,1.0,801
15542.412999999999,1.6245322671249296, -1.245039199657037, -1.6413876775355671, -1.8282048676017144, 1.5712688404705213, 1.6239018534198197,-0.6953918457364038, -0.05014420629179155, -0.09507045571576789, 0.1463076066740126, -0.0009039383877807166, -0.6953205124497577,1.0,-8748.483025742533, -2833.1035857217566, 21551.391046969307, -76.68907987814802, 221.10539951101413, 38.331637558027325,1.0,801
15542.420999999998,1.6231360037233342, -1.24513988320758, -1.641578567605249, -1.8279110994797172, 1.5712670254706822, 1.6225057332469062,-0.6953918457364038, -0.05014420629179155, -0.09507045571576789, 0.1463076066740126, -0.0009039383877807166, -0.6953205124497577,1.0,-8749.705003605328, -2833.0639093597074, 21551.54206774683, -76.67261976788143, 221.0838353185838, 38.33463674831307,1.0,801
15542.429,1.6217397403217388, -1.245240566758123, -1.6417694576749309, -1.82761733135772, 1.571265210470843, 1.6211096130739926,-0.6953918457364038, -0.05014420629179155, -0.09507045571576789, 0.1463076066740126, -0.0009039383877807166, -0.6953205124497577,1.0,-8750.81138490012, -2833.666195976263, 21552.170811643904, -76.64496077653948, 221.04554826137888, 38.30754866153822,1.0,801
15542.437,1.6203434769201432, -1.245341250308666, -1.6419603477446127, -1.8273235632357236, 1.571263395471004, 1.619713492901079,-0.6953918457364038, -0.05014420629179155, -0.09507045571576789, 0.1463076066740126, -0.0009039383877807166, -0.6953205124497577,1.0,-8750.668556723163, -2833.3375693073585, 21551.70052958017, -76.64901077185826, 221.0657756417869, 38.31995623964136,1.0,801
15542.445,1.6189472135185479, -1.2454419338592082, -1.6421512378142946, -1.8270297951137264, 1.5712615804711647, 1.6183173727281654,-0.6953918457364038, -0.05014420629179155, -0.09507045571576789, 0.1463076066740126, -0.0009039383877807166, -0.6953205124497577,1.0,-8749.475274612249, -2834.1147152025715, 21551.346229918323, -76.64582078603459, 221.1004669717093, 38.32336514003009,1.0,801
15542.453,1.6175509501169523, -1.2455426174097513, -1.6423421278839765, -1.82673602699173, 1.5712597654713256, 1.6169212525552519,-0.6953918457364038, -0.05014420629179155, -0.09507045571576789, 0.1463076066740126, -0.0009039383877807166, -0.6953205124497577,1.0,-8749.443757596024, -2832.3084976721966, 21551.11375667997, -76.70171955480404, 221.0994020318629, 38.32637171549777,1.0,801
15542.461,1.616154686715357, -1.2456433009602943, -1.6425330179536584, -1.8264422588697329, 1.5712579504714865, 1.6155251323823383,-0.6953918457364038, -0.05014420629179155, -0.09507045571576789, 0.1463076066740126, -0.0009039383877807166, -0.6953205124497577,1.0,-8749.968798298572, -2832.813261014988, 21551.22853468545, -76.68620203045336, 221.07236843289752, 38.31886609596799,1.0,801
15542.469,1.6147584233137615, -1.2457439845108365, -1.6427239080233411, -1.8261484907477357, 1.5712561354716474, 1.6141290122094245,-0.6953918457364038, -0.05014420629179155, -0.09507045571576789, 0.1463076066740126, -0.0009039383877807166, -0.6953205124497577,1.0,-8751.009419216392, -2833.4737927208007, 21551.90009437109, -76.64220824294387, 221.02828480038932, 38.314248844562485,1.0,801
15542.476999999999,1.613362159912166, -1.2458446680613795, -1.642914798093023, -1.8258547226257384, 1.5712543204718081, 1.612732892036511,-0.6953918457364038, -0.05014420629179155, -0.09507045571576789, 0.1463076066740126, -0.0009039383877807166, -0.6953205124497577,1.0,-8749.81621051164, -2835.033481695048, 21551.49913788832, -76.59999584716445, 221.07664340834236, 38.32205971233685,1.0,801
15542.484999999999,1.6119658965105705, -1.2459453516119225, -1.6431056881627049, -1.8255609545037421, 1.571252505471969, 1.6113367718635974,-0.6953918457364038, -0.05014420629179155, -0.09507045571576789, 0.1463076066740126, -0.0009039383877807166, -0.6953205124497577,1.0,-8749.188426495257, -2833.044591291193, 21551.399324494312, -76.68969509928101, 221.10191876958083, 38.32501012182138,1.0,801
15542.492999999999,1.610569633108975, -1.2460460351624656, -1.6432965782323867, -1.825267186381745, 1.57125069047213, 1.6099406516906838,-0.6953918457364038, -0.05014420629179155, -0.09507045571576789, 0.1463076066740126, -0.0009039383877807166, -0.6953205124497577,1.0,-8748.991633512222, -2832.130663779383, 21551.271835126583, -76.71085174149988, 221.1123677749996, 38.325276861862164,1.0,801
15542.501,1.6091733697073796, -1.2461467187130086, -1.6434874683020695, -1.8249734182597486, 1.5712488754722909, 1.6085445315177702,-0.6953918457364038, -0.05014420629179155, -0.09507045571576789, 0.1463076066740126, -0.0009039383877807166, -0.6953205124497577,1.0,-8749.668211252909, -2832.878489441602, 21551.48396743833, -76.68732908050879, 221.05062595252372, 38.32390308551834,1.0,801
15542.509,1.6077771063057842, -1.2462474022635508, -1.6436783583717514, -1.8246796501377514, 1.5712470604724516, 1.6071484113448566,-0.6953918457364038, -0.05014420629179155, -0.09507045571576789, 0.1463076066740126, -0.0009039383877807166, -0.6953205124497577,1.0,-8749.836950283157, -2835.44496170768, 21551.99647347324, -76.59407172645072, 221.04979037881566, 38.317234992391604,1.0,801
15542.517,1.6063808429041886, -1.2463480858140938, -1.6438692484414332, -1.8243858820157541, 1.5712452454726125, 1.605752291171943,-0.6953918457364038, -0.05014420629179155, -0.09507045571576789, 0.1463076066740126, -0.0009039383877807166, -0.6953205124497577,1.0,-8750.091234995492, -2833.8523791276066, 21551.619889624748, -76.64486451452626, 221.0730218833055, 38.32872198193462,1.0,801
15542.525,1.6049845795025932, -1.2464487693646369, -1.644060138511115, -1.824092113893757, 1.5712434304727734, 1.6043561709990295,-0.6953918457364038, -0.05014420629179155, -0.09507045571576789, 0.1463076066740126, -0.0009039383877807166, -0.6953205124497577,1.0,-8748.79892277834, -2832.856622822562, 21551.39145443564, -76.7040900390916, 221.10216357553088, 38.318889621394845,1.0,801
15542.533,1.6035883161009976, -1.24654945291518, -1.644251028580797, -1.8237983457717606, 1.571241615472934, 1.602960050826116,-0.6953918457364038, -0.05014420629179155, -0.09507045571576789, 0.1463076066740126, -0.0009039383877807166, -0.6953205124497577,1.0,-8748.96877122655, -2833.158794737661, 21551.370295728077, -76.68554168959753, 221.1050194144638, 38.33054940850897,1.0,801
15542.541,1.6021920526994022, -1.246650136465723, -1.6444419186504788, -1.8235045776497634, 1.571239800473095, 1.6015639306532024,-0.6953918457364038, -0.05014420629179155, -0.09507045571576789, 0.1463076066740126, -0.0009039383877807166, -0.6953205124497577,1.0,-8749.502447442424, -2833.3206083780697, 21551.34709447729, -76.66163209671723, 221.07337225053203, 38.3306907999486,1.0,801
15542.548999999999,1.6007957892978069, -1.2467508200162651, -1.6446328087201607, -1.823210809527767, 1.5712379854732559, 1.6001678104802888,-0.6953918457364038, -0.05014420629179155, -0.09507045571576789, 0.1463076066740126, -0.0009039383877807166, -0.6953205124497577,1.0,-8751.038711698928, -2833.8584564411203, 21551.832697070746, -76.63978544272103, 221.025952735852, 38.31554738461554,1.0,801
15542.556999999999,1.5993995258962113, -1.2468515035668082, -1.6448236987898426, -1.8229170414057698, 1.5712361704734168, 1.5987716903073752,-0.6953918457364038, -0.05014420629179155, -0.09507045571576789, 0.1463076066740126, -0.0009039383877807166, -0.6953205124497577,1.0,-8750.29396836082, -2833.6894794575455, 21551.109660623482, -76.6388098288717, 221.04727138876342, 38.331483114126826,1.0,801
15542.564999999999,1.5980032624946159, -1.2469521871173512, -1.6450145888595253, -1.8226232732837726, 1.5712343554735775, 1.5973755701344616,-0.6953918457364038, -0.05014420629179155, -0.09507045571576789, 0.1463076066740126, -0.0009039383877807166, -0.6953205124497577,1.0,-8748.867054916951, -2833.7344581689185, 21551.236487682057, -76.66617389703754, 221.10812658744277, 38.328003424379006,1.0,801
15542.572999999999,1.5966069990930203, -1.2470528706678934, -1.6452054789292072, -1.8223295051617754, 1.5712325404737384, 1.595979449961548,-0.6953918457364038, -0.05014420629179155, -0.09507045571576789, 0.1463076066740126, -0.0009039383877807166, -0.6953205124497577,1.0,-8749.079137344868, -2832.2225855909446, 21551.345287495038, -76.71256569462813, 221.1050430102281, 38.33071341512749,1.0,801
15542.581,1.595210735691425, -1.2471535542184364, -1.645396368998889, -1.822035737039779, 1.5712307254738993, 1.5945833297886345,-0.6953918457364038, -0.05014420629179155, -0.09507045571576789, 0.1463076066740126, -0.0009039383877807166, -0.6953205124497577,1.0,-8749.97651596772, -2832.530679265362, 21551.49051717722, -76.68531869515101, 221.0878398973262, 38.341782351392,1.0,801
15542.589,1.5938144722898295, -1.2472542377689795, -1.645587259068571, -1.8217419689177818, 1.5712289104740602, 1.593187209615721,-0.6953918457364038, -0.05014420629179155, -0.09507045571576789, 0.1463076066740126, -0.0009039383877807166, -0.6953205124497577,1.0,-8750.784018372377, -2834.3441720592336, 21552.042610584725, -76.62173812830943, 221.05090929101766, 38.323475970477546,1.0,801
15542.597,1.592418208888234, -1.2473549213195225, -1.6457781491382537, -1.8214482007957855, 1.571227095474221, 1.5917910894428073,-0.6953918457364038, -0.05014420629179155, -0.09507045571576789, 0.1463076066740126, -0.0009039383877807166, -0.6953205124497577,1.0,-8750.344355742922, -2834.8177637297385, 21551.62293122845, -76.6203440382738, 221.08163599169484, 38.33528289511514,1.0,801
15542.605,1.5910219454866386, -1.2474556048700656, -1.6459690392079356, -1.8211544326737883, 1.5712252804743818, 1.5903949692698938,-0.6953918457364038, -0.05014420629179155, -0.09507045571576789, 0.1463076066740126, -0.0009039383877807166, -0.6953205124497577,1.0,-8749.424293290553, -2832.3536444549436, 21551.409192525403, -76.69190570231635, 221.10569941682104, 38.32408546463239,1.0,801
15542.613,1.589625682085043, -1.2475562884206077, -1.6461599292776175, -1.820860664551791, 1.5712234654745427, 1.5889988490969802,-0.6953918457364038, -0.05014420629179155, -0.09507045571576789, 0.1463076066740126, -0.0009039383877807166, -0.6953205124497577,1.0,-8749.390698919633, -2831.959790724346, 21551.40505345388, -76.7083178526808, 221.12291319441232, 38.32558131696652,1.0,801
15542.621,1.5882294186834476, -1.2476569719711508, -1.6463508193472993, -1.8205668964297947, 1.5712216504747036, 1.5876027289240666,-0.6953918457364038, -0.05014420629179155, -0.09507045571576789, 0.1463076066740126, -0.0009039383877807166, -0.6953205124497577,1.0,-8749.780933083952, -2833.332345024859, 21551.446914290038, -76.66312048010224, 221.08911084869624, 38.330907965681575,1.0,801
15542.628999999999,1.5868331552818522, -1.2477576555216938, -1.6465417094169812, -1.8202731283077975, 1.5712198354748643, 1.586206608751153,-0.6953918457364038, -0.05014420629179155, -0.09507045571576789, 0.1463076066740126, -0.0009039383877807166, -0.6953205124497577,1.0,-8750.816067016793, -2834.584398743101, 21551.802937724642, -76.60438975167335, 221.05795239327892, 38.31253654692728,1.0,801
15542.636999999999,1.5854368918802566, -1.2478583390722369, -1.646732599486663, -1.8199793601858003, 1.5712180204750252, 1.5848104885782395,-0.6953918457364038, -0.05014420629179155, -0.09507045571576789, 0.1463076066740126, -0.0009039383877807166, -0.6953205124497577,1.0,-8751.126792543564, -2833.1274948908695, 21551.49630885792, -76.6479192366026, 221.0565328778465, 38.32705220563548,1.0,801
15542.644999999999,1.5840406284786612, -1.24795902262278, -1.646923489556345, -1.819685592063804, 1.5712162054751861, 1.583414368405326,-0.6953918457364038, -0.05014420629179155, -0.09507045571576789, 0.1463076066740126, -0.0009039383877807166, -0.6953205124497577,1.0,-8749.894771346826, -2832.1130484228597, 21550.943780707134, -76.69320799349009, 221.09019038134136, 38.3209078492049,1.0,801
15542.652999999998,1.5826443650770656, -1.248059706173322, -1.6471143796260268, -1.8193918239418068, 1.571214390475347, 1.5820182482324123,-0.6953918457364038, -0.05014420629179155, -0.09507045571576789, 0.1463076066740126, -0.0009039383877807166, -0.6953205124497577,1.0,-8749.23549683078, -2833.2507828789494, 21551.215058997816, -76.67678753481272, 221.11964576105368, 38.33149838889892,1.0,801
15542.661,1.5812481016754703, -1.2481603897238651, -1.6473052696957096, -1.8190980558198095, 1.5712125754755077, 1.5806221280594988,-0.6953918457364038, -0.05014420629179155, -0.09507045571576789, 0.1463076066740126, -0.0009039383877807166, -0.6953205124497577,1.0,-8749.479621683246, -2833.2116145738346, 21551.470963711083, -76.66377049447573, 221.10398729502953, 38.32958600861434,1.0,801
15542.669,1.5798518382738749, -1.2482610732744082, -1.6474961597653914, -1.8188042876978132, 1.5712107604756687, 1.5792260078865852,-0.6953918457364038, -0.05014420629179155, -0.09507045571576789, 0.1463076066740126, -0.0009039383877807166, -0.6953205124497577,1.0,-8751.012229413725, -2833.732729570964, 21551.96278361672, -76.6267525675629, 221.059972148462, 38.31604204615911,1.0,801
15542.677,1.5784555748722793, -1.2483617568249503, -1.6476870498350733, -1.818510519575816, 1.5712089454758296, 1.5778298877136716,-0.6953918457364038, -0.05014420629179155, -0.09507045571576789, 0.1463076066740126, -0.0009039383877807166, -0.6953205124497577,1.0,-8750.375642517938, -2833.043675426501, 21551.689157415258, -76.6578782314538, 221.06295218912436, 38.331389526273,1.0,801
15542.685,1.577059311470684, -1.2484624403754943, -1.6478779399047552, -1.8182167514538197, 1.5712071304759905, 1.576433767540758,-0.6953918457364038, -0.05014420629179155, -0.09507045571576789, 0.1463076066740126, -0.0009039383877807166, -0.6953205124497577,1.0,-8749.324429347007, -2834.533065486773, 21551.235187759696, -76.64269824581302, 221.10768113030377, 38.322351377130246,1.0,801
15542.693,1.5756630480690883, -1.2485631239260364, -1.648068829974438, -1.8179229833318225, 1.5712053154761512, 1.5750376473678445,-0.6953918457364038, -0.05014420629179155, -0.09507045571576789, 0.1463076066740126, -0.0009039383877807166, -0.6953205124497577,1.0,-8748.992047996819, -2832.3963383374858, 21551.194741962885, -76.70564091473705, 221.11646812344412, 38.335054121862214,1.0,801
15542.701,1.574266784667493, -1.2486638074765795, -1.6482597200441198, -1.8176292152098252, 1.571203500476312, 1.573641527194931,-0.6953918457364038, -0.05014420629179155, -0.09507045571576789, 0.1463076066740126, -0.0009039383877807166, -0.6953205124497577,1.0,-8749.434748359945, -2832.807725836299, 21551.74520466851, -76.67199725761515, 221.1090509683729, 38.31974584145286,1.0,801
15542.708999999999,1.5728705212658975, -1.2487644910271225, -1.6484506101138017, -1.817335447087828, 1.571201685476473, 1.5722454070220173,-0.6953918457364038, -0.05014420629179155, -0.09507045571576789, 0.1463076066740126, -0.0009039383877807166, -0.6953205124497577,1.0,-8750.528589980795, -2833.7448487812244, 21552.10013299983, -76.632938383609, 221.0495228294206, 38.326081003045545,1.0,801
15542.716999999999,1.571474257864302, -1.2488651745776647, -1.6486415001834835, -1.8170416789658317, 1.571199870476634, 1.5708492868491037,-0.6953918457364038, -0.05014420629179155, -0.09507045571576789, 0.1463076066740126, -0.0009039383877807166, -0.6953205124497577,1.0,-8749.983363563124, -2834.807364574316, 21551.561120078608, -76.60815902139876, 221.07977297078935, 38.32467411961508,1.0,801
15542.724999999999,1.5700779944627066, -1.2489658581282077, -1.6488323902531654, -1.8167479108438345, 1.5711980554767946, 1.5694531666761902,-0.6953918457364038, -0.05014420629179155, -0.09507045571576789, 0.1463076066740126, -0.0009039383877807166, -0.6953205124497577,1.0,-8749.540092326963, -2832.7877645450144, 21551.213143484085, -76.6880553227835, 221.08153551572371, 38.33083994815823,1.0,801
15542.733,1.568681731061111, -1.2490665416787508, -1.6490232803228473, -1.8164541427218381, 1.5711962404769555, 1.5680570465032766,-0.6953918457364038, -0.05014420629179155, -0.09507045571576789, 0.1463076066740126, -0.0009039383877807166, -0.6953205124497577,1.0,-8749.720900619248, -2832.335091020712, 21550.963797755852, -76.70589071812407, 221.09422201054554, 38.34099034913507,1.0,801
15542.741,1.5672854676595156, -1.2491672252292938, -1.6492141703925292, -1.816160374599841, 1.5711944254771164, 1.566660926330363,-0.6953918457364038, -0.05014420629179155, -0.09507045571576789, 0.1463076066740126, -0.0009039383877807166, -0.6953205124497577,1.0,-8749.483944527232, -2833.6635505075137, 21551.262248303545, -76.65653198070285, 221.09189092392552, 38.33806715440866,1.0,801
15542.749,1.5658892042579202, -1.2492679087798368, -1.649405060462211, -1.8158666064778437, 1.5711926104772773, 1.5652648061574495,-0.6953918457364038, -0.05014420629179155, -0.09507045571576789, 0.1463076066740126, -0.0009039383877807166, -0.6953205124497577,1.0,-8750.100738494253, -2833.9058302371786, 21551.896309349657, -76.63241724223656, 221.02759536547916, 38.32964779014296,1.0,801
15542.757,1.5644929408563246, -1.249368592330379, -1.6495959505318938, -1.8155728383558465, 1.571190795477438, 1.5638686859845359,-0.6953918457364038, -0.05014420629179155, -0.09507045571576789, 0.1463076066740126, -0.0009039383877807166, -0.6953205124497577,1.0,-8750.273216492562, -2833.372002303171, 21551.584996592148, -76.64500429914352, 221.06345309518167, 38.337396250418976,1.0,801
15542.765,1.5630966774547292, -1.249469275880922, -1.6497868406015757, -1.8152790702338502, 1.571188980477599, 1.5624725658116223,-0.6953918457364038, -0.05014420629179155, -0.09507045571576789, 0.1463076066740126, -0.0009039383877807166, -0.6953205124497577,1.0,-8749.566783861987, -2832.9252379634736, 21551.40826664415, -76.6720386784421, 221.09324548007123, 38.329378301833486,1.0,801
15542.773,1.5617004140531336, -1.249569959431465, -1.6499777306712575, -1.814985302111853, 1.5711871654777598, 1.5610764456387085,-0.6953918457364038, -0.05014420629179155, -0.09507045571576789, 0.1463076066740126, -0.0009039383877807166, -0.6953205124497577,1.0,-8748.635667229215, -2833.7160983392687, 21551.19237158356, -76.67337870558524, 221.13101794708206, 38.34041589548684,1.0,801
15542.780999999999,1.5603041506515383, -1.2496706429820073, -1.6501686207409394, -1.8146915339898566, 1.5711853504779205, 1.559680325465795,-0.6953918457364038, -0.05014420629179155, -0.09507045571576789, 0.1463076066740126, -0.0009039383877807166, -0.6953205124497577,1.0,-8749.793185702854, -2832.177019151023, 21551.379192925247, -76.70022324286478, 221.08665755021906, 38.340122430295,1.0,801
15542.788999999999,1.558907887249943, -1.2497713265325512, -1.6503595108106222, -1.8143977658678594, 1.5711835354780814, 1.5582842052928814,-0.6953918457364038, -0.05014420629179155, -0.09507045571576789, 0.1463076066740126, -0.0009039383877807166, -0.6953205124497577,1.0,-8750.28670486535, -2833.64947842313, 21552.02549280301, -76.64468775709531, 221.0556212452011, 38.31384485946117,1.0,801
15542.796999999999,1.5575116238483473, -1.2498720100830933, -1.650550400880304, -1.8141039977458622, 1.5711817204782423, 1.5568880851199678,-0.6953918457364038, -0.05014420629179155, -0.09507045571576789, 0.1463076066740126, -0.0009039383877807166, -0.6953205124497577,1.0,-8750.266501724913, -2834.002911870455, 21551.78782643574, -76.63336472962195, 221.0692839828796, 38.324023816774144,1.0,801
15542.804999999998,1.556115360446752, -1.2499726936336364, -1.650741290949986, -1.8138102296238658, 1.5711799054784032, 1.5554919649470542,-0.6953918457364038, -0.05014420629179155, -0.09507045571576789, 0.1463076066740126, -0.0009039383877807166, -0.6953205124497577,1.0,-8749.358148070842, -2834.285495635103, 21551.458241422883, -76.62581483068846, 221.1093175945653, 38.32344621846414,1.0,801
15542.813,1.5547190970451563, -1.2500733771841794, -1.6509321810196678, -1.8135164615018686, 1.571178090478564, 1.5540958447741406,-0.6953918457364038, -0.05014420629179155, -0.09507045571576789, 0.1463076066740126, -0.0009039383877807166, -0.6953205124497577,1.0,-8749.481476936448, -2831.813832275394, 21551.240312642873, -76.71344421866661, 221.11632511154386, 38.32929238128574,1.0,801
15542.821,1.553322833643561, -1.2501740607347216, -1.6511230710893496, -1.8132226933798714, 1.5711762754787248, 1.552699724601227,-0.6953918457364038, -0.05014420629179155, -0.09507045571576789, 0.1463076066740126, -0.0009039383877807166, -0.6953205124497577,1.0,-8749.946467596717, -2832.3547507644134, 21551.25951794784, -76.68885029126909, 221.0895566184842, 38.3268944079573,1.0,801
15542.829,1.5519265702419656, -1.2502747442852646, -1.6513139611590315, -1.812928925257875, 1.5711744604788858, 1.5513036044283135,-0.6953918457364038, -0.05014420629179155, -0.09507045571576789, 0.1463076066740126, -0.0009039383877807166, -0.6953205124497577,1.0,-8750.8465893326, -2834.1447592030036, 21551.792192027508, -76.62051384922128, 221.0361777683243, 38.31992795886478,1.0,801
15542.837,1.55053030684037, -1.2503754278358077, -1.6515048512287134, -1.8126351571358779, 1.5711726454790467, 1.5499074842554,-0.6953918457364038, -0.05014420629179155, -0.09507045571576789, 0.1463076066740126, -0.0009039383877807166, -0.6953205124497577,1.0,-8750.1695871244, -2835.2915893738536, 21551.58446792184, -76.59149063068898, 221.0704279652067, 38.32765393098782,1.0,801
15542.845,1.5491340434387746, -1.2504761113863507, -1.6516957412983952, -1.8123413890138806, 1.5711708304792074, 1.5485113640824864,-0.6953918457364038, -0.05014420629179155, -0.09507045571576789, 0.1463076066740126, -0.0009039383877807166, -0.6953205124497577,1.0,-8749.61890828292, -2832.579399919833, 21551.253521583858, -76.69604851051335, 221.09626866892705, 38.32302738521514,1.0,801
15542.853,1.547737780037179, -1.2505767949368938, -1.651886631368078, -1.8120476208918843, 1.5711690154793683, 1.5471152439095728,-0.6953918457364038, -0.05014420629179155, -0.09507045571576789, 0.1463076066740126, -0.0009039383877807166, -0.6953205124497577,1.0,-8749.204458153266, -2831.596287681724, 21551.301451950676, -76.71632980256959, 221.11757258541036, 38.333085313051015,1.0,801
15542.860999999999,1.5463415166355836, -1.250677478487436, -1.6520775214377599, -1.811753852769887, 1.5711672004795292, 1.5457191237366592,-0.6953918457364038, -0.05014420629179155, -0.09507045571576789, 0.1463076066740126, -0.0009039383877807166, -0.6953205124497577,1.0,-8749.310325073351, -2833.323191692967, 21551.347844122032, -76.67355168212669, 221.0950936022611, 38.3285030965211,1.0,801
15542.868999999999,1.5449452532339882, -1.250778162037979, -1.6522684115074417, -1.8114600846478908, 1.57116538547969, 1.5443230035637456,-0.6953918457364038, -0.05014420629179155, -0.09507045571576789, 0.1463076066740126, -0.0009039383877807166, -0.6953205124497577,1.0,-8750.112868698288, -2834.8364242970047, 21551.87313656892, -76.60319207247395, 221.0432932415353, 38.31956738394294,1.0,801
15542.876999999999,1.5435489898323926, -1.250878845588522, -1.6524593015771236, -1.8111663165258935, 1.5711635704798508, 1.542926883390832,-0.6953918457364038, -0.05014420629179155, -0.09507045571576789, 0.1463076066740126, -0.0009039383877807166, -0.6953205124497577,1.0,-8750.395892548833, -2833.4535912739257, 21551.640089535627, -76.63580857113661, 221.06128899905366, 38.33051361072438,1.0,801
15542.884999999998,1.5421527264307973, -1.250979529139065, -1.6526501916468064, -1.8108725484038963, 1.5711617554800117, 1.5415307632179185,-0.6953918457364038, -0.05014420629179155, -0.09507045571576789, 0.1463076066740126, -0.0009039383877807166, -0.6953205124497577,1.0,-8749.149758278163, -2832.6958426608844, 21551.291933571927, -76.68553301976408, 221.10304067478012, 38.32329834091229,1.0,801
15542.893,1.5407564630292017, -1.2510802126896081, -1.6528410817164882, -1.8105787802818991, 1.5711599404801726, 1.540134643045005,-0.6953918457364038, -0.05014420629179155, -0.09507045571576789, 0.1463076066740126, -0.0009039383877807166, -0.6953205124497577,1.0,-8748.693513660564, -2833.362343414964, 21551.31108610682, -76.67255994870683, 221.12256746042033, 38.33805154230109,1.0,801
15542.901,1.5393601996276063, -1.2511808962401503, -1.6530319717861701, -1.8102850121599028, 1.5711581254803335, 1.5387385228720913,-0.6953918457364038, -0.05014420629179155, -0.09507045571576789, 0.1463076066740126, -0.0009039383877807166, -0.6953205124497577,1.0,-8749.434650130119, -2832.7734207617823, 21551.611422674083, -76.69580575169331, 221.10292911527523, 38.33394435064122,1.0,801
15542.909,1.537963936226011, -1.2512815797906933, -1.653222861855852, -1.8099912440379056, 1.5711563104804942, 1.5373424026991778,-0.6953918457364038, -0.05014420629179155, -0.09507045571576789, 0.1463076066740126, -0.0009039383877807166, -0.6953205124497577,1.0,-8750.376543971986, -2833.7929837709316, 21551.781111019693, -76.63415065395301, 221.04664545931166, 38.326024312147354,1.0,801
15542.917,1.5365676728244153, -1.2513822633412364, -1.6534137519255339, -1.8096974759159092, 1.5711544954806551, 1.5359462825262642,-0.6953918457364038, -0.05014420629179155, -0.09507045571576789, 0.1463076066740126, -0.0009039383877807166, -0.6953205124497577,1.0,-8750.431711414016, -2834.317258611847, 21551.74447696677, -76.61868747063596, 221.06397366149605, 38.33402753620828,1.0,801
15542.925,1.53517140942282, -1.2514829468917785, -1.6536046419952157, -1.809403707793912, 1.571152680480816, 1.5345501623533506,-0.6953918457364038, -0.05014420629179155, -0.09507045571576789, 0.1463076066740126, -0.0009039383877807166, -0.6953205124497577,1.0,-8749.439617207448, -2833.55686652083, 21551.038621312782, -76.66334351931712, 221.08859843043734, 38.331429812830976,1.0,801
15542.932999999999,1.5337751460212246, -1.2515836304423216, -1.6537955320648976, -1.8091099396719148, 1.571150865480977, 1.533154042180437,-0.6953918457364038, -0.05014420629179155, -0.09507045571576789, 0.1463076066740126, -0.0009039383877807166, -0.6953205124497577,1.0,-8749.579622317924, -2831.889927858625, 21550.90748940867, -76.72408347293074, 221.0923288365559, 38.33758792601671,1.0,801
15542.940999999999,1.532378882619629, -1.2516843139928646, -1.6539864221345795, -1.8088161715499176, 1.5711490504811376, 1.5317579220075235,-0.6953918457364038, -0.05014420629179155, -0.09507045571576789, 0.1463076066740126, -0.0009039383877807166, -0.6953205124497577,1.0,-8749.975248323079, -2832.59726028185, 21551.260737086086, -76.67849614724923, 221.09519335671513, 38.335218822027144,1.0,801
15542.948999999999,1.5309826192180336, -1.2517849975434077, -1.6541773122042622, -1.8085224034279213, 1.5711472354812985, 1.53036180183461,-0.6953918457364038, -0.05014420629179155, -0.09507045571576789, 0.1463076066740126, -0.0009039383877807166, -0.6953205124497577,1.0,-8750.048660256094, -2835.1329459259578, 21552.01807176817, -76.59843972402476, 221.06636216698445, 38.330356508905766,1.0,801
15542.956999999999,1.529586355816438, -1.2518856810939507, -1.654368202273944, -1.808228635305924, 1.5711454204814594, 1.5289656816616963,-0.6953918457364038, -0.05014420629179155, -0.09507045571576789, 0.1463076066740126, -0.0009039383877807166, -0.6953205124497577,1.0,-8749.971033778997, -2834.05057122151, 21551.76700739636, -76.62602174657877, 221.07467082464632, 38.33858979066497,1.0,801
15542.965,1.5281900924148426, -1.2519863646444929, -1.654559092343626, -1.8079348671839277, 1.5711436054816204, 1.5275695614887828,-0.6953918457364038, -0.05014420629179155, -0.09507045571576789, 0.1463076066740126, -0.0009039383877807166, -0.6953205124497577,1.0,-8749.455487233387, -2832.428931911978, 21551.2884188882, -76.7147357942093, 221.09540106487822, 38.32542558707266,1.0,801
15542.973,1.5267938290132472, -1.252087048195036, -1.6547499824133078, -1.8076410990619305, 1.571141790481781, 1.5261734413158692,-0.6953918457364038, -0.05014420629179155, -0.09507045571576789, 0.1463076066740126, -0.0009039383877807166, -0.6953205124497577,1.0,-8749.728903007222, -2832.1473520398804, 21551.209274842622, -76.70270928558375, 221.11201642948544, 38.33597029713869,1.0,801
15542.981,1.5253975656116516, -1.252187731745579, -1.6549408724829906, -1.8073473309399333, 1.571139975481942, 1.5247773211429556,-0.6953918457364038, -0.05014420629179155, -0.09507045571576789, 0.1463076066740126, -0.0009039383877807166, -0.6953205124497577,1.0,-8749.42051742795, -2833.9834227306465, 21551.473754915587, -76.6509595872871, 221.1237457653832, 38.326643117699035,1.0,801
15542.989,1.5240013022100563, -1.252288415296122, -1.6551317625526725, -1.807053562817936, 1.5711381604821029, 1.523381200970042,-0.6953918457364038, -0.05014420629179155, -0.09507045571576789, 0.1463076066740126, -0.0009039383877807166, -0.6953205124497577,1.0,-8750.340255721987, -2834.0592872283887, 21551.981159629482, -76.61664079116588, 221.07003041553668, 38.33089586998551,1.0,801
15542.997,1.5226050388084607, -1.252389098846665, -1.6553226526223543, -1.8067597946959397, 1.5711363454822638, 1.5219850807971285,-0.6953918457364038, -0.05014420629179155, -0.09507045571576789, 0.1463076066740126, -0.0009039383877807166, -0.6953205124497577,1.0,-8750.851601241147, -2832.881252571203, 21551.766831689853, -76.66088505755474, 221.06977416602479, 38.32795924196819,1.0,801
15543.005,1.5212087754068653, -1.2524897823972072, -1.6555135426920362, -1.8064660265739425, 1.5711345304824245, 1.520588960624215,-0.6953918457364038, -0.05014420629179155, -0.09507045571576789, 0.1463076066740126, -0.0009039383877807166, -0.6953205124497577,1.0,-8749.779835037749, -2832.552026158807, 21551.124394729504, -76.68166887021431, 221.0968374400273, 38.33055327753806,1.0,801
15543.012999999999,1.51981251200527, -1.2525904659477503, -1.655704432761718, -1.8061722584519462, 1.5711327154825854, 1.5191928404513013,-0.6953918457364038, -0.05014420629179155, -0.09507045571576789, 0.1463076066740126, -0.0009039383877807166, -0.6953205124497577,1.0,-8749.261545629424, -2833.4369855541645, 21551.043544810957, -76.66179050349413, 221.1114918280552, 38.34350704085506,1.0,801
15543.020999999999,1.5184162486036743, -1.2526911494982933, -1.6558953228314, -1.805878490329949, 1.5711309004827463, 1.5177967202783877,-0.6953918457364038, -0.05014420629179155, -0.09507045571576789, 0.1463076066740126, -0.0009039383877807166, -0.6953205124497577,1.0,-8750.094554776731, -2833.028996934563, 21551.418345721355, -76.67418422219438, 221.09127022323065, 38.32867867106043,1.0,801
15543.028999999999,1.517019985202079, -1.2527918330488355, -1.6560862129010818, -1.8055847222079517, 1.571129085482907, 1.5164006001054742,-0.6953918457364038, -0.05014420629179155, -0.09507045571576789, 0.1463076066740126, -0.0009039383877807166, -0.6953205124497577,1.0,-8750.848014959933, -2833.2224914187145, 21552.08942122988, -76.64412567830612, 221.03749457845248, 38.325753931731725,1.0,801
15543.036999999998,1.5156237218004835, -1.2528925165993785, -1.6562771029707637, -1.8052909540859554, 1.5711272704830679, 1.5150044799325606,-0.6953918457364038, -0.05014420629179155, -0.09507045571576789, 0.1463076066740126, -0.0009039383877807166, -0.6953205124497577,1.0,-8750.447555224524, -2833.870323860039, 21551.695465561035, -76.65135416142371, 221.0750335721304, 38.32845370881512,1.0,801
15543.045,1.514227458398888, -1.2529932001499215, -1.6564679930404465, -1.8049971859639582, 1.5711254554832288, 1.513608359759647,-0.6953918457364038, -0.05014420629179155, -0.09507045571576789, 0.1463076066740126, -0.0009039383877807166, -0.6953205124497577,1.0,-8748.992828649396, -2833.9839650733647, 21551.247642558053, -76.64631167641735, 221.13676947333124, 38.322866277243634,1.0,801
15543.053,1.5128311949972926, -1.2530938837004646, -1.6566588831101283, -1.8047034178419619, 1.5711236404833897, 1.5122122395867335,-0.6953918457364038, -0.05014420629179155, -0.09507045571576789, 0.1463076066740126, -0.0009039383877807166, -0.6953205124497577,1.0,-8749.617732037143, -2832.026586605668, 21551.512001591273, -76.70861664545609, 221.1005851431301, 38.3455466371895,1.0,801
15543.061,1.511434931595697, -1.2531945672510076, -1.6568497731798102, -1.8044096497199646, 1.5711218254835504, 1.5108161194138199,-0.6953918457364038, -0.05014420629179155, -0.09507045571576789, 0.1463076066740126, -0.0009039383877807166, -0.6953205124497577,1.0,-8749.664892108369, -2833.0178580606234, 21551.746978794174, -76.67047194269406, 221.09875425991333, 38.327465642647866,1.0,801
15543.069,1.5100386681941016, -1.2532952508015498, -1.657040663249492, -1.8041158815979674, 1.5711200104837113, 1.5094199992409063,-0.6953918457364038, -0.05014420629179155, -0.09507045571576789, 0.1463076066740126, -0.0009039383877807166, -0.6953205124497577,1.0,-8750.567176167886, -2834.309598774318, 21552.18411829399, -76.61854213179856, 221.04681946601823, 38.32795649375535,1.0,801
15543.077,1.5086424047925062, -1.2533959343520928, -1.657231553319174, -1.8038221134759702, 1.5711181954838722, 1.5080238790679927,-0.6953918457364038, -0.05014420629179155, -0.09507045571576789, 0.1463076066740126, -0.0009039383877807166, -0.6953205124497577,1.0,-8750.014542101797, -2834.4502532325287, 21551.663152876536, -76.62653738265229, 221.08567875883904, 38.33410636876883,1.0,801
15543.085,1.5072461413909106, -1.253496617902636, -1.6574224433888567, -1.8035283453539739, 1.5711163804840331, 1.5066277588950792,-0.6953918457364038, -0.05014420629179155, -0.09507045571576789, 0.1463076066740126, -0.0009039383877807166, -0.6953205124497577,1.0,-8749.36744085951, -2832.6506417798964, 21551.352537127248, -76.69765835606398, 221.1079510645621, 38.34216111724737,1.0,801
15543.092999999999,1.5058498779893152, -1.253597301453179, -1.6576133334585386, -1.8032345772319767, 1.5711145654841938, 1.5052316387221656,-0.6953918457364038, -0.05014420629179155, -0.09507045571576789, 0.1463076066740126, -0.0009039383877807166, -0.6953205124497577,1.0,-8749.337484656904, -2832.669801500546, 21551.681477030852, -76.71416659413208, 221.114016845143, 38.34643282016029,1.0,801
15543.100999999999,1.5044536145877196, -1.253697985003722, -1.6578042235282204, -1.8029408091099803, 1.5711127504843547, 1.503835518549252,-0.6953918457364038, -0.05014420629179155, -0.09507045571576789, 0.1463076066740126, -0.0009039383877807166, -0.6953205124497577,1.0,-8749.024364011964, -2834.095205145987, 21551.47275400515, -76.63825960563918, 221.09399805003767, 38.33724099424373,1.0,801
15543.108999999999,1.5030573511861243, -1.2537986685542641, -1.6579951135979023, -1.8026470409879831, 1.5711109354845156, 1.5024393983763384,-0.6953918457364038, -0.05014420629179155, -0.09507045571576789, 0.1463076066740126, -0.0009039383877807166, -0.6953205124497577,1.0,-8750.701515523315, -2833.5338332324545, 21551.909999861688, -76.6467458165082, 221.0279857165952, 38.333899801601916,1.0,801
15543.117,1.501661087784529, -1.2538993521048072, -1.6581860036675842, -1.802353272865986, 1.5711091204846765, 1.5010432782034249,-0.6953918457364038, -0.05014420629179155, -0.09507045571576789, 0.1463076066740126, -0.0009039383877807166, -0.6953205124497577,1.0,-8750.097521862182, -2833.46044558189, 21551.46466775704, -76.64937813464647, 221.04155987386173, 38.33287906771514,1.0,801
15543.125,1.5002648243829333, -1.2540000356553502, -1.658376893737266, -1.8020595047439887, 1.5711073054848372, 1.4996471580305113,-0.6953918457364038, -0.05014420629179155, -0.09507045571576789, 0.1463076066740126, -0.0009039383877807166, -0.6953205124497577,1.0,-8749.614461930358, -2833.310610958384, 21551.212920792124, -76.67128937345996, 221.0948155452233, 38.32771744033076,1.0,801
15543.133,1.498868560981338, -1.2541007192058924, -1.658567783806948, -1.8017657366219924, 1.5711054904849981, 1.4982510378575977,-0.6953918457364038, -0.05014420629179155, -0.09507045571576789, 0.1463076066740126, -0.0009039383877807166, -0.6953205124497577,1.0,-8749.011285399092, -2832.8944817554056, 21551.289839640624, -76.669489865689, 221.12605779093536, 38.34767284108082,1.0,801
15543.141,1.4974722975797423, -1.2542014027564354, -1.6587586738766307, -1.8014719684999951, 1.571103675485159, 1.4968549176846841,-0.6953918457364038, -0.05014420629179155, -0.09507045571576789, 0.1463076066740126, -0.0009039383877807166, -0.6953205124497577,1.0,-8750.236948530095, -2832.056359193318, 21551.64625607656, -76.69086107612134, 221.0789043223362, 38.334470759170955,1.0,801
15543.149,1.496076034178147, -1.2543020863069785, -1.6589495639463125, -1.8011782003779988, 1.57110186048532, 1.4954587975117706,-0.6953918457364038, -0.05014420629179155, -0.09507045571576789, 0.1463076066740126, -0.0009039383877807166, -0.6953205124497577,1.0,-8750.743551813286, -2833.5313643912687, 21552.16022299265, -76.64227337942094, 221.07039121976175, 38.32842821131615,1.0,801
15543.157,1.4946797707765516, -1.2544027698575215, -1.6591404540159944, -1.8008844322560016, 1.5711000454854807, 1.494062677338857,-0.6953918457364038, -0.05014420629179155, -0.09507045571576789, 0.1463076066740126, -0.0009039383877807166, -0.6953205124497577,1.0,-8750.313992655496, -2834.5855766108434, 21551.74833438018, -76.61309957258533, 221.07193837544372, 38.33044748545254,1.0,801
15543.164999999999,1.493283507374956, -1.2545034534080646, -1.6593313440856763, -1.8005906641340044, 1.5710982304856416, 1.4926665571659434,-0.6953918457364038, -0.05014420629179155, -0.09507045571576789, 0.1463076066740126, -0.0009039383877807166, -0.6953205124497577,1.0,-8749.48521558343, -2833.7410515176816, 21551.482855386992, -76.66056558739066, 221.12170432010805, 38.32983717773121,1.0,801
15543.172999999999,1.4918872439733606, -1.2546041369586067, -1.6595222341553582, -1.8002968960120072, 1.5710964154858025, 1.4912704369930299,-0.6953918457364038, -0.05014420629179155, -0.09507045571576789, 0.1463076066740126, -0.0009039383877807166, -0.6953205124497577,1.0,-8749.394770416728, -2831.7558623624327, 21551.582077536004, -76.71698485499437, 221.12126161066556, 38.343298393002044,1.0,801
15543.180999999999,1.490490980571765, -1.2547048205091498, -1.659713124225041, -1.8000031278900108, 1.5710946004859634, 1.489874316820116,-0.6953918457364038, -0.05014420629179155, -0.09507045571576789, 0.1463076066740126, -0.0009039383877807166, -0.6953205124497577,1.0,-8749.753883607751, -2832.7185588780794, 21551.627933757256, -76.6842583708823, 221.09615061614824, 38.32857862317786,1.0,801
15543.188999999998,1.4890947171701696, -1.2548055040596928, -1.6599040142947228, -1.7997093597680136, 1.571092785486124, 1.4884781966472025,-0.6953918457364038, -0.05014420629179155, -0.09507045571576789, 0.1463076066740126, -0.0009039383877807166, -0.6953205124497577,1.0,-8750.248039783546, -2834.969677967464, 21552.041690061837, -76.6002978231347, 221.0579718259953, 38.327740142908425,1.0,801
15543.197,1.4876984537685742, -1.2549061876102359, -1.6600949043644047, -1.7994155916460173, 1.571090970486285, 1.487082076474289,-0.6953918457364038, -0.05014420629179155, -0.09507045571576789, 0.1463076066740126, -0.0009039383877807166, -0.6953205124497577,1.0,-8750.109697613127, -2834.7051411887396, 21551.55712600525, -76.6170124085669, 221.0656783863668, 38.33122969013576,1.0,801
15543.205,1.4863021903669786, -1.255006871160779, -1.6602857944340865, -1.79912182352402, 1.571089155486446, 1.4856859563013753,-0.6953918457364038, -0.05014420629179155, -0.09507045571576789, 0.1463076066740126, -0.0009039383877807166, -0.6953205124497577,1.0,-8750.041567234099, -2831.6875753745353, 21550.950698899203, -76.71116237827042, 221.09492664506058, 38.33362894624523,1.0,801
15543.213,1.4849059269653833, -1.255107554711321, -1.6604766845037684, -1.7988280554020228, 1.5710873404866068, 1.4842898361284618,-0.6953918457364038, -0.05014420629179155, -0.09507045571576789, 0.1463076066740126, -0.0009039383877807166, -0.6953205124497577,1.0,-8749.34345075497, -2832.334044995161, 21551.232313199907, -76.71149548804794, 221.08854809503288, 38.343132782135285,1.0,801
15543.221,1.4835096635637877, -1.2552082382618641, -1.6606675745734503, -1.7985342872800265, 1.5710855254867675, 1.4828937159555482,-0.6953918457364038, -0.05014420629179155, -0.09507045571576789, 0.1463076066740126, -0.0009039383877807166, -0.6953205124497577,1.0,-8749.608075808197, -2833.9615602447802, 21551.299100180968, -76.6542387637673, 221.08312176060872, 38.335871929044856,1.0,801
15543.229,1.4821134001621923, -1.2553089218124072, -1.6608584646431321, -1.7982405191580293, 1.5710837104869284, 1.4814975957826346,-0.6953918457364038, -0.05014420629179155, -0.09507045571576789, 0.1463076066740126, -0.0009039383877807166, -0.6953205124497577,1.0,-8749.857711270039, -2834.781780287175, 21551.929958722732, -76.61120590962452, 221.06599274066167, 38.334511358184926,1.0,801
15543.237,1.480717136760597, -1.2554096053629493, -1.661049354712815, -1.797946751036032, 1.5710818954870893, 1.480101475609721,-0.6953918457364038, -0.05014420629179155, -0.09507045571576789, 0.1463076066740126, -0.0009039383877807166, -0.6953205124497577,1.0,-8750.196596141632, -2833.132148870709, 21551.872768628957, -76.66152443914612, 221.05823615903319, 38.33360637153322,1.0,801
15543.244999999999,1.4793208733590013, -1.2555102889134924, -1.6612402447824968, -1.7976529829140357, 1.5710800804872502, 1.4787053554368075,-0.6953918457364038, -0.05014420629179155, -0.09507045571576789, 0.1463076066740126, -0.0009039383877807166, -0.6953205124497577,1.0,-8749.280121317828, -2833.1896952389006, 21551.437216850456, -76.67996281955567, 221.10188719846343, 38.335054350407916,1.0,801
15543.252999999999,1.477924609957406, -1.2556109724640354, -1.6614311348521786, -1.7973592147920385, 1.571078265487411, 1.477309235263894,-0.6953918457364038, -0.05014420629179155, -0.09507045571576789, 0.1463076066740126, -0.0009039383877807166, -0.6953205124497577,1.0,-8748.946009076568, -2833.073615864805, 21551.30639894664, -76.67616015192314, 221.09725405133037, 38.346939155148476,1.0,801
15543.260999999999,1.4765283465558103, -1.2557116560145785, -1.6616220249218605, -1.7970654466700413, 1.5710764504875718, 1.4759131150909803,-0.6953918457364038, -0.05014420629179155, -0.09507045571576789, 0.1463076066740126, -0.0009039383877807166, -0.6953205124497577,1.0,-8749.215490488914, -2832.6178045624674, 21551.29228312744, -76.66989001993184, 221.08396825238276, 38.33835417885328,1.0,801
15543.268999999998,1.475132083154215, -1.2558123395651215, -1.6618129149915424, -1.796771678548045, 1.5710746354877327, 1.4745169949180668,-0.6953918457364038, -0.05014420629179155, -0.09507045571576789, 0.1463076066740126, -0.0009039383877807166, -0.6953205124497577,1.0,-8750.375632918951, -2833.7015588287595, 21552.045541231644, -76.63122712763473, 221.05562773977033, 38.340169365007256,1.0,801
15543.277,1.4737358197526196, -1.2559130231156637, -1.6620038050612251, -1.7964779104260478, 1.5710728204878934, 1.4731208747451532,-0.6953918457364038, -0.05014420629179155, -0.09507045571576789, 0.1463076066740126, -0.0009039383877807166, -0.6953205124497577,1.0,-8749.72457995947, -2834.7166065046367, 21551.821951443733, -76.6191384739891, 221.1033555944685, 38.33403970025299,1.0,801
15543.285,1.472339556351024, -1.2560137066662067, -1.662194695130907, -1.7961841423040514, 1.5710710054880543, 1.4717247545722396,-0.6953918457364038, -0.05014420629179155, -0.09507045571576789, 0.1463076066740126, -0.0009039383877807166, -0.6953205124497577,1.0,-8749.683242616997, -2832.6511376706794, 21551.39893958279, -76.685489410217, 221.09915521727828, 38.33354650305654,1.0,801
15543.293,1.4709432929494286, -1.2561143902167498, -1.6623855852005889, -1.7958903741820542, 1.5710691904882153, 1.470328634399326,-0.6953918457364038, -0.05014420629179155, -0.09507045571576789, 0.1463076066740126, -0.0009039383877807166, -0.6953205124497577,1.0,-8749.742193705168, -2832.1071477403257, 21551.405073191854, -76.71710131927631, 221.08918649374408, 38.35650285767747,1.0,801
15543.301,1.469547029547833, -1.2562150737672928, -1.6625764752702707, -1.795596606060057, 1.5710673754883762, 1.4689325142264125,-0.6953918457364038, -0.05014420629179155, -0.09507045571576789, 0.1463076066740126, -0.0009039383877807166, -0.6953205124497577,1.0,-8750.15384982844, -2833.2901499619165, 21551.354540987322, -76.67958879409707, 221.0727182417574, 38.34090879861594,1.0,801
15543.309,1.4681507661462376, -1.2563157573178358, -1.6627673653399526, -1.7953028379380598, 1.5710655604885368, 1.467536394053499,-0.6953918457364038, -0.05014420629179155, -0.09507045571576789, 0.1463076066740126, -0.0009039383877807166, -0.6953205124497577,1.0,-8750.101378831358, -2835.6139815887136, 21551.993181823775, -76.5917543616062, 221.07095443304354, 38.339910647241,1.0,801
15543.317,1.4667545027446423, -1.256416440868378, -1.6629582554096345, -1.7950090698160635, 1.5710637454886978, 1.4661402738805853,-0.6953918457364038, -0.05014420629179155, -0.09507045571576789, 0.1463076066740126, -0.0009039383877807166, -0.6953205124497577,1.0,-8750.530646570862, -2833.493460607012, 21551.630071779655, -76.6529153566469, 221.05427041486269, 38.33575062808677,1.0,801
15543.324999999999,1.4653582393430467, -1.256517124418921, -1.6631491454793164, -1.7947153016940662, 1.5710619304888587, 1.4647441537076717,-0.6953918457364038, -0.05014420629179155, -0.09507045571576789, 0.1463076066740126, -0.0009039383877807166, -0.6953205124497577,1.0,-8750.146786387755, -2832.099732725447, 21551.42252842611, -76.71704238625495, 221.10776164427006, 38.33832336497068,1.0,801
15543.332999999999,1.4639619759414513, -1.256617807969464, -1.6633400355489991, -1.79442153357207, 1.5710601154890196, 1.4633480335347582,-0.6953918457364038, -0.05014420629179155, -0.09507045571576789, 0.1463076066740126, -0.0009039383877807166, -0.6953205124497577,1.0,-8749.264150681509, -2833.397606947843, 21551.449791701696, -76.69523994044036, 221.11586630765197, 38.34374196932117,1.0,801
15543.340999999999,1.4625657125398557, -1.2567184915200063, -1.663530925618681, -1.7941277654500727, 1.5710583004891803, 1.4619519133618446,-0.6953918457364038, -0.05014420629179155, -0.09507045571576789, 0.1463076066740126, -0.0009039383877807166, -0.6953205124497577,1.0,-8748.896548124883, -2833.8797545159086, 21551.457023317787, -76.65165413025602, 221.12324773855318, 38.335698054916435,1.0,801
15543.349,1.4611694491382603, -1.2568191750705493, -1.6637218156883629, -1.7938339973280755, 1.5710564854893412, 1.460555793188931,-0.6953918457364038, -0.05014420629179155, -0.09507045571576789, 0.1463076066740126, -0.0009039383877807166, -0.6953205124497577,1.0,-8750.593618870027, -2833.8328514178957, 21552.09018728931, -76.6309216785732, 221.05070682002906, 38.32887934364351,1.0,801
15543.357,1.459773185736665, -1.2569198586210923, -1.6639127057580447, -1.7935402292060783, 1.571054670489502, 1.4591596730160175,-0.6953918457364038, -0.05014420629179155, -0.09507045571576789, 0.1463076066740126, -0.0009039383877807166, -0.6953205124497577,1.0,-8750.437216632268, -2832.4879793420523, 21552.05009937613, -76.68366767373038, 221.0670053384294, 38.33126247884377,1.0,801
15543.365,1.4583769223350693, -1.2570205421716354, -1.6641035958277266, -1.793246461084082, 1.571052855489663, 1.4577635528431039,-0.6953918457364038, -0.05014420629179155, -0.09507045571576789, 0.1463076066740126, -0.0009039383877807166, -0.6953205124497577,1.0,-8749.162639505399, -2833.850560528873, 21551.422570930208, -76.65252629622674, 221.119461756495, 38.32724860638223,1.0,801
15543.373,1.456980658933474, -1.2571212257221784, -1.6642944858974094, -1.7929526929620847, 1.5710510404898237, 1.4563674326701903,-0.6953918457364038, -0.05014420629179155, -0.09507045571576789, 0.1463076066740126, -0.0009039383877807166, -0.6953205124497577,1.0,-8749.121739822027, -2833.244299594904, 21551.416179213586, -76.67978723529257, 221.11492467421772, 38.34280686692,1.0,801
15543.381,1.4555843955318784, -1.2572219092727206, -1.6644853759670912, -1.7926589248400884, 1.5710492254899846, 1.4549713124972767,-0.6953918457364038, -0.05014420629179155, -0.09507045571576789, 0.1463076066740126, -0.0009039383877807166, -0.6953205124497577,1.0,-8749.427675562218, -2832.80162792588, 21551.480760829683, -76.67849670223242, 221.0845207214029, 38.33423273583429,1.0,801
15543.389,1.454188132130283, -1.2573225928232636, -1.664676266036773, -1.7923651567180912, 1.5710474104901455, 1.4535751923243632,-0.6953918457364038, -0.05014420629179155, -0.09507045571576789, 0.1463076066740126, -0.0009039383877807166, -0.6953205124497577,1.0,-8751.130401692179, -2832.992657700105, 21551.9318224706, -76.65914011834371, 221.0290462746686, 38.339339870745846,1.0,801
15543.396999999999,1.4527918687286876, -1.2574232763738067, -1.664867156106455, -1.792071388596094, 1.5710455954903064, 1.4521790721514496,-0.6953918457364038, -0.05014420629179155, -0.09507045571576789, 0.1463076066740126, -0.0009039383877807166, -0.6953205124497577,1.0,-8750.1797184047, -2834.8572941971697, 21551.388364941555, -76.6117854075492, 221.0758032130547, 38.32380236247235,1.0,801
15543.404999999999,1.451395605327092, -1.2575239599243497, -1.6650580461761368, -1.7917776204740976, 1.5710437804904671, 1.450782951978536,-0.6953918457364038, -0.05014420629179155, -0.09507045571576789, 0.1463076066740126, -0.0009039383877807166, -0.6953205124497577,1.0,-8749.69416191414, -2833.350253289499, 21551.10932603429, -76.65723995217354, 221.10054285554241, 38.3302859411109,1.0,801
15543.412999999999,1.4499993419254966, -1.2576246434748928, -1.6652489362458187, -1.7914838523521004, 1.571041965490628, 1.4493868318056224,-0.6953918457364038, -0.05014420629179155, -0.09507045571576789, 0.1463076066740126, -0.0009039383877807166, -0.6953205124497577,1.0,-8749.411057385718, -2831.826393839783, 21551.42276580815, -76.71259775566574, 221.09997293796903, 38.335496724159725,1.0,801
15543.420999999998,1.448603078523901, -1.257725327025435, -1.6654398263155006, -1.7911900842301032, 1.571040150490789, 1.4479907116327089,-0.6953918457364038, -0.05014420629179155, -0.09507045571576789, 0.1463076066740126, -0.0009039383877807166, -0.6953205124497577,1.0,-8748.965654886722, -2832.9105975189686, 21551.37673136111, -76.68740216107147, 221.10908301699624, 38.336563432971076,1.0,801
15543.429,1.4472068151223056, -1.257826010575978, -1.6656307163851833, -1.7908963161081068, 1.5710383354909498, 1.4465945914597953,-0.6953918457364038, -0.05014420629179155, -0.09507045571576789, 0.1463076066740126, -0.0009039383877807166, -0.6953205124497577,1.0,-8750.058718802706, -2834.2485987660375, 21551.82154689107, -76.61668906937129, 221.0587963939638, 38.337529769877676,1.0,801
15543.437,1.4458105517207103, -1.257926694126521, -1.6658216064548652, -1.7906025479861096, 1.5710365204911105, 1.4451984712868817,-0.6953918457364038, -0.05014420629179155, -0.09507045571576789, 0.1463076066740126, -0.0009039383877807166, -0.6953205124497577,1.0,-8750.409897655363, -2834.360943766619, 21551.59721176051, -76.62554110722277, 221.06832394759465, 38.33603936819813,1.0,801
15543.445,1.4444142883191147, -1.2580273776770632, -1.666012496524547, -1.7903087798641124, 1.5710347054912714, 1.4438023511139682,-0.6953918457364038, -0.05014420629179155, -0.09507045571576789, 0.1463076066740126, -0.0009039383877807166, -0.6953205124497577,1.0,-8749.501731694043, -2832.4982619081065, 21551.359502754553, -76.69444109343075, 221.08685761539215, 38.3343303766035,1.0,801
15543.453,1.4430180249175193, -1.2581280612276062, -1.666203386594229, -1.790015011742116, 1.5710328904914324, 1.4424062309410546,-0.6953918457364038, -0.05014420629179155, -0.09507045571576789, 0.1463076066740126, -0.0009039383877807166, -0.6953205124497577,1.0,-8748.364303663579, -2832.808498600579, 21551.295379150146, -76.68188422963016, 221.11577689704927, 38.34608964547817,1.0,801
15543.461,1.4416217615159237, -1.2582287447781493, -1.6663942766639108, -1.7897212436201189, 1.5710310754915933, 1.4410101107681408,-0.6953918457364038, -0.05014420629179155, -0.09507045571576789, 0.1463076066740126, -0.0009039383877807166, -0.6953205124497577,1.0,-8749.16193393297, -2833.1304406191757, 21551.48820388591, -76.67174653977784, 221.10346464068584, 38.3429292848337,1.0,801
15543.469,1.4402254981143283, -1.2583294283286923, -1.6665851667335936, -1.7894274754981225, 1.571029260491754, 1.4396139905952272,-0.6953918457364038, -0.05014420629179155, -0.09507045571576789, 0.1463076066740126, -0.0009039383877807166, -0.6953205124497577,1.0,-8750.175849449824, -2833.4435331924306, 21551.92724360979, -76.64644399550161, 221.04870587892987, 38.34528433800202,1.0,801
15543.476999999999,1.438829234712733, -1.2584301118792354, -1.6667760568032755, -1.7891337073761253, 1.5710274454919149, 1.4382178704223136,-0.6953918457364038, -0.05014420629179155, -0.09507045571576789, 0.1463076066740126, -0.0009039383877807166, -0.6953205124497577,1.0,-8750.469752237044, -2833.50787865681, 21551.799741573737, -76.65204641828925, 221.0461349512326, 38.328162336846844,1.0,801
15543.484999999999,1.4374329713111373, -1.2585307954297775, -1.6669669468729573, -1.788839939254128, 1.5710256304920758, 1.4368217502494,-0.6953918457364038, -0.05014420629179155, -0.09507045571576789, 0.1463076066740126, -0.0009039383877807166, -0.6953205124497577,1.0,-8749.13120022213, -2834.064023423688, 21551.223118009297, -76.64263607921384, 221.09375567324935, 38.3384452228147,1.0,801
15543.492999999999,1.436036707909542, -1.2586314789803206, -1.6671578369426392, -1.7885461711321309, 1.5710238154922367, 1.4354256300764865,-0.6953918457364038, -0.05014420629179155, -0.09507045571576789, 0.1463076066740126, -0.0009039383877807166, -0.6953205124497577,1.0,-8749.201399634632, -2832.2178731438426, 21550.877379990005, -76.70036300114478, 221.08784992954952, 38.34676705145725,1.0,801
15543.501,1.4346404445079464, -1.2587321625308636, -1.667348727012321, -1.7882524030101346, 1.5710220004923974, 1.434029509903573,-0.6953918457364038, -0.05014420629179155, -0.09507045571576789, 0.1463076066740126, -0.0009039383877807166, -0.6953205124497577,1.0,-8750.02518200806, -2832.310523233791, 21551.295967235823, -76.7068391605246, 221.07033998581477, 38.33825565122066,1.0,801
15543.509,1.433244181106351, -1.2588328460814067, -1.667539617082003, -1.7879586348881373, 1.5710201854925583, 1.4326333897306593,-0.6953918457364038, -0.05014420629179155, -0.09507045571576789, 0.1463076066740126, -0.0009039383877807166, -0.6953205124497577,1.0,-8750.276499121142, -2833.945868601697, 21551.937163954717, -76.63067455948541, 221.0592217403477, 38.33019211626703,1.0,801
15543.517,1.4318479177047556, -1.2589335296319497, -1.6677305071516848, -1.787664866766141, 1.5710183704927192, 1.4312372695577458,-0.6953918457364038, -0.05014420629179155, -0.09507045571576789, 0.1463076066740126, -0.0009039383877807166, -0.6953205124497577,1.0,-8749.535540150775, -2835.340641996864, 21551.799329191694, -76.5922867547724, 221.08378989987517, 38.31884610513342,1.0,801
15543.525,1.43045165430316, -1.2590342131824919, -1.6679213972213676, -1.7873710986441438, 1.5710165554928799, 1.4298411493848322,-0.6953918457364038, -0.05014420629179155, -0.09507045571576789, 0.1463076066740126, -0.0009039383877807166, -0.6953205124497577,1.0,-8749.353342156513, -2832.858861906735, 21551.321665534244, -76.67908163756283, 221.10178553575685, 38.33999113601314,1.0,801
15543.533,1.4290553909015646, -1.259134896733035, -1.6681122872910494, -1.7870773305221466, 1.5710147404930408, 1.4284450292119186,-0.6953918457364038, -0.05014420629179155, -0.09507045571576789, 0.1463076066740126, -0.0009039383877807166, -0.6953205124497577,1.0,-8749.315861683446, -2831.5067895028487, 21551.095969386995, -76.71376159430295, 221.09694941192646, 38.33731458801287,1.0,801
15543.541,1.427659127499969, -1.259235580283578, -1.6683031773607313, -1.7867835624001493, 1.5710129254932017, 1.427048909039005,-0.6953918457364038, -0.05014420629179155, -0.09507045571576789, 0.1463076066740126, -0.0009039383877807166, -0.6953205124497577,1.0,-8749.48758767007, -2833.3244590564736, 21551.364170959492, -76.67360360436456, 221.09223964671594, 38.33706873878046,1.0,801
15543.548999999999,1.4262628640983737, -1.2593362638341201, -1.6684940674304132, -1.786489794278153, 1.5710111104933626, 1.4256527888660915,-0.6953918457364038, -0.05014420629179155, -0.09507045571576789, 0.1463076066740126, -0.0009039383877807166, -0.6953205124497577,1.0,-8749.545788996362, -2834.8413503676056, 21551.925082538706, -76.60770571469868, 221.06876059480106, 38.3347010093739,1.0,801
15543.556999999999,1.4248666006967783, -1.259436947384664, -1.668684957500095, -1.7861960261561558, 1.5710092954935233, 1.424256668693178,-0.6953918457364038, -0.05014420629179155, -0.09507045571576789, 0.1463076066740126, -0.0009039383877807166, -0.6953205124497577,1.0,-8749.942543364044, -2834.1681320277157, 21551.909855171107, -76.63461235239288, 221.08678161535073, 38.321282734304106,1.0,801
15543.564999999999,1.4234703372951827, -1.2595376309352062, -1.6688758475697778, -1.7859022580341595, 1.5710074804936842, 1.4228605485202643,-0.6953918457364038, -0.05014420629179155, -0.09507045571576789, 0.1463076066740126, -0.0009039383877807166, -0.6953205124497577,1.0,-8749.754803084357, -2831.7242835500792, 21551.238588117656, -76.72178914943137, 221.08042584693766, 38.34011659896376,1.0,801
15543.572999999999,1.4220740738935873, -1.2596383144857493, -1.6690667376394597, -1.7856084899121623, 1.5710056654938451, 1.4214644283473508,-0.6953918457364038, -0.05014420629179155, -0.09507045571576789, 0.1463076066740126, -0.0009039383877807166, -0.6953205124497577,1.0,-8749.280489665076, -2833.0416446153868, 21551.2054521985, -76.68263695076575, 221.09255765010045, 38.330068678157176,1.0,801
15543.581,1.4206778104919917, -1.2597389980362923, -1.6692576277091415, -1.785314721790165, 1.571003850494006, 1.4200683081744372,-0.6953918457364038, -0.05014420629179155, -0.09507045571576789, 0.1463076066740126, -0.0009039383877807166, -0.6953205124497577,1.0,-8749.624934883343, -2833.3120338833505, 21551.135255731624, -76.67296120310442, 221.06726592515537, 38.341400620698494,1.0,801
15543.589,1.4192815470903963, -1.2598396815868345, -1.6694485177788234, -1.7850209536681678, 1.5710020354941667, 1.4186721880015236,-0.6953918457364038, -0.05014420629179155, -0.09507045571576789, 0.1463076066740126, -0.0009039383877807166, -0.6953205124497577,1.0,-8750.029559486085, -2834.811480591843, 21551.920125707453, -76.61131014042735, 221.05398811187632, 38.33433008707482,1.0,801
15543.597,1.417885283688801, -1.2599403651373775, -1.6696394078485053, -1.7847271855461715, 1.5710002204943276, 1.41727606782861,-0.6953918457364038, -0.05014420629179155, -0.09507045571576789, 0.1463076066740126, -0.0009039383877807166, -0.6953205124497577,1.0,-8749.972003011697, -2833.1691374736592, 21551.6893456144, -76.67184708078594, 221.05817071980516, 38.323016072466686,1.0,801
15543.605,1.4164890202872054, -1.2600410486879206, -1.6698302979181872, -1.7844334174241743, 1.5709984054944885, 1.4158799476556965,-0.6953918457364038, -0.05014420629179155, -0.09507045571576789, 0.1463076066740126, -0.0009039383877807166, -0.6953205124497577,1.0,-8749.164232100718, -2833.444499771147, 21551.266424317553, -76.68251227986286, 221.1193803383868, 38.34594591831009,1.0,801
15543.613,1.41509275688561, -1.2601417322384636, -1.670021187987869, -1.784139649302178, 1.5709965904946495, 1.414483827482783,-0.6953918457364038, -0.05014420629179155, -0.09507045571576789, 0.1463076066740126, -0.0009039383877807166, -0.6953205124497577,1.0,-8749.037076384293, -2832.718679982131, 21551.46373983143, -76.69846823659469, 221.08360368656514, 38.33750370375412,1.0,801
15543.621,1.4136964934840144, -1.2602424157890066, -1.6702120780575518, -1.7838458811801807, 1.5709947754948101, 1.4130877073098693,-0.6953918457364038, -0.05014420629179155, -0.09507045571576789, 0.1463076066740126, -0.0009039383877807166, -0.6953205124497577,1.0,-8749.252108250837, -2833.4023795095127, 21551.30667816318, -76.6632229944071, 221.08814783750046, 38.34115691659596,1.0,801
15543.628999999999,1.412300230082419, -1.2603430993395488, -1.6704029681272337, -1.7835521130581835, 1.570992960494971, 1.4116915871369558,-0.6953918457364038, -0.05014420629179155, -0.09507045571576789, 0.1463076066740126, -0.0009039383877807166, -0.6953205124497577,1.0,-8750.374079481302, -2834.146164168792, 21551.984790779174, -76.6410625772968, 221.05283319743677, 38.33879879488563,1.0,801
15543.636999999999,1.4109039666808236, -1.2604437828900918, -1.6705938581969155, -1.7832583449361872, 1.570991145495132, 1.4102954669640422,-0.6953918457364038, -0.05014420629179155, -0.09507045571576789, 0.1463076066740126, -0.0009039383877807166, -0.6953205124497577,1.0,-8749.326813530242, -2834.3904401290547, 21551.807994117666, -76.62708376791042, 221.09001787639528, 38.33250122717254,1.0,801
15543.644999999999,1.409507703279228, -1.260544466440635, -1.6707847482665974, -1.78296457681419, 1.5709893304952929, 1.4088993467911286,-0.6953918457364038, -0.05014420629179155, -0.09507045571576789, 0.1463076066740126, -0.0009039383877807166, -0.6953205124497577,1.0,-8749.553002525274, -2832.215913188723, 21551.205836680383, -76.70911861374356, 221.09785708619796, 38.34528830604961,1.0,801
15543.652999999998,1.4081114398776327, -1.260645149991178, -1.6709756383362793, -1.7826708086921936, 1.5709875154954536, 1.407503226618215,-0.6953918457364038, -0.05014420629179155, -0.09507045571576789, 0.1463076066740126, -0.0009039383877807166, -0.6953205124497577,1.0,-8749.48241599975, -2832.3628894925005, 21551.43958258642, -76.695234673552, 221.08808359864628, 38.34698729021207,1.0,801
15543.661,1.406715176476037, -1.260745833541721, -1.671166528405962, -1.7823770405701964, 1.5709857004956145, 1.4061071064453015,-0.6953918457364038, -0.05014420629179155, -0.09507045571576789, 0.1463076066740126, -0.0009039383877807166, -0.6953205124497577,1.0,-8749.325026245093, -2833.6974244186913, 21551.487067162554, -76.67181523471433, 221.09276821661922, 38.346670999301665,1.0,801
15543.669,1.4053189130744417, -1.2608465170922631, -1.671357418475644, -1.7820832724481992, 1.5709838854957754, 1.4047109862723879,-0.6953918457364038, -0.05014420629179155, -0.09507045571576789, 0.1463076066740126, -0.0009039383877807166, -0.6953205124497577,1.0,-8750.046926890767, -2835.051228662035, 21551.88912981399, -76.60733135137369, 221.06316863277158, 38.34711815070219,1.0,801
15543.677,1.4039226496728463, -1.2609472006428062, -1.6715483085453258, -1.781789504326202, 1.5709820704959363, 1.4033148660994743,-0.6953918457364038, -0.05014420629179155, -0.09507045571576789, 0.1463076066740126, -0.0009039383877807166, -0.6953205124497577,1.0,-8750.674458226582, -2833.2116781385603, 21551.3804746465, -76.6789633104755, 221.0553179043991, 38.33723132068087,1.0,801
15543.685,1.4025263862712507, -1.2610478841933492, -1.6717391986150076, -1.7814957362042056, 1.570980255496097, 1.4019187459265607,-0.6953918457364038, -0.05014420629179155, -0.09507045571576789, 0.1463076066740126, -0.0009039383877807166, -0.6953205124497577,1.0,-8750.059709914867, -2832.44361253879, 21551.23035454991, -76.70382088364039, 221.07289146569065, 38.348377284011974,1.0,801
15543.693,1.4011301228696553, -1.2611485677438914, -1.6719300886846895, -1.7812019680822084, 1.570978440496258, 1.4005226257536472,-0.6953918457364038, -0.05014420629179155, -0.09507045571576789, 0.1463076066740126, -0.0009039383877807166, -0.6953205124497577,1.0,-8748.802544159324, -2834.0235351739857, 21551.42556469739, -76.66921543948689, 221.10779208181992, 38.3339892949607,1.0,801
15543.701,1.3997338594680597, -1.2612492512944344, -1.6721209787543714, -1.780908199960212, 1.5709766254964188, 1.3991265055807336,-0.6953918457364038, -0.05014420629179155, -0.09507045571576789, 0.1463076066740126, -0.0009039383877807166, -0.6953205124497577,1.0,-8749.351166866145, -2833.425633028982, 21551.518091067308, -76.67480536314619, 221.10623924812677, 38.34572876866358,1.0,801
15543.708999999999,1.3983375960664644, -1.2613499348449775, -1.6723118688240532, -1.7806144318382149, 1.5709748104965797, 1.39773038540782,-0.6953918457364038, -0.05014420629179155, -0.09507045571576789, 0.1463076066740126, -0.0009039383877807166, -0.6953205124497577,1.0,-8750.112750322913, -2833.4371628006693, 21551.955989623904, -76.64162397745281, 221.06073116280908, 38.337906963263464,1.0,801
15543.716999999999,1.396941332664869, -1.2614506183955205, -1.672502758893736, -1.7803206637162177, 1.5709729954967404, 1.3963342652349064,-0.6953918457364038, -0.05014420629179155, -0.09507045571576789, 0.1463076066740126, -0.0009039383877807166, -0.6953205124497577,1.0,-8750.256980981561, -2832.7046416834255, 21551.51515231092, -76.67878454546741, 221.05072463085912, 38.331998286999436,1.0,801
15543.724999999999,1.3955450692632734, -1.2615513019460636, -1.6726936489634179, -1.7800268955942204, 1.5709711804969013, 1.3949381450619929,-0.6953918457364038, -0.05014420629179155, -0.09507045571576789, 0.1463076066740126, -0.0009039383877807166, -0.6953205124497577,1.0,-8749.195756846071, -2834.243846634816, 21551.278284730506, -76.64009199460702, 221.11594114816785, 38.342763402184744,1.0,801
15543.733,1.394148805861678, -1.2616519854966057, -1.6728845390330997, -1.7797331274722241, 1.5709693654970622, 1.3935420248890793,-0.6953918457364038, -0.05014420629179155, -0.09507045571576789, 0.1463076066740126, -0.0009039383877807166, -0.6953205124497577,1.0,-8749.074581535117, -2832.7396546203618, 21551.287083084695, -76.68866339174403, 221.10775676441955, 38.339817929302,1.0,801
15543.741,1.3927525424600824, -1.2617526690471488, -1.6730754291027816, -1.779439359350227, 1.5709675504972231, 1.3921459047161657,-0.6953918457364038, -0.05014420629179155, -0.09507045571576789, 0.1463076066740126, -0.0009039383877807166, -0.6953205124497577,1.0,-8749.570605096013, -2832.205700661453, 21551.46151129583, -76.68388643537747, 221.09854379377794, 38.349825729421354,1.0,801
15543.749,1.391356279058487, -1.2618533525976918, -1.6732663191724635, -1.7791455912282306, 1.5709657354973838, 1.3907497845432522,-0.6953918457364038, -0.05014420629179155, -0.09507045571576789, 0.1463076066740126, -0.0009039383877807166, -0.6953205124497577,1.0,-8750.578992649067, -2833.557062958247, 21551.87690624652, -76.65279911880316, 221.04444540120363, 38.334690821446515,1.0,801
15543.757,1.3899600156568916, -1.2619540361482349, -1.6734572092421462, -1.7788518231062334, 1.5709639204975447, 1.3893536643703386,-0.6953918457364038, -0.05014420629179155, -0.09507045571576789, 0.1463076066740126, -0.0009039383877807166, -0.6953205124497577,1.0,-8750.016996339802, -2834.788506381844, 21551.348945441605, -76.61893568514537, 221.0877760269879, 38.3301947213632,1.0,801
15543.765,1.388563752255296, -1.262054719698778, -1.6736480993118281, -1.7785580549842361, 1.5709621054977057, 1.387957544197425,-0.6953918457364038, -0.05014420629179155, -0.09507045571576789, 0.1463076066740126, -0.0009039383877807166, -0.6953205124497577,1.0,-8749.629589449929, -2833.180087275082, 21551.043062406163, -76.68039054880526, 221.08477315460874, 38.34617159162195,1.0,801
15543.773,1.3871674888537007, -1.26215540324932, -1.67383898938151, -1.778264286862239, 1.5709602904978663, 1.3865614240245114,-0.6953918457364038, -0.05014420629179155, -0.09507045571576789, 0.1463076066740126, -0.0009039383877807166, -0.6953205124497577,1.0,-8749.608951174929, -2832.299189075082, 21551.217842682203, -76.71873515960857, 221.08406985791294, 38.3394931054072,1.0,801
15543.780999999999,1.385771225452105, -1.2622560867998631, -1.6740298794511919, -1.7779705187402426, 1.5709584754980273, 1.3851653038515979,-0.6953918457364038, -0.05014420629179155, -0.09507045571576789, 0.1463076066740126, -0.0009039383877807166, -0.6953205124497577,1.0,-8749.259631329418, -2833.6314502812575, 21551.576832198713, -76.6662046047536, 221.0949314826526, 38.34960860662858,1.0,801
15543.788999999999,1.3843749620505097, -1.2623567703504062, -1.6742207695208737, -1.7776767506182454, 1.5709566604981882, 1.3837691836786843,-0.6953918457364038, -0.05014420629179155, -0.09507045571576789, 0.1463076066740126, -0.0009039383877807166, -0.6953205124497577,1.0,-8750.24772179535, -2834.1062330358163, 21551.839593558292, -76.62461152496516, 221.05127097762227, 38.34456834715982,1.0,801
15543.796999999999,1.3829786986489143, -1.2624574539009483, -1.6744116595905556, -1.777382982496249, 1.570954845498349, 1.3823730635057707,-0.6953918457364038, -0.05014420629179155, -0.09507045571576789, 0.1463076066740126, -0.0009039383877807166, -0.6953205124497577,1.0,-8749.55952193261, -2834.188519382059, 21551.57742081912, -76.64132992421798, 221.08514624925192, 38.34097012184105,1.0,801
15543.804999999998,1.381582435247319, -1.2625581374514914, -1.6746025496602375, -1.7770892143742518, 1.5709530304985098, 1.3809769433328571,-0.6953918457364038, -0.05014420629179155, -0.09507045571576789, 0.1463076066740126, -0.0009039383877807166, -0.6953205124497577,1.0,-8749.673741285465, -2832.5505759971584, 21551.387433707132, -76.70786907752182, 221.08035213537158, 38.35235778529773,1.0,801
15543.813,1.3801861718457233, -1.2626588210020344, -1.6747934397299193, -1.7767954462522546, 1.5709512154986707, 1.3795808231599436,-0.6953918457364038, -0.05014420629179155, -0.09507045571576789, 0.1463076066740126, -0.0009039383877807166, -0.6953205124497577,1.0,-8748.685497631752, -2833.6800148640405, 21551.446014411667, -76.6769106776417, 221.1153295265799, 38.34258243562081,1.0,801
15543.821,1.3787899084441277, -1.2627595045525775, -1.674984329799602, -1.7765016781302583, 1.5709494004988316, 1.37818470298703,-0.6953918457364038, -0.05014420629179155, -0.09507045571576789, 0.1463076066740126, -0.0009039383877807166, -0.6953205124497577,1.0,-8749.662500803324, -2833.033005349168, 21551.46520681046, -76.6824364231671, 221.07519093225562, 38.34670954498577,1.0,801
15543.829,1.3773936450425324, -1.2628601881031205, -1.675175219869284, -1.776207910008261, 1.5709475854989925, 1.3767885828141164,-0.6953918457364038, -0.05014420629179155, -0.09507045571576789, 0.1463076066740126, -0.0009039383877807166, -0.6953205124497577,1.0,-8749.957832898473, -2833.8254088315653, 21551.919734833842, -76.64279649579444, 221.05392951710536, 38.34923074677775,1.0,801
15543.837,1.375997381640937, -1.2629608716536627, -1.6753661099389658, -1.7759141418862638, 1.5709457704991532, 1.3753924626412029,-0.6953918457364038, -0.05014420629179155, -0.09507045571576789, 0.1463076066740126, -0.0009039383877807166, -0.6953205124497577,1.0,-8749.874344947546, -2833.4671778701213, 21551.669482238543, -76.65956427141637, 221.07513857122586, 38.34164755683497,1.0,801
15543.845,1.3746011182393416, -1.2630615552042057, -1.6755570000086477, -1.7756203737642675, 1.570943955499314, 1.3739963424682893,-0.6953918457364038, -0.05014420629179155, -0.09507045571576789, 0.1463076066740126, -0.0009039383877807166, -0.6953205124497577,1.0,-8748.969656227646, -2834.107313986553, 21551.523984016025, -76.65804532087532, 221.11791507261256, 38.35387159899409,1.0,801
15543.853,1.373204854837746, -1.2631622387547488, -1.6757478900783305, -1.7753266056422703, 1.570942140499475, 1.3726002222953757,-0.6953918457364038, -0.05014420629179155, -0.09507045571576789, 0.1463076066740126, -0.0009039383877807166, -0.6953205124497577,1.0,-8749.48693732112, -2832.081969664553, 21551.390715163787, -76.7100895975004, 221.0915718660127, 38.354130572044255,1.0,801
15543.860999999999,1.3718085914361504, -1.2632629223052918, -1.6759387801480123, -1.775032837520273, 1.570940325499636, 1.3712041021224621,-0.6953918457364038, -0.05014420629179155, -0.09507045571576789, 0.1463076066740126, -0.0009039383877807166, -0.6953205124497577,1.0,-8750.597140734702, -2832.4164543889137, 21551.136260887455, -76.68998542683374, 221.07130405386164, 38.35306740662588,1.0,801
15543.868999999999,1.370412328034555, -1.2633636058558348, -1.6761296702176942, -1.7747390693982767, 1.5709385104997966, 1.3698079819495486,-0.6953918457364038, -0.05014420629179155, -0.09507045571576789, 0.1463076066740126, -0.0009039383877807166, -0.6953205124497577,1.0,-8750.543729758685, -2834.8116214629044, 21551.74095663862, -76.61652722002924, 221.06469791912252, 38.33357344308578,1.0,801
15543.876999999999,1.3690160646329597, -1.263464289406377, -1.676320560287376, -1.7744453012762795, 1.5709366954999575, 1.368411861776635,-0.6953918457364038, -0.05014420629179155, -0.09507045571576789, 0.1463076066740126, -0.0009039383877807166, -0.6953205124497577,1.0,-8749.765976681034, -2834.8674242853313, 21551.88029043631, -76.61292828702045, 221.08318131611776, 38.334518611480206,1.0,801
15543.884999999998,1.3676198012313643, -1.26356497295692, -1.676511450357058, -1.7741515331542832, 1.5709348805001184, 1.3670157416037212,-0.6953918457364038, -0.05014420629179155, -0.09507045571576789, 0.1463076066740126, -0.0009039383877807166, -0.6953205124497577,1.0,-8749.78969175806, -2832.450017344271, 21551.550246756786, -76.6946524024194, 221.09736811297427, 38.35551829990513,1.0,801
15543.893,1.3662235378297687, -1.263665656507463, -1.6767023404267398, -1.773857765032286, 1.5709330655002793, 1.3656196214308076,-0.6953918457364038, -0.05014420629179155, -0.09507045571576789, 0.1463076066740126, -0.0009039383877807166, -0.6953205124497577,1.0,-8749.76783852958, -2832.009606670069, 21551.587326266523, -76.72545846965636, 221.1079014526261, 38.342846464643856,1.0,801
15543.901,1.364827274428173, -1.2637663400580053, -1.6768932304964217, -1.7735639969102888, 1.57093125050044, 1.364223501257894,-0.6953918457364038, -0.05014420629179155, -0.09507045571576789, 0.1463076066740126, -0.0009039383877807166, -0.6953205124497577,1.0,-8749.265326465313, -2833.588485655836, 21551.298003835072, -76.65958012842577, 221.11838279837156, 38.34549164668769,1.0,801
15543.909,1.3634310110265777, -1.2638670236085483, -1.6770841205661036, -1.7732702287882915, 1.570929435500601, 1.3628273810849805,-0.6953918457364038, -0.05014420629179155, -0.09507045571576789, 0.1463076066740126, -0.0009039383877807166, -0.6953205124497577,1.0,-8750.288323231609, -2834.6223091552893, 21552.012601100498, -76.6172404991488, 221.0582406657574, 38.338279220094535,1.0,801
15543.917,1.3620347476249823, -1.2639677071590913, -1.6772750106357863, -1.7729764606662952, 1.5709276205007618, 1.3614312609120671,-0.6953918457364038, -0.05014420629179155, -0.09507045571576789, 0.1463076066740126, -0.0009039383877807166, -0.6953205124497577,1.0,-8749.732869265494, -2833.807182890683, 21551.772382495405, -76.63323145116482, 221.07951671219757, 38.33335935165792,1.0,801
