dlisjak-bit/sensor_synchronization/realtime_sync/robot_reference.csv
t,q0,q1,q2,q3,q4,q5,qd0,qd1,qd2,qd3,qd4,qd5,ss,f0,f1,f2,f3,f4,f5,tsf,do
2535.341,-0.02091259278358848, -1.8700082929690591, -1.4130828541342169, -1.429492970506316, 1.5709374316373321, 2.384178552889136,-0.4018997192430461, 0.48701687499994895, -0.6447426269613253, 0.1576372511824898, 0.0010149800399375357, -0.40093339967106906,1.0,-8789.734667333672, -2845.8692033305915, 21693.560266245622, -76.87352504138437, 222.30121089810513, 38.19802850997499,1.0,769
2535.3489999999997,-0.0210055861787648, -1.8698956250700078, -1.4132320042281785, -1.4294565087901576, 1.5709376664556485, 2.3840857830357414,-0.4020159932377149, 0.48698233297228666, -0.644640371938571, 0.1575695034912118, 0.0010149935655120275, -0.4010498233118403,1.0,-8790.622446558702, -2842.214427240847, 21693.010228673284, -76.9539953591154, 222.26920106211026, 38.21060363100969,1.0,769
2535.357,-0.021184875980249984, -1.8696785176381416, -1.4135193747987227, -1.429386285140188, 1.5709381189988676, 2.383906923939259,-0.4022401251746887, 0.4869156313684047, -0.6444431592932724, 0.1574389253633931, 0.0010150194754481253, -0.40127424360971514,1.0,-8789.747604836824, -2844.256331036063, 21693.419735826472, -76.93048872860311, 222.29479645237433, 38.23852997592371,1.0,769
2535.365,-0.021450549563209798, -1.8693570825039894, -1.413944747781592, -1.429282405820807, 1.5709387891399593, 2.383641887902401,-0.4025721428247436, 0.4868165377419097, -0.6441507665153661, 0.1572455268024555, 0.0010150570922846755, -0.40160668863934285,1.0,-8790.626910597191, -2844.476703401505, 21693.972433628616, -76.91768789737415, 222.28077543544543, 38.293992188568836,1.0,769
2535.373,-0.021802736417244617, -1.8689314852955974, -1.4145078004113403, -1.4291450280148714, 1.5709396766904935, 2.383290544958948,-0.40301208694362034, 0.4866847073797778, -0.6437628639071172, 0.1569893227290106, 0.001015105524660388, -0.40204719939824834,1.0,-8789.633119271175, -2844.071115336141, 21693.951699863464, -76.94155510414677, 222.33365935276612, 38.373183296405074,1.0,769
2535.381,-0.022241608228084075, -1.8684019454229794, -1.4152081054865544, -1.4289743595741013, 1.5709407814003384, 2.3828527227927254,-0.4035600104599254, 0.48651968278609925, -0.6432790145143672, 0.15667033363581923, 0.0010151635947886978, -0.40259582922086984,1.0,-8790.036435739203, -2844.198642382249, 21693.75273781559, -76.95110618772333, 222.3021907827503, 38.405059822478194,1.0,769
2535.3889999999997,-0.022767378985567355, -1.8677687360591655, -1.4160451317187608, -1.428770658689193, 1.5709421029572317, 2.3823282066303406,-0.40421597768545886, 0.48632089303953285, -0.6426986739944605, 0.15628858599197445, 0.0010152298355093617, -0.4032526429173063,1.0,-8790.699253799636, -2844.5536763856717, 21693.834416993923, -76.9377869243767, 222.29709618230447, 38.39313956743217,1.0,769
2535.397,-0.023380305117711053, -1.86703218411927, -1.4170182441629464, -1.4285342334803302, 1.5709436409862605, 2.3817167391082057,-0.40498006320967184, 0.4860876530041111, -0.6420211905135451, 0.15584411297705286, 0.0010153024624789584, -0.40401771562955097,1.0,-8790.666953455675, -2844.94599947412, 21693.657053467272, -76.9240945178272, 222.29309328621014, 38.387519204315936,1.0,769
2535.4049999999997,-0.02408068565059729, -1.8661926702392764, -1.418126704727154, -1.4282654415089029, 1.5709453950492096, 2.381018020113797,-0.40585235062471997, 0.4858191623574674, -0.64124580457496, 0.15533695527458635, 0.0010153794296967793, -0.4048911315703585,1.0,-8790.121738006756, -2844.51217578844, 21693.946985345603, -76.93241905330359, 222.2969204259005, 38.39447842989935,1.0,769
2535.413,-0.024868862393772062, -1.86525062875661, -1.4193696727581324, -1.4279646892114277, 1.5709473646438363, 2.3802317066016156,-0.40683293095533996, 0.4855145044930351, -0.6403716488696599, 0.1547671620255969, 0.0010154583518244998, -0.40587298252532344,1.0,-8789.917891975918, -2843.6477184354344, 21693.522171086737, -76.95450341258766, 222.31351293403213, 38.393429229665,1.0,769
2535.421,-0.025745220150766635, -1.8642065476948115, -1.4207462056996318, -1.4276324312567272, 1.5709495492030094, 2.3793574123843335,-0.40792190093739006, 0.4851726452868522, -0.6393977481333426, 0.15413479190693463, 0.0010155365630861327, -0.40696336603223876,1.0,-8789.751018804645, -2843.5945949974257, 21693.44183973207, -76.94916302981952, 222.29588104857777, 38.39459862776056,1.0,769
2535.429,-0.02671018695426497, -1.8630609687549393, -1.4222552598195355, -1.4272691698275581, 1.57095194809371, 2.3783947078992336,-0.4091193609706357, 0.4847924317161435, -0.6383230190027116, 0.1534399143835726, 0.001015611073016841, -0.4081623834322572,1.0,-8789.944422888477, -2843.8196119425847, 21693.56399561524, -76.94842529920754, 222.29060687603652, 38.39505796725186,1.0,769
2535.437,-0.02776394977457386, -1.8618148231356448, -1.4238952492634596, -1.4268755596839942, 1.570954559911771, 2.377343403839483,-0.4104250605807561, 0.4843727043607187, -0.6371465880001368, 0.1526828152842101, 0.0010156785656910711, -0.4094697847598643,1.0,-8788.852685215446, -2843.6308861108964, 21694.06965540349, -76.94248473360139, 222.34144858365124, 38.39770970321743,1.0,769
2535.4449999999997,-0.028856982130780473, -1.8605275603635967, -1.4255876653860886, -1.4264706490103993, 1.5709572604671527, 2.3762529090168494,-0.4117772488735219, 0.4839323535212875, -0.6359232403839203, 0.1518994081868362, 0.001015733380253873, -0.4108237395079613,1.0,-8789.936819828872, -2844.64627353187, 21694.26993056051, -76.94274415149096, 222.30603757918806, 38.395688231906774,1.0,769
2535.453,-0.02995222820484056, -1.859243097253927, -1.427274692488714, -1.4260683284796283, 1.5709599577437032, 2.3751601925817636,-0.4131299407323425, 0.48348603468481893, -0.6346942941343302, 0.15111636938481895, 0.0010157726576270213, -0.41217820228443,1.0,-8790.18078955924, -2848.0782437174958, 21694.63928798317, -76.849544877625, 222.3088532687732, 38.3927648193212,1.0,769
2535.461,-0.03104969133943225, -1.8579614337149346, -1.4289563409617063, -1.4256685877954043, 1.5709626517272843, 2.374065251216554,-0.414483107260979, 0.48303372817702533, -0.6334597473456809, 0.15033371671114784, 0.0010157964122907816, -0.413533144389775,1.0,-8790.886414101302, -2845.2988726096955, 21693.609828133624, -76.91999016342163, 222.2816802987913, 38.39684075975745,1.0,769
2535.469,-0.03214937489419967, -1.8566825696953373, -1.4306326211316414, -1.4252714166848524, 1.5709653424037433, 2.3729680815865652,-0.4158367194084847, 0.482575414578559, -0.6322195984587304, 0.14955146803484218, 0.0010158045844122529, -0.4148885367303761,1.0,-8790.881408914278, -2845.542161228859, 21693.350281063624, -76.92344021041706, 222.27090722074615, 38.395185689712605,1.0,769
2535.477,-0.033251282215569944, -1.8554065052190643, -1.4323035432159408, -1.4248768049090295, 1.570968029758818, 2.3718686803702287,-0.4171907479064809, 0.48211107467396636, -0.6309738462158336, 0.14876964129773282, 0.0010157971136053343, -0.416244350008393,1.0,-8790.68027359483, -2847.3327467778663, 21693.506729015233, -76.86944097706515, 222.29396406460222, 38.392034606866815,1.0,769
2535.4849999999997,-0.03435541663656583, -1.8541332403846855, -1.4339691173240245, -1.4244847422623677, 1.5709707137781401, 2.370767044259248,-0.41854516324289764, 0.48164068945937233, -0.6297224896831416, 0.1479882545869503, 0.001015773937936127, -0.41760055469067237,1.0,-8790.140222127744, -2847.1743863345046, 21693.788314871807, -76.86787820892997, 222.30053955306204, 38.38428415156349,1.0,769
2535.493,-0.03546178147660761, -1.8528627753648248, -1.4356293534584799, -1.4240952185720506, 1.5709733944472346, 2.369663169958853,-0.419899935687009, 0.4811642401491445, -0.6284655282467125, 0.14720732608537, 0.001015734996139114, -0.41895712101184734,1.0,-8789.952819373892, -2845.6200625499987, 21693.619514344653, -76.89503086520378, 222.31515293113972, 38.392887180662285,1.0,769
2535.5009999999997,-0.03657038004132751, -1.8515951104056336, -1.4372842615161332, -1.4237082236975258, 1.5709760717515278, 2.3685570541879573,-0.4212550352950104, 0.48068170817718886, -0.6272029616092665, 0.14642687405831004, 0.0010156802289149926, -0.4203140189884329,1.0,-8789.055843475982, -2846.1596932386756, 21693.893560800134, -76.89575435136976, 222.340887062876, 38.391044852343015,1.0,769
2535.509,-0.03768121562236537, -1.850330245826191, -1.438933851289221, -1.4233237475298832, 1.5709787456763316, 2.3674486936793238,-0.4226104318937674, 0.48019307519597754, -0.6259347897924893, 0.14564691688144524, 0.0010156095789709953, -0.42167121843438476,1.0,-8790.245002743573, -2846.3796749530457, 21693.782885992983, -76.8860202340087, 222.31023000581865, 38.38331730403729,1.0,769
2535.517,-0.03879429149718039, -1.8490681820179846, -1.4405781324664435, -1.4229417799913566, 1.570981416206866, 2.3663380851798395,-0.42396609509473787, 0.47969832309308746, -0.624661013154359, 0.14486747303557512, 0.0010155229836258661, -0.42302868891616086,1.0,-8789.501578211286, -2846.4350898826015, 21693.723887019252, -76.87659540366334, 222.32832915475024, 38.39190102248591,1.0,769
2535.525,-0.03990961092885037, -1.8478089194443328, -1.4422171146340954, -1.422562311034735, 1.5709840833282376, 2.3652252254506227,-0.4253219942913202, 0.4791974339819924, -0.623381632372017, 0.1440885610895616, 0.0010154203828020329, -0.424386399809081,1.0,-8790.203073717656, -2846.6870460449336, 21694.10921192486, -76.87490582339234, 222.29933513834897, 38.38999420362617,1.0,769
2535.533,-0.041027177165872786, -1.8465524586398683, -1.4438508072770926, -1.4221853306428915, 1.5709867470254568, 2.3641101112672946,-0.4266780986756648, 0.4786903902153108, -0.6220966484562832, 0.1433101997010792, 0.0010153017256487615, -0.4257443202551682,1.0,-8789.917174475051, -2846.355774801661, 21694.142218748, -76.88834596933924, 222.30958928975372, 38.38768243636201,1.0,769
2535.5409999999997,-0.04214699344196671, -1.8452988002099797, -1.4454792197800739, -1.421810828828205, 1.570989407283428, 2.362992739420178,-0.4280343772061561, 0.4781771743834475, -0.6208060627529279, 0.1425324076431492, 0.0010151669449202912, -0.4271024191984039,1.0,-8790.679812463988, -2846.2188278652166, 21693.247117885167, -76.89409611104753, 222.2727554545216, 38.39427037612819,1.0,769
2535.549,-0.043269062975871186, -1.844047944830292, -1.4471023614284153, -1.4214387956320973, 1.5709920640869606, 2.361873106714433,-0.4293907986590353, 0.47765776931992987, -0.6195098769353982, 0.14175520374620398, 0.0010150159911861763, -0.42846066536866845,1.0,-8790.609218685453, -2847.136965952739, 21693.294823776378, -76.87503393086396, 222.2775919760506, 38.391285783405834,1.0,769
2535.557,-0.044393388971142755, -1.842799893246129, -1.448720241409288, -1.4210692211244824, 1.5709947174207521, 2.3607512099703385,-0.43074733158149575, 0.4771321581090829, -0.6182080930254381, 0.14097860696394954, 0.0010148488020240414, -0.42981902727991783,1.0,-8789.603082428323, -2846.5896871343402, 21694.040593408434, -76.8876307635785, 222.2963459788499, 38.391669209464595,1.0,769
2535.565,-0.04551997461595292, -1.8415546462719927, -1.450332868812663, -1.420702095403307, 1.57099736726941, 2.3596270460234643,-0.4321039443326372, 0.4766003240825886, -0.616900713373917, 0.14020263631113433, 0.0010146653257627864, -0.43117747325316685,1.0,-8789.096137573037, -2846.7396287877646, 21694.048964939706, -76.87363610589628, 222.3344064262945, 38.39862982026855,1.0,769
2535.573,-0.046648823082882096, -1.8403122047910356, -1.4519402526323484, -1.420337408594012, 1.571000013617432, 2.3585006117248533,-0.4334606050407221, 0.47606225082900006, -0.6155877406852903, 0.1394273109379152, 0.0010144654984829016, -0.4325359714008901,1.0,-8789.7600295165, -2846.3261352323707, 21693.685867326007, -76.89034731365771, 222.30645231713186, 38.39733306287013,1.0,769
2535.5809999999997,-0.047779937528715344, -1.8390725697545598, -1.453542401766951, -1.4199751508491083, 1.5710026564492219, 2.3573719039412873,-0.4348172816784214, 0.4755179221936616, -0.6142691779884283, 0.13865264999743437, 0.0010142492744701788, -0.4338944896480362,1.0,-8790.20769725235, -2845.9018976151756, 21693.847833437663, -76.89154240607832, 222.29416279472895, 38.39088753030944,1.0,769
2535.589,-0.048913321094236295, -1.837835742181495, -1.4551393250208813, -1.419615312347668, 1.5710052957490834, 2.3562409195554057,-0.4361739419759492, 0.47496732228217264, -0.6129450286707967, 0.13787867280488506, 0.0010140165959492521, -0.4352529957265394,1.0,-8789.91673663833, -2846.2519532975557, 21694.313859595048, -76.88841280901238, 222.31018749178986, 38.39949630742032,1.0,769
2535.5969999999998,-0.05004897690401755, -1.836601723157898, -1.456731031105324, -1.4192578832948666, 1.5710079315012218, 2.355107655466017,-0.4375305535091608, 0.4744104354846298, -0.6116152964795359, 0.13710539870664967, 0.0010137674045652182, -0.4366114571133475,1.0,-8789.801757575095, -2845.962540520879, 21693.96276376632, -76.88549227057024, 222.2991688049715, 38.399157534864884,1.0,769
2535.605,-0.051186908066211956, -1.8353705138364358, -1.458317528639216, -1.4189028539215052, 1.5710105636897422, 2.353972108588249,-0.43888708362804874, 0.47384724644099085, -0.6102799854933069, 0.1363328471649333, 0.001013501649808122, -0.43796984116415505,1.0,-8790.880825663791, -2845.4552825823084, 21693.740842164283, -76.90200705201906, 222.28981406287858, 38.390613712451426,1.0,769
2535.613,-0.05232711767234388, -1.8341421154359114, -1.4598988261501589, -1.418550214483604, 1.5710131922986559, 2.352834275853771,-0.44024349952026914, 0.4732777400759647, -0.6089391001473489, 0.13556103767932434, 0.0010132192814610082, -0.43932811501253116,1.0,-8790.852295889077, -2845.2071122829966, 21693.582313916944, -76.90801523278694, 222.2723156276362, 38.40481748969259,1.0,769
2535.621,-0.05346960879709428, -1.8329165292407312, -1.4614749320754195, -1.4181999552618834, 1.571015817311872, 2.351694154210996,-0.44159976816346114, 0.4727019015910535, -0.6075926452368486, 0.13478998986434895, 0.001012920242726225, -0.4406862456092987,1.0,-8789.948031887383, -2846.334089879446, 21694.01242879797, -76.88583087288265, 222.31203849997968, 38.400613558027544,1.0,769
2535.629,-0.054614384498090196, -1.8316937566004583, -1.463045854762787, -1.4178520665614158, 1.571018438713208, 2.3505517406253107,-0.4429558563671744, 0.4721197164632836, -0.6062406258967473, 0.1340197233700924, 0.0010126044841114875, -0.442044199745834,1.0,-8789.262595441602, -2846.813824723623, 21694.297636865256, -76.8815204333876, 222.3329708742579, 38.40027487593889,1.0,769
2535.6369999999997,-0.05576144781568981, -1.8304737989292796, -1.4646116024715603, -1.4175065387111117, 1.5710210564863771, 2.3494070320792892,-0.4443117307473655, 0.4715311704709066, -0.6048830476482866, 0.13325025796662177, 0.001012271949278631, -0.44340194397371285,1.0,-8790.240148070372, -2846.1705170577525, 21693.770155448965, -76.88789092689103, 222.32304104648955, 38.397583600590565,1.0,769
2535.645,-0.056910801772773745, -1.8292566577055638, -1.4661721833733932, -1.41716336206337, 1.5710236706150096, 2.348260025572926,-0.44566735775555316, 0.4709362496655785, -0.6035199163419358, 0.1324816134440034, 0.001011922595387293, -0.44475944472564155,1.0,-8790.627319753736, -2845.73031855472, 21693.595473978774, -76.90393476778758, 222.29465228613412, 38.40650602291126,1.0,769
2535.653,-0.058062449374517655, -1.8280423344713421, -1.4677276055532449, -1.4168225269935988, 1.5710262810826285, 2.3471107181237922,-0.4470227036630974, 0.4703349404052953, -0.6021512382104361, 0.13171380968647248, 0.00101155637014717, -0.4461166682123705,1.0,-8790.086317768097, -2845.6652197170188, 21693.637687564365, -76.90943526306327, 222.30635538175488, 38.39293774361448,1.0,769
2535.661,-0.05921639360818354, -1.8268308308318604, -1.4692778770102297, -1.4164840238998542, 1.5710288878726701, 2.345959106767359,-0.44837773456331576, 0.46972722933969874, -0.6007770198420617, 0.13094686664147526, 0.001011173219814552, -0.44747358049376396,1.0,-8789.592624425984, -2846.62340224128, 21693.796609178913, -76.88427149500043, 222.33388966623954, 38.40237859789275,1.0,769
2535.669,-0.060372637442900334, -1.8256221484550785, -1.4708230056585236, -1.4161478432023875, 1.5710314909684708, 2.344805188557086,-0.4497324163738196, 0.4691131034155584, -0.59939726818791, 0.13018080433413387, 0.0010107730976666486, -0.44883014746775074,1.0,-8790.02030617021, -2847.3694477880863, 21693.836916594046, -76.87164571838406, 222.32483904296635, 38.40107154794484,1.0,769
2535.6769999999997,-0.06153118382943745, -1.8244162890712268, -1.4723629993281957, -1.415813975343318, 1.5710340903532758, 2.343648960564738,-0.4510867148689813, 0.46849254988506583, -0.5980119905549578, 0.12941564279643816, 0.0010103559589773148, -0.4501863348701483,1.0,-8790.879001962076, -2846.3953674808727, 21693.605142227163, -76.89248285068612, 222.29384734434416, 38.39580149147673,1.0,769
2535.685,-0.06269203569999693, -1.8232132544723125, -1.4738978657661006, -1.415482410786173, 1.5710366860102352, 2.342490419880569,-0.45244059563332867, 0.4678655563180021, -0.5966211946460422, 0.12865140220211616, 0.0010099217519009226, -0.4515421082278142,1.0,-8789.994280431918, -2846.7698301609607, 21693.848738949175, -76.88221067496431, 222.31678663828916, 38.391844697597634,1.0,769
2535.6929999999998,-0.06385519596797984, -1.8220130465116782, -1.4754276126366914, -1.415153140015569, 1.5710392779224123, 2.3413295636135727,-0.45379402411195063, 0.46723211058269604, -0.5952248885007504, 0.1278881027034121, 0.001009470434408244, -0.45289743296507506,1.0,-8790.499750088671, -2846.1930786866706, 21693.552222306862, -76.89340261519857, 222.3123667910166, 38.40074858071071,1.0,769
2535.701,-0.06502066752777136, -1.8208156671035205, -1.4769522475228838, -1.41482615353679, 1.5710418660727723, 2.3401663888916877,-0.4551469655760114, 0.4665922008758398, -0.5938230805582934, 0.12712576457299996, 0.0010090019525220235, -0.45425227429462317,1.0,-8790.867699568851, -2846.368056083559, 21693.279295004268, -76.89207787573665, 222.29526341412952, 38.382516702112895,1.0,769
2535.709,-0.06618845325450984, -1.8196211182224378, -1.4784717779268792, -1.4145014418754318, 1.5710444504441874, 2.3390008928620065,-0.4564993851548091, 0.46594581569957616, -0.5924157796034711, 0.1263644080881342, 0.0010085162677611129, -0.4556065973245151,1.0,-8790.216868875641, -2846.856699546298, 21693.60838320016, -76.871162744157, 222.31772609749487, 38.39189579002576,1.0,769
2535.717,-0.0673585560038692, -1.8184294019029785, -1.4799862112709663, -1.414178995577057, 1.5710470310194427, 2.3378330726909997,-0.4578512478307749, 0.46529294388939935, -0.5910029948094224, 0.1256040535874334, 0.0010080133337934827, -0.4569603669732821,1.0,-8789.553565847378, -2845.9991691143605, 21693.88134481933, -76.89161570444406, 222.32634214551513, 38.3919047060389,1.0,769
2535.725,-0.06853097861182622, -1.8172405202391761, -1.4814955548983582, -1.4138588052068055, 1.5710496077812315, 2.336662925564829,-0.45920251841918264, 0.46463357460083854, -0.5895847357230658, 0.12484472148959645, 0.001007493107322027, -0.4583135480294182,1.0,-8789.75710012839, -2846.565404103335, 21693.87065411828, -76.88292652385402, 222.3441203767448, 38.38686556719301,1.0,769
2535.7329999999997,-0.06970572389444207, -1.8160544753841172, -1.4829998160739564, -1.4135408613490927, 1.5710521807121582, 2.335490448689438,-0.46055316160819393, 0.4639676973131121, -0.5881610122506135, 0.1240864322148988, 0.0010069555479216793, -0.4596661051586256,1.0,-8790.584297249281, -2845.715138786747, 21693.640324450298, -76.8940383478334, 222.30461895048091, 38.38868470758888,1.0,769
2535.741,-0.0708827946476216, -1.8148712695494602, -1.4844990019851974, -1.4132251546071917, 1.5710547497947338, 2.3343156392908657,-0.46190314193914583, 0.4632953018562221, -0.5867318347052299, 0.12332920626789845, 0.0010064006056484682, -0.4610180028234076,1.0,-8790.503152810115, -2846.7352488194792, 21693.742556276386, -76.87908925880933, 222.30655533830816, 38.39926841518252,1.0,769
2535.749,-0.0720621936468957, -1.8136909050050338, -1.4859931197427612, -1.4129116756030005, 1.5710573150113827, 2.333138494615498,-0.46325242382338244, 0.46261637837541225, -0.5852972137419936, 0.12257306414565132, 0.0010058282419746708, -0.46236920542130755,1.0,-8789.895862166977, -2846.522930475461, 21694.30169946259, -76.87607777348634, 222.34679941660005, 38.38631535997527,1.0,769
2535.757,-0.07324392364718957, -1.812513384078362, -1.487482176381401, -1.4126004149766267, 1.5710598763444452, 2.331959011930203,-0.464600971530703, 0.46193091736314296, -0.5838571604131649, 0.12181802642836581, 0.0010052384228516561, -0.4637196771799307,1.0,-8789.996852676513, -2846.1427235548863, 21694.240954393877, -76.8943690818873, 222.33508735600168, 38.38900990955469,1.0,769
2535.765,-0.07442798738257572, -1.8113387091542137, -1.4889661788607187, -1.4122913633860623, 1.571062433776158, 2.330777188522674,-0.46594874919247004, 0.46123890966602554, -0.5824116861669646, 0.1210641137465768, 0.0010046310939021844, -0.46506938216930904,1.0,-8791.278044859153, -2846.022726917655, 21693.72731616544, -76.8912667048204, 222.29245503289843, 38.39548651365024,1.0,769
2535.7729999999997,-0.07561438756606353, -1.8101668826742028, -1.4904451340658609, -1.4119845115069403, 1.571064987288684, 2.3295930217015997,-0.4672957208413298, 0.46054034645768727, -0.5809608027946249, 0.12031134669535343, 0.0010040062267134438, -0.46641828438868826,1.0,-8791.093359828019, -2845.6354577529864, 21693.35217519865, -76.8975683148924, 222.28276515064914, 38.39201192792305,1.0,769
2535.781,-0.07680312688935587, -1.8089979071363214, -1.4919190488083167, -1.4116798500321526, 1.571067536864094, 2.3284065087968995,-0.4686418503670294, 0.4598352192707087, -0.5795045224919331, 0.1195597459583059, 0.0010033637798187247, -0.46776634767983644,1.0,-8790.632887594855, -2845.620068964541, 21693.754834903084, -76.9034660274086, 222.30708594787836, 38.39969691158686,1.0,769
2535.7889999999998,-0.07799420802261281, -1.807831785094515, -1.4933879298266426, -1.4113773696715777, 1.5710700824843777, 2.3272176471599826,-0.46998710154335743, 0.459123519988629, -0.5780428578316644, 0.11880933223381228, 0.0010027037164700011, -0.4691135357728869,1.0,-8789.447472332311, -2846.101683899039, 21694.18743300374, -76.89529231403296, 222.33849412065916, 38.398084155487254,1.0,769
2535.797,-0.07918763361421899, -1.8066685191582428, -1.4948517837872046, -1.4110770611517545, 1.5710726241314288, 2.3260264341639783,-0.47133143802618505, 0.4584052408470705, -0.5765758217644094, 0.1180601262444891, 0.001002025996258636, -0.47045981229414474,1.0,-8789.777114725868, -2846.3076896509565, 21694.12685348279, -76.89203506259352, 222.32869302185662, 38.39230354122057,1.0,769
2535.805,-0.0803834062905473, -1.8055081119920615, -1.496310617284883, -1.4107789152156194, 1.5710751617870697, 2.3248328672039253,-0.4726748233685836, 0.45768037444227516, -0.5751034276265069, 0.11731214873891763, 0.0010013305908021547, -0.4718051407428768,1.0,-8790.824122697153, -2846.3261369335014, 21693.904220486605, -76.88672807798099, 222.30591817731107, 38.4056396894201,1.0,769
2535.813,-0.08158152865571644, -1.8043505663151809, -1.4977644368438146, -1.4104829226221902, 1.571077695433023, 2.323636943697112,-0.4740172210088118, 0.4569489137344798, -0.5736256891419257, 0.11656542049370103, 0.0010006174574729684, -0.47314948450806077,1.0,-8790.723775233568, -2845.812969375166, 21693.703352954686, -76.8929656040516, 222.2823571437999, 38.39903398180678,1.0,769
2535.821,-0.08278200329135998, -1.8031958849010472, -1.4992132489180836, -1.410189074146297, 1.5710802250509317, 2.3224386610832166,-0.47535859428039184, 0.45621085204449935, -0.5721426204124289, 0.11581996229834512, 0.0009998865601088995, -0.4744928068878157,1.0,-8789.545368875279, -2846.090343157617, 21693.945818203112, -76.88797380168504, 222.31954123039242, 38.399220295046206,1.0,769
2535.8289999999997,-0.08398483275637947, -1.802044070576911, -1.5006570598924371, -1.4098973605782952, 1.5710827506223524, 2.321238016824608,-0.47669890642707013, 0.4554661830606924, -0.5706542359231964, 0.11507579495429746, 0.0009991378703398236, -0.4758350710712952,1.0,-8789.651482436275, -2846.3491099792072, 21693.953866157404, -76.88463510190715, 222.3312275813076, 38.406350307462276,1.0,769
2535.837,-0.08519001958671346, -1.800895126223418, -1.5020958760829535, -1.4096077727238239, 1.5710852721287663, 2.3200350084065335,-0.4780381205893983, 0.4547149008392228, -0.569160550541253, 0.11433293927936576, 0.0009983713578667673, -0.47717624016298454,1.0,-8789.72905005695, -2846.808368535939, 21693.934922040353, -76.88338514894849, 222.3210580522383, 38.39272285265682,1.0,769
2535.845,-0.08639756629508355, -1.7997490547741721, -1.5035297037377608, -1.4093203014034987, 1.5710877895515647, 2.3188296333374145,-0.47937619980389573, 0.4539569998143825, -0.5676615795292418, 0.11359141612697467, 0.0009975869804112482, -0.47851627716301537,1.0,-8790.283286012882, -2846.421816968861, 21693.690901732967, -76.87905663403407, 222.2859931431284, 38.398844667624246,1.0,769
2535.853,-0.0876074753707643, -1.798605859215325, -1.5049585490376947, -1.4090349374526845, 1.5710903028720586, 2.317621889149084,-0.48071310705165865, 0.4531924747967942, -0.5661573385271133, 0.11285124632015445, 0.0009967847171629739, -0.47985514496815457,1.0,-8789.795694307224, -2846.185584105353, 21693.64134925596, -76.89179543120247, 222.320573975912, 38.41232292905545,1.0,769
2535.861,-0.08881974927933278, -1.7974655425851518, -1.5063824180969814, -1.4087516717212196, 1.5710928120714778, 2.3164117733969958,-0.48204880520173304, 0.45242132096688226, -0.5646478435532455, 0.1121124507082748, 0.0009959645340488258, -0.48119280642967244,1.0,-8789.911850264816, -2846.194368157816, 21694.172694352128, -76.89148533002978, 222.32445624495347, 38.40540019784194,1.0,769
2535.8689999999997,-0.09003439046242079, -1.796328107973637, -1.5078013169639046, -1.4084704950731712, 1.5710953171309632, 2.3151992836604967,-0.4833832570472836, 0.4516435338949527, -0.563133111023253, 0.11137505015437402, 0.000995126397191606, -0.48252922428913597,1.0,-8790.569303490778, -2846.2147682269433, 21693.852372267647, -76.89352280839222, 222.29198351563048, 38.40268806571902,1.0,769
2535.877,-0.091251401337483, -1.7951935585220706, -1.5092152516214403, -1.408191398386621, 1.5710978180315869, 2.3139844175430584,-0.4847164253160839, 0.4508591095248252, -0.5616131577201616, 0.11063906549847033, 0.0009942702899520099, -0.48386436123678656,1.0,-8790.823603290191, -2846.0940723826097, 21693.423588766596, -76.90340292636367, 222.28809695772992, 38.40951876421869,1.0,769
2535.8849999999998,-0.09247078429753675, -1.7940618974226101, -1.5106242279879467, -1.4079143725533738, 1.5711003147543345, 2.31276717267253,-0.48604827265810835, 0.45006804419963187, -0.5600880008317389, 0.10990451760087068, 0.0009933961737012527, -0.4851981798560826,1.0,-8789.743580411068, -2846.955888845763, 21693.948620526247, -76.86014926969554, 222.31865587429508, 38.391850621343394,1.0,769
2535.893,-0.09369254171092312, -1.792933127917892, -1.512028251917772, -1.4076394084787776, 1.5711028072801074, 2.3115475467014077,-0.4873787616535946, 0.44927033464088195, -0.5585576579153397, 0.10917142730796472, 0.0009925040238055508, -0.4865306426938733,1.0,-8789.862630312058, -2846.24167250303, 21693.91707924331, -76.8946149902655, 222.32755469141637, 38.396267950499436,1.0,769
2535.901,-0.09491667592105646, -1.7918072533006102, -1.5134273292019138, -1.4073664970814646, 1.5711052955897375, 2.3103255373070373,-0.48870785482974827, 0.448465977962467, -0.5570221469117613, 0.10843981544916798, 0.0009915938213631223, -0.4878617122246118,1.0,-8790.094997340635, -2846.1699190970885, 21693.78936694149, -76.88875176587527, 222.31412412697586, 38.40513816929993,1.0,769
2535.909,-0.09614318924617393, -1.7906842769131037, -1.5148214655686436, -1.4070956292931411, 1.5711077796639699, 2.3091011421919,-0.49003551464258543, 0.4476549716764152, -0.5554814861548637, 0.10770970286395158, 0.0009906655354043978, -0.48919135085598614,1.0,-8790.777569350026, -2846.3870138284146, 21693.728484241812, -76.89029316319755, 222.2980221854079, 38.39572156748949,1.0,769
2535.917,-0.09737208397908681, -1.789564202146951, -1.5162106666841373, -1.406826796058363, 1.5711102594834716, 2.3078743590838524,-0.49136170350162467, 0.4468373136874916, -0.5539356943557693, 0.1069811103690863, 0.0009897191431028794, -0.4905195209442072,1.0,-8790.580381811536, -2846.264209474629, 21694.05979757478, -76.87947998997697, 222.30101753960184, 38.39159886929221,1.0,769
2535.9249999999997,-0.09860336238693712, -1.788447032442571, -1.5175949381530724, -1.406559988334351, 1.5711127350288399, 2.306645185736374,-0.49268638376675533, 0.44601300229417623, -0.5523847906000091, 0.10625405875286258, 0.0009887546239447668, -0.4918461848098381,1.0,-8789.522777994884, -2846.4161000415197, 21694.519410976853, -76.88915913068118, 222.35166119050086, 38.40200641374582,1.0,769
2535.933,-0.09983702671093475, -1.7873327712888, -1.518974285519274, -1.4062951970907376, 1.5711152062805875, 2.305413619928808,-0.4940095177419789, 0.44518203620040003, -0.5508287943668834, 0.10552856881299605, 0.000987771953348634, -0.4931713047126501,1.0,-8790.021412891057, -2846.0220137164088, 21694.030734796754, -76.88825794302912, 222.3233303783926, 38.3890466504254,1.0,769
2535.941,-0.10107307916610964, -1.786221422222507, -1.5203487142662793, -1.4060324133094273, 1.5711176732191536, 2.30417965946667,-0.49533106770662816, 0.44434441451472345, -0.5492677255149983, 0.10480466130424333, 0.0009867711130671713, -0.49449484285827794,1.0,-8790.614986893566, -2845.620230104546, 21693.71547805683, -76.90653459479964, 222.29798982800884, 38.40277483340648,1.0,769
2535.949,-0.10231152194106219, -1.7851129888281676, -1.521718229817976, -1.405771627984345, 1.5711201358249003, 2.302943302181806,-0.49665099589449113, 0.44350013674177563, -0.5477016042715123, 0.10408235694893297, 0.0009857520805061065, -0.4958167614454345,1.0,-8790.831775541623, -2846.351706830771, 21693.540377243044, -76.88313990414537, 222.30047785723292, 38.4024588407236,1.0,769
2535.957,-0.1035523571977075, -1.7840074747374786, -1.523082837539171, -1.4055128321212766, 1.5711225940781157, 2.30170454593276,-0.49796926450097234, 0.4426492027992192, -0.5461304512583368, 0.1033616764789184, 0.0009847148393754973, -0.4971370226145848,1.0,-8789.926792928458, -2845.7075421084674, 21693.798981176915, -76.90464560204435, 222.3244060914733, 38.39743878893083,1.0,769
2535.9649999999997,-0.10479558707101333, -1.7829048836289392, -1.5244425427361952, -1.405256016737666, 1.5711250479590062, 2.3004633886049035,-0.4992858356920566, 0.44179161300416087, -0.5445542874593776, 0.10264264056755451, 0.0009836593693597344, -0.4984555885107928,1.0,-8789.813568595684, -2845.9679057583326, 21693.98309167198, -76.8943684188215, 222.33235776998816, 38.40066649352556,1.0,769
2535.973,-0.10604121366876029, -1.781805219227472, -1.5257973506574567, -1.4050011728624678, 1.5711274974477174, 2.2992198281108305,-0.5006006716317597, 0.4409273680992767, -0.5429731342543554, 0.10192526985657241, 0.000982585655168333, -0.4997724211988621,1.0,-8790.15347583546, -2846.486330395758, 21693.71199625109, -76.87437192985763, 222.32555681396758, 38.39054297353917,1.0,769
2535.9809999999998,-0.10728923907127008, -1.7807084853040056, -1.5271472664940386, -1.4047482915359444, 1.5711299425243113, 2.2979738623904753,-0.5019137344437388, 0.4400564692181183, -0.5413870133744257, 0.10120958495198291, 0.0009814936838531058, -0.5010874827907187,1.0,-8790.981572990504, -2845.8882601308087, 21693.537208940168, -76.89001420815342, 222.28928138529614, 38.39968790308723,1.0,769
2535.989,-0.10853966533115589, -1.77961468567507, -1.5284922953802758, -1.4044973638094858, 1.5711323831687753, 2.2967254894114824,-0.5032249862355875, 0.4391789179282282, -0.5397959469556228, 0.10049560644993563, 0.0009803834320621905, -0.5024007353283348,1.0,-8790.293494465353, -2845.8466821329466, 21693.635248804745, -76.89226142151801, 222.3104441537622, 38.41018383501543,1.0,769
2535.997,-0.1097924944730666, -1.7785238242024235, -1.529832442394282, -1.4042483807454946, 1.5711348193610313, 2.2954747071693946,-0.5045343891312841, 0.43829471620195554, -0.5381999574852651, 0.09978335485618554, 0.0009792548944694613, -0.5037121408599604,1.0,-8789.575791162975, -2846.3408217777924, 21693.997358827663, -76.8997578643991, 222.33287563663913, 38.40167033003726,1.0,769
2536.005,-0.11104772849342215, -1.7774359047926218, -1.5311677125585543, -1.4040013334171597, 1.5711372510809254, 2.2942215136879605,-0.5058419052074841, 0.43740386642009255, -0.5365990678219229, 0.09907285067419527, 0.000978108053244846, -0.5050216614694707,1.0,-8789.999193542995, -2846.345094084015, 21693.961601852745, -76.88388803155789, 222.31381885421365, 38.4018604076212,1.0,769
2536.013,-0.11230536936015767, -1.7763509313966441, -1.5324981108404927, -1.4037562129083527, 1.5711396783082334, 2.29296590701935,-0.5071474965833489, 0.4365063714010444, -0.5349933012124254, 0.09836411433409616, 0.0009769428980818634, -0.5063292591656238,1.0,-8790.379474923979, -2846.6817449929313, 21693.671165096246, -76.89300647441942, 222.30250173084573, 38.41248611583606,1.0,769
2536.0209999999997,-0.11356541901246686, -1.7752689080094877, -1.533823642152953, -1.403513010313465, 1.5711421010226607, 2.2917078852444495,-0.5084511253542817, 0.4356022343654412, -0.5333826812541722, 0.09765716622436367, 0.0009757594201791344, -0.5076348960212357,1.0,-8790.588696050014, -2846.4646514526166, 21693.543441589336, -76.89074463903964, 222.30546156896537, 38.40187294493478,1.0,769
2536.029,-0.11482787936053374, -1.7741898386697708, -1.5351443113548005, -1.4032717167372457, 1.5711445192038371, 2.290447446473096,-0.5097527536243139, 0.43469145896167943, -0.5317672319224064, 0.09695202669096721, 0.0009745576038515384, -0.5089385340979481,1.0,-8790.102867223337, -2845.7908103580257, 21693.837262943387, -76.91794131723503, 222.31531769838585, 38.41130866761881,1.0,769
2536.037,-0.11609275228527505, -1.7731137274593305, -1.5364601232514454, -1.403032323294667, 1.5711469328313274, 2.2891845888443663,-0.5110523435295349, 0.43377404926306495, -0.5301469775565174, 0.09624871599954411, 0.000973337444951974, -0.5102401354551024,1.0,-8789.464671354162, -2846.692619080566, 21694.300283889115, -76.88355742810774, 222.34080713029954, 38.4044196284521,1.0,769
2536.045,-0.11736003963808184, -1.772040578502847, -1.537771082595345, -1.4027948211108203, 1.5711493418846274, 2.287919310526818,-0.5123498572043628, 0.43285000976259197, -0.528521942861885, 0.09554725438695613, 0.0009720989360506349, -0.5115396621841402,1.0,-8790.423711893938, -2847.376251446666, 21694.22349150398, -76.87573504759814, 222.32202224570517, 38.40558053399562,1.0,769
2536.053,-0.11862974324055475, -1.7709703959674314, -1.5390771940865653, -1.4025592013207424, 1.5711517463431695, 2.286651609718758,-0.5136452568155468, 0.43191934537751037, -0.52689215290073, 0.09484766200250554, 0.0009708420690710144, -0.5128370763990481,1.0,-8790.605635599326, -2845.5364292797094, 21693.49480306062, -76.90843428952161, 222.30537536760215, 38.414300749021095,1.0,769
2536.0609999999997,-0.11990186488423582, -1.7699031840622386, -1.5403784623732752, -1.4023254550693238, 1.5711541461863094, 2.2853814846484934,-0.5149385045572896, 0.43098206144575263, -0.5252576330892649, 0.09414995892752187, 0.0009695668432135931, -0.5141323402508515,1.0,-8790.580715951945, -2845.878822226623, 21693.544677183665, -76.89924036831073, 222.31710949447688, 38.407060438396485,1.0,769
2536.069,-0.12117640633035087, -1.7688389470380574, -1.5416748920522991, -1.4020935735111326, 1.5711565413933393, 2.2841089335746245,-0.5162295626483776, 0.4300381637454341, -0.5236184092235493, 0.09345416520198209, 0.0009682732456896105, -0.5154254158904488,1.0,-8790.198211146073, -2845.8033400407294, 21693.95537322065, -76.9090789270239, 222.32823675165122, 38.41244198813678,1.0,769
2536.0769999999998,-0.12245336930954132, -1.7677776891869446, -1.5429664876695783, -1.4018635478103736, 1.5711589319434822, 2.2828339547863266,-0.5175183933535978, 0.4290876584787361, -0.5219745074508108, 0.09276030078937231, 0.0009669612740490316, -0.5167162655043768,1.0,-8790.541502233247, -2846.729829994323, 21694.075316924973, -76.87280844066242, 222.31018377849847, 38.413773037727026,1.0,769
2536.085,-0.12373275552160123, -1.7667194148418073, -1.5442532537207088, -1.4016353691407213, 1.5711613178158998, 2.2815565466035315,-0.5188049589591102, 0.4281305522516104, -0.5203259542380121, 0.09206838555149624, 0.0009656309336052254, -0.5180048513993962,1.0,-8790.667461872887, -2847.037418972186, 21693.873339133923, -76.87824712807176, 222.30589742706883, 38.40037429031821,1.0,769
2536.093,-0.1250145666352136, -1.76566412837603, -1.5455351946514213, -1.4014090286852454, 1.5711636989896856, 2.280276707377292,-0.5200892218319711, 0.4271668521364126, -0.518672776451651, 0.091378439291449, 0.0009642822141450442, -0.5192911358096622,1.0,-8790.679824757799, -2845.6619727756906, 21693.660306679758, -76.91375706865173, 222.2957204750673, 38.40471394425353,1.0,769
2536.1009999999997,-0.12629880428767581, -1.7646118342030652, -1.5468123148580943, -1.4011845176362865, 1.5711660754438692, 2.2789944354899756,-0.521371144358675, 0.426196565605307, -0.517015001271658, 0.09069048172739276, 0.0009629151220432861, -0.5205750811121825,1.0,-8790.06686451328, -2845.7412206952895, 21693.84491212647, -76.89503585725478, 222.3217394582187, 38.41025500468652,1.0,769
2536.109,-0.1275854700846457, -1.76356253677604, -1.5480846186882484, -1.4009618271953475, 1.5711684471574165, 2.2777097293555304,-0.5226506889872646, 0.42521970057302827, -0.5153526562430117, 0.0900045325115048, 0.0009615296591269323, -0.5218566497009443,1.0,-8790.123409827605, -2846.7070158600163, 21694.167318686425, -76.87582625032721, 222.32313743179924, 38.394949637425384,1.0,769
2536.1169999999997,-0.1288745655998591, -1.7625162405873773, -1.54935211044101, -1.400740948573035, 1.5711708141092287, 2.276422587419842,-0.5239278182261196, 0.4242362653881898, -0.5136857692577952, 0.08932061120360311, 0.0009601258204684705, -0.5231358040250644,1.0,-8789.80065742061, -2846.8641931342972, 21693.98032249144, -76.86986122479152, 222.3301996648196, 38.41023208735439,1.0,769
2536.125,-0.1301660923748793, -1.7614729501683986, -1.5506147943676023, -1.4005218729889535, 1.5711731762781442, 2.2751330081609193,-0.5252024946725902, 0.4232462688247107, -0.5120143685360797, 0.08863873724030472, 0.0009587036146112598, -0.5244125065976893,1.0,-8790.457472434993, -2845.2930795880775, 21693.52356393737, -76.89633883269804, 222.31559538310376, 38.39808574357136,1.0,769
2536.133,-0.13146005191881205, -1.7604326700889175, -1.5518726746718388, -1.4003045916716035, 1.5711755336429392, 2.2738409900891856,-0.526474680944562, 0.42224972008597655, -0.5103384826469638, 0.08795893002411259, 0.000957263040563601, -0.5256867200317268,1.0,-8790.37930951917, -2845.4203459489754, 21693.41044430194, -76.91301673196855, 222.31346647481075, 38.400315132161495,1.0,769
2536.141,-0.1327564457080479, -1.7593954049568703, -1.5531257555105684, -1.4000890958583287, 1.5711778861823287, 2.2725465317477185,-0.5277443397861443, 0.4212466288115773, -0.5086581404906051, 0.08728120880985415, 0.0009558041105468478, -0.5269584069719362,1.0,-8790.382300489886, -2845.9401644292248, 21693.527488375832, -76.89479015087122, 222.31714387411392, 38.40255178818961,1.0,769
2536.149,-0.13405527518599047, -1.758361159417909, -1.554374040994153, -1.3998753767952357, 1.5711802338749672, 2.2712496317126036,-0.5290114339772148, 0.420237005067741, -0.5069733713011273, 0.08660559278525501, 0.0009543268237495302, -0.5282275301830297,1.0,-8790.11761382804, -2847.5345218455177, 21694.01348163167, -76.85673739217697, 222.33779002990985, 38.39038853055388,1.0,769
2536.1569999999997,-0.13535654176278644, -1.7573299381550207, -1.555617535186932, -1.3996634257371188, 1.5711825766994507, 2.2699502885930922,-0.5302759264157245, 0.41922085935445713, -0.5052842046406659, 0.08593210101327849, 0.0009528311941911704, -0.5294940524829947,1.0,-8789.636037747197, -2846.089131251294, 21694.176773813175, -76.88994342513058, 222.33165062490536, 38.40846801176343,1.0,769
2536.165,-0.13666024681505107, -1.7563017458881145, -1.5568562421076901, -1.399453233947372, 1.5711849146343098, 2.268648501031984,-0.5315377800637856, 0.41819820261065627, -0.5035906704156476, 0.0852607524920204, 0.000951317225809544, -0.530757936773844,1.0,-8790.33778836356, -2846.082880684825, 21694.10787658147, -76.88685414751066, 222.33286892332427, 38.400155356664754,1.0,769
2536.173,-0.13796639168560798, -1.7552765873736522, -1.5580901657300963, -1.3992447926979645, 1.5711872476580226, 2.2673442677058024,-0.5327969579915083, 0.41716904619525236, -0.5018927988329897, 0.08459156606259634, 0.0009497849308619346, -0.5320191460753916,1.0,-8791.286780185981, -2846.0784573646697, 21693.59995690994, -76.88329041434216, 222.29492083045955, 38.39680225209028,1.0,769
2536.181,-0.13927497768320496, -1.7542544674042349, -1.5593193099831772, -1.3990380932693327, 1.5711895757490009, 2.2660375873250946,-0.534053423344142, 0.4161334019040744, -0.5001906204385471, 0.08392456051002867, 0.0009482343187111656, -0.53327764349757,1.0,-8790.171709623148, -2846.3319195167605, 21693.751746650163, -76.88316456272653, 222.3135481745848, 38.40215007983892,1.0,769
2536.189,-0.14058600608225902, -1.7532353908082392, -1.5605436787517206, -1.3988331269504002, 1.5711918988856093, 2.2647284586347207,-0.5353071394019862, 0.415091281961285, -0.4984841660811546, 0.08325975444840546, 0.0009466654023225576, -0.5345333922452206,1.0,-8790.255718965678, -2845.887079547286, 21693.64082941082, -76.89566914918086, 222.32612478564522, 38.40046217674845,1.0,769
2536.1969999999997,-0.14189947812256865, -1.7522193624494058, -1.5617632758767428, -1.3986298850384777, 1.5711942170461484, 2.2634168804141663,-0.5365580695296623, 0.41404269902759994, -0.496773466939632, 0.08259716641767798, 0.0009450781932655356, -0.5357863556272214,1.0,-8789.99241477603, -2845.701999693113, 21693.76765721213, -76.90308514374956, 222.3395108734603, 38.41082075512401,1.0,769
2536.205,-0.14321539500905622, -1.7512063872264392, -1.5629781051559428, -1.3984283588392064, 1.5711965302088664, 2.2621028514776995,-0.5378061771967153, 0.41298766618301236, -0.49505855449061514, 0.08193681483421361, 0.0009434727081777979, -0.5370364970926087,1.0,-8790.537298171033, -2846.2614369717985, 21693.41334979682, -76.87908529796502, 222.30468234102761, 38.414828709214305,1.0,769
2536.2129999999997,-0.14453375791148204, -1.750196470072627, -1.5641881703441172, -1.3982285396665377, 1.571198838351949, 2.2607863706747504,-0.5390514260192244, 0.4119261969564137, -0.49333946053733124, 0.08127871797694042, 0.0009418489581018462, -0.5382837801466498,1.0,-8790.857301051487, -2845.811044833613, 21693.685228465787, -76.90769959023788, 222.29611760221394, 38.39846567682929,1.0,769
2536.221,-0.14585456796418406, -1.7491896159554559, -1.565393475153571, -1.3980304188427244, 1.5712011414535356, 2.2594674368901497,-0.5402937797173287, 0.41085830529071554, -0.491616217170898, 0.08062289400422068, 0.0009402069629631621, -0.5395281684585441,1.0,-8790.362948405023, -2845.9441791512545, 21693.70342717515, -76.89730250401544, 222.3200259199554, 38.406342267229576,1.0,769
2536.229,-0.147177826265799, -1.7481858298762019, -1.5665940232545719, -1.3978339876982417, 1.5712034394917038, 2.258146049044376,-0.5415332021186303, 0.4097840055511318, -0.4898888567770933, 0.07996936095240678, 0.0009385467401794874, -0.5407696258501631,1.0,-8789.974035129724, -2845.789148516915, 21693.774114362586, -76.90570562146402, 222.32578644687658, 38.41752927714589,1.0,769
2536.237,-0.14850353387899062, -1.7471851168695398, -1.5677898182757684, -1.3976392375717728, 1.5712057324444821, 2.2568222060938536,-0.5427696572079085, 0.4087033125449936, -0.4881574120553198, 0.07931813672608419, 0.0009368683082803016, -0.5420081162203079,1.0,-8789.98565024217, -2847.10464904527, 21694.06999070132, -76.8693351202484, 222.32717650671333, 38.40493722637342,1.0,769
2536.245,-0.14983169183017608, -1.746187482003167, -1.5689808638045788, -1.397446159810217, 1.5712080202898449, 2.2554959070312313,-0.5440031091058539, 0.4076162415096338, -0.48642191600031204, 0.07866923908853972, 0.0009351716868498125, -0.5432436035982898,1.0,-8790.135709126898, -2845.9911741245223, 21693.89727850222, -76.89208080116279, 222.30354993822408, 38.41354816264425,1.0,769
2536.2529999999997,-0.15116230110925777, -1.7451929303773799, -1.5701671633876444, -1.3972547457686133, 1.5712103030057172, 2.25416715088562,-0.5452335220270267, 0.4065228080834171, -0.4846824018733714, 0.07802268569482086, 0.0009334568951046492, -0.5444760522331806,1.0,-8790.511515996917, -2846.135237851834, 21693.693564977722, -76.9023823475234, 222.3044322876915, 38.41495236426701,1.0,769
2536.261,-0.15249536266933816, -1.744201467124701, -1.571348720531219, -1.3970649868101601, 1.5712125805699628, 2.252835936722892,-0.5464608604018975, 0.4054230283636384, -0.48293890325193256, 0.07737849401811815, 0.0009317239562989239, -0.5457054263987599,1.0,-8790.538327368893, -2845.176398994171, 21693.883749513476, -76.93270549040759, 222.31765814284296, 38.40663694157965,1.0,769
2536.269,-0.15383087742646495, -1.7432130974094964, -1.5725255387015453, -1.396876874306237, 1.5712148529604122, 2.2515022636459805,-0.5476850887471133, 0.4043169188398382, -0.4811914539646091, 0.07673668141719271, 0.0009299728948108337, -0.546931690625843,1.0,-8790.3176268807, -2847.0739505218926, 21694.214460848558, -76.86214595951455, 222.317838960933, 38.413397197289385,1.0,769
2536.277,-0.15516884625933347, -1.742227826427543, -1.5736976213253175, -1.3966903996363165, 1.5712171201548268, 2.250166130795119,-0.5489061717695071, 0.40320449644619927, -0.4794400881408177, 0.0760972650957791, 0.0009282037316272859, -0.5481548095248381,1.0,-8789.994097052673, -2847.0203972867794, 21694.110623181004, -76.87331080617523, 222.32987423929904, 38.40433753408203,1.0,769
2536.285,-0.15650927000903447, -1.7412456594056618, -1.574864971790043, -1.3965055541880114, 1.5712193821309322, 2.2488275373481135,-0.5501240743070972, 0.40208577852663163, -0.4776848401747115, 0.07546026213106827, 0.0009264164953347636, -0.549374747902777,1.0,-8790.41144258972, -2845.9596780923375, 21693.83340401463, -76.89405734070255, 222.3233523468171, 38.4135285599649,1.0,769
2536.2929999999997,-0.15785214947876813, -1.7402666016013244, -1.5760275934444214, -1.3963223293570932, 1.5712216388664015, 2.2474864825206446,-0.5513387613876922, 0.4009607828471387, -0.47592574472266397, 0.07482568940304272, 0.0009246112129493562, -0.5505914707110316,1.0,-8790.961786404885, -2845.2176858302746, 21693.645825495518, -76.90885476909341, 222.31968357195285, 38.411333833640725,1.0,769
2536.301,-0.15919748543357315, -1.7392906583022416, -1.5771854895987705, -1.3961407165474542, 1.5712238903388545, 2.2461429655665124,-0.5525501981733325, 0.3998295275951304, -0.4741628367214188, 0.07419356369556218, 0.0009227879060269006, -0.5518049430755364,1.0,-8790.57639995964, -2846.468576515709, 21693.703447305863, -76.86988529262749, 222.30611139157577, 38.39633114195385,1.0,769
2536.3089999999997,-0.1605452786000514, -1.7383178348259776, -1.5783386635253933, -1.39596070717114, 1.57122613652587, 2.244796985777933,-0.5537583500256922, 0.39869203137224896, -0.472396151356563, 0.07356390159349567, 0.0009209466085781122, -0.5530151302815199,1.0,-8790.351545054848, -2846.5874284953143, 21694.01340676759, -76.87204374805165, 222.33256135494707, 38.40502352751858,1.0,769
2536.317,-0.161895529666098, -1.7373481365195396, -1.5794871184589745, -1.3957822926483407, 1.571228377404977, 2.2434485424857615,-0.5549631824628534, 0.3975483131924817, -0.4706257240708191, 0.0729367195422602, 0.0009190873522928832, -0.5542219978060994,1.0,-8789.692776498001, -2846.0746855019433, 21694.160432822853, -76.88593270008712, 222.35035127797192, 38.394063323154114,1.0,769
2536.325,-0.16324823928062404, -1.736381568759013, -1.5806308575969297, -1.3956054644074616, 1.571230612953661, 2.242097635059872,-0.5561646611925698, 0.39639839248822023, -0.468851590561795, 0.07231203381248662, 0.0009172101650769282, -0.5554255112905769,1.0,-8790.476863529206, -2845.6691944046706, 21693.888837827948, -76.90939845348746, 222.33450674479332, 38.40467844749267,1.0,769
2536.333,-0.16460340805328144, -1.7354181369491233, -1.5817698840998276, -1.3954302138850716, 1.5712328431493594, 2.240744262909305,-0.557362752082612, 0.39524228910279, -0.4670737867821385, 0.07168986055203636, 0.0009153150747768883, -0.5566256365718524,1.0,-8790.805126930421, -2846.6451501974007, 21693.694149429095, -76.88337856027081, 222.3006070907108, 38.396355480112476,1.0,769
2536.341,-0.16596103655419459, -1.7344578465228615, -1.5829042010917282, -1.3952565325259716, 1.5712350679694707, 2.2393884254826246,-0.5585574212365653, 0.3940800232854711, -0.465292348906499, 0.07107021566169426, 0.0009134021243726571, -0.5578223396569135,1.0,-8791.15001290229, -2846.097511618934, 21693.759740661644, -76.87990990913147, 222.2961316636343, 38.394996485409564,1.0,769
2536.3489999999997,-0.1673211253136806, -1.7335007029410896, -1.5840338116605608, -1.3950844117832286, 1.5712372873913478, 2.2380301222681753,-0.55974863490271, 0.39291161569452554, -0.46350731336376305, 0.07045311494369932, 0.0009114713428636321, -0.5590155867682916,1.0,-8789.90055568159, -2845.751321814975, 21693.820823084854, -76.89272836185032, 222.3384983587796, 38.4129271624997,1.0,769
2536.357,-0.16868367482197666, -1.7325467116921258, -1.5851587188584944, -1.394913843118185, 1.571239501392295, 2.236669352794355,-0.5609363595412657, 0.3917370874035823, -0.4617187168261458, 0.06983857402225609, 0.0009095227626845685, -0.5602053442947946,1.0,-8790.198958100236, -2846.1713897076233, 21693.697728986823, -76.89022865769823, 222.3319175117972, 38.39507975829213,1.0,769
2536.365,-0.1700486855289718, -1.7315958782913592, -1.5862789257022945, -1.394744818000511, 1.571241709949586, 2.235306116629872,-0.562120561825941, 0.390556459870532, -0.4599265961618536, 0.06922660829549618, 0.000907556426497079, -0.5613915788592594,1.0,-8790.223318204773, -2846.3756058175622, 21693.54857720491, -76.89449206918181, 222.31295109994915, 38.408733769165195,1.0,769
2536.373,-0.1714161578439235, -1.730648208280832, -1.587394435173703, -1.3945773279082196, 1.5712439130404419, 2.2339404133840457,-0.5633012086103851, 0.38936975497054543, -0.4581309884934973, 0.06861723304315971, 0.0009055723687638568, -0.5625742572695748,1.0,-8790.643173755665, -2845.7492272436757, 21693.49927975035, -76.90514880118928, 222.30191397524248, 38.40789490224503,1.0,769
2536.381,-0.1727860921351958, -1.7297037072288663, -1.588505250219753, -1.3944113643277598, 1.5712461106420503, 2.2325722427070245,-0.5644782669743152, 0.38817699497908315, -0.45633193115969606, 0.06801046334333062, 0.000903570622333177, -0.5637533465290481,1.0,-8790.253926173118, -2846.2152926188455, 21693.954631320426, -76.89990306581834, 222.32012766724722, 38.39737719171282,1.0,769
2536.3889999999997,-0.17415848872997586, -1.7287623807296377, -1.5896113737531596, -1.3942469187540194, 1.5712483027315527, 2.2312016042901655,-0.5656517042168325, 0.3869782025507682, -0.45452946168498604, 0.06740631405146469, 0.0009015512374338647, -0.5649288138862169,1.0,-8790.59153583319, -2846.286539780179, 21693.941292079475, -76.90019842354619, 222.31283055066888, 38.42102019652097,1.0,769
2536.397,-0.17553334791400932, -1.7278242344027808, -1.590712808652663, -1.3940839826903826, 1.5712504892860584, 2.2298284978662033,-0.5668214878293331, 0.3857734007543646, -0.4527236178411826, 0.06680479991293549, 0.0008995142514480515, -0.5661006267765903,1.0,-8790.325404488694, -2846.8710292431124, 21693.9326696161, -76.87400948164057, 222.3368828110012, 38.40289460749946,1.0,769
2536.4049999999997,-0.17691066993132765, -1.7268892738930042, -1.5918095577633453, -1.3939225476488248, 1.5712526702826408, 2.22845292320956,-0.5679875855314828, 0.3845626130337083, -0.45091443757468125, 0.06620593543314286, 0.0008974597055873512, -0.5672687528896787,1.0,-8790.414046465976, -2846.0909621014525, 21693.770545066618, -76.89928569465263, 222.31264955938104, 38.41357566000215,1.0,769
2536.413,-0.17829045498396567, -1.7259575048696565, -1.5929016238970197, -1.3937626051499148, 1.5712548456983255, 2.2270748801366023,-0.5691499652829136, 0.38334586323527914, -0.4491019590484387, 0.06560973493757527, 0.0008953876398814071, -0.5684331600989749,1.0,-8790.401977151225, -2845.7247542906734, 21693.58831773629, -76.91736540636325, 222.31796551080896, 38.41583198719596,1.0,769
2536.421,-0.1796727032316996, -1.7250289330263424, -1.593989009832546, -1.3936041467229021, 1.571257015510108, 2.2256943685059545,-0.57030859524361, 0.3821231755844944, -0.44728622061534973, 0.06501621258053826, 0.0008932980997297034, -0.5695938165397391,1.0,-8790.51597485147, -2846.4398385469867, 21693.72006385516, -76.88085807512999, 222.30921826440243, 38.40686476825081,1.0,769
2536.429,-0.18105741479177517, -1.7241035640805258, -1.595071718316155, -1.3934471639058126, 1.571259179694948, 2.2243113882187595,-0.5714634438443069, 0.3808945746986817, -0.445467260820004, 0.06442538228950018, 0.0008911911323930203, -0.5707506905361173,1.0,-8790.388057804563, -2846.054481975726, 21693.565824714708, -76.90037256095346, 222.3167829766321, 38.420340906497074,1.0,769
2536.437,-0.18244458973863154, -1.7231814037731068, -1.5961497520618053, -1.3932916482454765, 1.5712613382297695, 2.222925939218898,-0.5726144797179493, 0.3796600855577943, -0.44364511837199944, 0.06383725780418241, 0.000889066785407853, -0.571903750706864,1.0,-8789.89477749408, -2846.2248414606984, 21693.773629300213, -76.88332912509489, 222.33538269480817, 38.40688494914613,1.0,769
2536.4449999999997,-0.18383422810363204, -1.7222624578680215, -1.5972231137515163, -1.3931375912976076, 1.5712634910914594, 2.2215380214932914,-0.5737616717432129, 0.3784197335420299, -0.44181983219126286, 0.06325185269671763, 0.0008869251026512666, -0.5730529658602178,1.0,-8790.262973704323, -2845.2728694404814, 21693.852043346596, -76.9239843134531, 222.33644034047137, 38.4185447675151,1.0,769
2536.453,-0.1852263298747978, -1.7213467321518525, -1.5982918060356646, -1.3929849846269198, 1.5712656382568766, 2.220147635072215,-0.5749049890516119, 0.37717354438155404, -0.4399914413293067, 0.06266918027259058, 0.0008847661374887807, -0.5741983050933053,1.0,-8790.451755802596, -2847.506340752455, 21693.96122684737, -76.8633215354933, 222.31822958493905, 38.41526572228469,1.0,769
2536.461,-0.18662089499653423, -1.7204342324334032, -1.5993558315333374, -1.392833819807172, 1.5712677797028478, 2.218754780029525,-0.5760444010126777, 0.37592154420665086, -0.43815998505270065, 0.06208925370693211, 0.000882589934648107, -0.5753397376950188,1.0,-8790.347716635344, -2846.793200124461, 21693.89985097608, -76.88239088125897, 222.3208149039122, 38.40590732186871,1.0,769
2536.469,-0.18801792336935907, -1.7195249645432975, -1.6004151928326493, -1.392684088421258, 1.571269915406162, 2.2173594564829213,-0.5771798772524152, 0.37466375949403746, -0.43632550275358023, 0.06151208591185691, 0.000880396546044361, -0.576477233247082,1.0,-8790.627035577938, -2846.3137432585327, 21693.598762715617, -76.89663032305054, 222.31699820920676, 38.42079174221095,1.0,769
2536.477,-0.18941741484963703, -1.7186189343335654, -1.6014698924910684, -1.3925357820612883, 1.571272045343579, 2.215961664594226,-0.5783113876435123, 0.3734002170961419, -0.4344880339990694, 0.060937689621720324, 0.0008781860224120262, -0.5776107615677617,1.0,-8790.752954104166, -2845.0765207170116, 21693.56997273605, -76.91180009975187, 222.31764475248326, 38.40556683711188,1.0,769
2536.4849999999997,-0.19081936924931409, -1.7177161476772538, -1.6025199330357038, -1.392388892328717, 1.5712741694918346, 2.214561404569649,-0.5794389023222395, 0.37213094422370385, -0.4326476185017579, 0.06036607735202842, 0.0008759584185222155, -0.5787402927337166,1.0,-8790.86942314124, -2846.903602004606, 21693.89190238326, -76.88028315053799, 222.32079299738086, 38.4102094018327,1.0,769
2536.493,-0.1922237863356422, -1.7168166104679958, -1.6035653169636515, -1.3922434108343982, 1.5712762878276254, 2.2131586766600764,-0.5805623916688102, 0.3708559684514608, -0.43080429612959936, 0.059797261421534915, 0.0008737137834047548, -0.579865797086455,1.0,-8790.552260824008, -2846.4617165057552, 21693.96051047126, -76.88138592034358, 222.33930705147668, 38.40900863169148,1.0,769
2536.5009999999997,-0.19363066583091815, -1.715920328619612, -1.604606046742287, -1.3920993291987065, 1.5712784003276266, 2.2117534811613044,-0.5816818263601867, 0.36957531769562163, -0.4289581068632234, 0.05923125387567213, 0.0008714521782315527, -0.5809872452336574,1.0,-8790.372440491257, -2845.845194829525, 21694.1239399359, -76.89515459509573, 222.35615356630586, 38.40260151582976,1.0,769
2536.509,-0.1950400074122136, -1.715027308065693, -1.605642124809589, -1.3919566390516138, 1.571280506968482, 2.210345818414348,-0.5827971772977758, 0.36828902024475957, -0.42710909086065246, 0.05866806663605916, 0.0008691736528462667, -0.5821046080383105,1.0,-8791.177124704374, -2845.5788921534568, 21693.980219977915, -76.91208276003658, 222.3321420466434, 38.407695598451795,1.0,769
2536.517,-0.19645181071111395, -1.7141375547592013, -1.606673553574419, -1.3918153320328361, 1.5712826077268145, 2.208935688805633,-0.5839084157001487, 0.3669971047190923, -0.4252572883713669, 0.05810771131233086, 0.0008668782678591064, -0.5832178566346281,1.0,-8791.434755706394, -2846.384163215127, 21693.767204132455, -76.88656137470221, 222.31484152173596, 38.39683718477539,1.0,769
2536.525,-0.19786607531344558, -1.7132510746720477, -1.6077003354168404, -1.3916753997919207, 1.5712847025792145, 2.207523092767362,-0.5850155130145858, 0.3656996000877607, -0.42340273978632526, 0.057550199355702936, 0.0008645660784874781, -0.5843269624525133,1.0,-8790.841285658495, -2845.798989329266, 21693.823870850945, -76.89070726095252, 222.31515801209196, 38.410824075388064,1.0,769
2536.533,-0.1992828007590175, -1.7123678737946841, -1.6087224726884184, -1.3915368339883498, 1.5712867915022488, 2.20610803077772,-0.5861184409918422, 0.3643965356629415, -0.4215454856119938, 0.05699554197061696, 0.0008622371451743466, -0.5854318971741022,1.0,-8790.246427815679, -2846.133507247243, 21693.934439188168, -76.90159942573521, 222.35018854153412, 38.40542561431201,1.0,769
2536.5409999999997,-0.20070198654135396, -1.7114879581356837, -1.6097399677125157, -1.3913996262916664, 1.5712888744724613, 2.204690503361124,-0.5872171716530289, 0.3630879410920724, -0.41968556646499033, 0.0564437501358717, 0.0008598915270499201, -0.5865326327728562,1.0,-8790.636767273023, -2846.6932548725536, 21694.15246126354, -76.88215468893813, 222.3363944869975, 38.40099216227034,1.0,769
2536.549,-0.20212363210743511, -1.7106113337213422, -1.6107528227845744, -1.3912637683816094, 1.5712909514663742, 2.2032705110885162,-0.5883116773030577, 0.3617738463618905, -0.4178230230789051, 0.05589483462080472, 0.0008575292815525765, -0.5876291414904771,1.0,-8790.228178844836, -2846.03542745248, 21694.03317331668, -76.89155240288011, 222.33000706787624, 38.4162932619748,1.0,769
2536.557,-0.20354773685743055, -1.709738006595244, -1.6117610401724267, -1.3911292519482021, 1.5712930224604842, 2.201848054577628,-0.5894019305402632, 0.36045428178088035, -0.415957896274646, 0.05534880594195178, 0.0008551504753730452, -0.5887213958626574,1.0,-8790.843198662951, -2845.8475289535627, 21693.83940106617, -76.88895528968467, 222.3157029652079, 38.407563802263724,1.0,769
2536.565,-0.20497430014443818, -1.708867982817866, -1.6127646221165612, -1.390996068691921, 1.5712950874312657, 2.2004231344932266,-0.5904879042317599, 0.35912927798223343, -0.4140902269704957, 0.054805674399821515, 0.0008527551664064194, -0.5898093687299941,1.0,-8790.605910379603, -2845.3384119087696, 21693.80961206163, -76.90746487875015, 222.317571790157, 38.4192842212685,1.0,769
2536.573,-0.206403321274232, -1.7080012684661439, -1.6137635708304394, -1.3908642103237732, 1.5712971463551768, 2.1989957515473795,-0.591569571553434, 0.3577988659221181, -0.41222005617380475, 0.0542654500531518, 0.0008503434239380747, -0.5908930332061704,1.0,-8790.97045941025, -2846.5322664336336, 21694.08011812269, -76.8813166004243, 222.32057465670175, 38.41521030721873,1.0,769
2536.5809999999997,-0.20783479950498673, -1.707137869633062, -1.6147578885007565, -1.3907336685654688, 1.5712991992086491, 2.197565906499685,-0.5926469059571711, 0.3564630768824779, -0.410347424991956, 0.05372814275950985, 0.0008479153071602729, -0.5919723626965921,1.0,-8790.113282998998, -2845.885175186095, 21694.043124535623, -76.90400796843036, 222.33821839209213, 38.41150638626985,1.0,769
2536.589,-0.2092687340470345, -1.706277792427242, -1.615747577287726, -1.3906044351495446, 1.5713012459680988, 2.1961336001575913,-0.5937198812104729, 0.3551219424460624, -0.4084723745861289, 0.053193762093174404, 0.0008454708799529034, -0.5930473309122068,1.0,-8790.287729963231, -2846.0628549512603, 21694.056696286494, -76.89022581022542, 222.33870982511462, 38.42406271106688,1.0,769
2536.5969999999998,-0.2107051240626019, -1.7054210429725396, -1.616732639325333, -1.3904765018195437, 1.57130328660993, 2.1946988333766244,-0.5947884713674966, 0.3537754945096946, -0.4065949462013287, 0.052662317420054595, 0.0008430102149815744, -0.5941179118609395,1.0,-8790.76422203332, -2846.4924715884836, 21694.047761300084, -76.88613754214236, 222.31721096132537, 38.3979589090379,1.0,769
2536.605,-0.21214396866554708, -1.7045676274075756, -1.6177130767216799, -1.3903498603300584, 1.5713053211105192, 2.1932616070606166,-0.5958526508007399, 0.3524237652785247, -0.40471518114966587, 0.052133817853170755, 0.0008405333787340027, -0.5951840798335618,1.0,-8790.94409798544, -2846.268504003925, 21693.83236230582, -76.88686403257742, 222.31509366877066, 38.423933600661826,1.0,769
2536.613,-0.2135852669211129, -1.7037175518853687, -1.6186888915591888, -1.3902245024469764, 1.5713073494462306, 2.1918219221620205,-0.5969123941508165, 0.3510667872471223, -0.40283312079427214, 0.051608272279940755, 0.0008380404352624577, -0.5962458094718818,1.0,-8790.716476522279, -2845.643642559723, 21693.95535799707, -76.9054905407562, 222.3174132317361, 38.416821505247526,1.0,769
2536.621,-0.21502901784566664, -1.7028708225728924, -1.6196600858949077, -1.3901004199475775, 1.5713093715934146, 2.190379779682113,-0.5979676763975448, 0.3497045932224398, -0.4009488065707051, 0.05108568934507807, 0.0008355314526184561, -0.5973030756690496,1.0,-8790.52915148068, -2845.615702487363, 21694.264053122457, -76.90961916225842, 222.34608303556496, 38.409381862664446,1.0,769
2536.629,-0.21647522040644862, -1.7020274456506534, -1.6206266617607676, -1.3899776046207029, 1.571311387528404, 2.188935180671255,-0.5990184728134839, 0.34833721628900816, -0.3990622799456539, 0.05056607744155883, 0.0008330065069544141, -0.5983558536632999,1.0,-8790.903759966737, -2846.953861750655, 21694.015478935286, -76.86347634532294, 222.30942243577323, 38.41392508153635,1.0,769
2536.6369999999997,-0.21792387352132092, -1.7011874273122745, -1.621588621163859, -1.389856048266898, 1.5713133972275175, 2.187488126229179,-0.6000647589895075, 0.34696468982612977, -0.39717358243725326, 0.050049444720168576, 0.0008304656644855829, -0.5994041189853994,1.0,-8790.546016573124, -2846.2189315196056, 21693.954718998986, -76.8914620575348, 222.33162093046235, 38.41730025432699,1.0,769
2536.645,-0.2193749760585133, -1.7003507737640753, -1.6225459660866823, -1.3897357426985835, 1.5713154006670655, 2.186038617505191,-0.6011065108196065, 0.3455870474935027, -0.39528275559925, 0.04953579909131082, 0.0008279089974714596, -0.6004478474904732,1.0,-8790.714196777339, -2845.793445229302, 21693.78429750013, -76.88309679578231, 222.3204948425544, 38.4218594409449,1.0,769
2536.653,-0.2208285268363781, -1.6995174912246522, -1.623498698487408, -1.3896166797402252, 1.5713173978233483, 2.184586655698471,-0.6021437045286676, 0.3442043232239022, -0.39338984100618896, 0.049025148197000504, 0.0008253365829912603, -0.6014870153439562,1.0,-8790.844055132486, -2845.390562734018, 21693.90905563399, -76.91646425948423, 222.343089093704, 38.41165472680669,1.0,769
2536.661,-0.22228452462313442, -1.6986875859244437, -1.6244468203001459, -1.3894988512284758, 1.5713193886726493, 2.183132242058283,-0.6031763166388826, 0.3428165512356618, -0.39149488027857104, 0.04851749946786728, 0.0008227484883874161, -0.6025215990243129,1.0,-8791.157671031122, -2846.6587598884407, 21693.95506736872, -76.86434751344493, 222.31970542399108, 38.41259071010731,1.0,769
2536.669,-0.2237429681366212, -1.6978610641053038, -1.6253903334352175, -1.3893822490123267, 1.5713213731912374, 2.181675377884228,-0.6042043239985906, 0.34142376600765095, -0.38959791504277846, 0.048012860064407324, 0.00082014478880445, -0.6035515753370543,1.0,-8790.838160417876, -2846.3283813235366, 21693.982019902563, -76.88789563734653, 222.33294890497626, 38.40309386792819,1.0,769
2536.6769999999997,-0.2252038560440619, -1.6970379320201072, -1.626329239779353, -1.3892668649533526, 1.571323351355385, 2.1802160645265474,-0.6052277037916131, 0.34002600227995716, -0.3876989869306318, 0.04751123687494228, 0.0008175255630219758, -0.6045769214022072,1.0,-8790.645776466969, -2845.34168457133, 21693.861226078865, -76.8983605831699, 222.34165799013374, 38.406359708721084,1.0,769
2536.685,-0.226667186961806, -1.6962181959322846, -1.6272635411960144, -1.3891526909257887, 1.571325323141348, 2.178754303386211,-0.6062464334965435, 0.33862329505379546, -0.38579813758898995, 0.047012636564196054, 0.0008148908849896977, -0.6055976146820812,1.0,-8790.769061675404, -2846.1444173802, 21693.936258561676, -76.89249285298581, 222.34389673931076, 38.414783125545654,1.0,769
2536.6929999999998,-0.22813295945509005, -1.6954018621154194, -1.628193239525599, -1.389039718816771, 1.5713272885253784, 2.1772900959153425,-0.6072604909318454, 0.33721567960200227, -0.3838954086899155, 0.04651706556735239, 0.0008122408293965596, -0.60661363292166,1.0,-8790.787060824407, -2846.413923241217, 21693.974330231747, -76.88029508105018, 222.32699464434756, 38.4097087063129,1.0,769
2536.701,-0.22960117203779795, -1.6945889368528269, -1.6291183365856856, -1.3889279405265142, 1.5713292474837175, 2.1758234436174426,-0.6082698542661931, 0.33580319142219717, -0.3819908418563026, 0.04602452998282185, 0.0008095754791591088, -0.6076249542168001,1.0,-8790.702081691225, -2846.1458713539296, 21693.85299118373, -76.89791505665076, 222.3335267015297, 38.42196458122393,1.0,769
2536.709,-0.2310718231722193, -1.6937794264371089, -1.6300388341713061, -1.3888173479684571, 1.5713311999926065, 2.1743543480474847,-0.6092745019440654, 0.3343858662682884, -0.38008447872951656, 0.045535035733154317, 0.0008068949063962858, -0.6086315570122204,1.0,-8790.710235969635, -2845.4674991444244, 21694.028652586563, -76.90252883994216, 222.33568747687576, 38.40146887653853,1.0,769
2536.717,-0.23254491126880783, -1.692973337169736, -1.630954734055174, -1.3887079330694698, 1.5713331460282796, 2.172882810812227,-0.6102744127558062, 0.3329637401348335, -0.37817636093232615, 0.0450485884697126, 0.0008041991923437763, -0.6096334200677547,1.0,-8790.966822173883, -2846.393668781203, 21694.047722456038, -76.88675537793341, 222.3308911247252, 38.41872221573084,1.0,769
2536.725,-0.23402043468594425, -1.6921706753606216, -1.6318660379879129, -1.3885996877700553, 1.571335085566967, 2.1714088335705477,-0.6112695658709721, 0.331536849249884, -0.3762665300513507, 0.044565193526974654, 0.0008014884198466876, -0.610630522439474,1.0,-8790.70330993904, -2845.9884107907474, 21694.06975356761, -76.90250026561864, 222.3246585647018, 38.40828778977939,1.0,769
2536.7329999999997,-0.23549839172970355, -1.6913714473276826, -1.6327727476983256, -1.3884926040244956, 1.571337018584901, 2.1699324180335036,-0.612259940713151, 0.3301052300760155, -0.3743550276709143, 0.04408485608284725, 0.0007987626678887926, -0.6116228435680389,1.0,-8790.702722081649, -2846.326224402005, 21693.85357809149, -76.89878515147677, 222.30788322749942, 38.406864861257475,1.0,769
2536.741,-0.23697878065361433, -1.6905756593964218, -1.633674864893596, -1.388386673801099, 1.5713389450583046, 2.168453565964749,-0.6132455171053264, 0.32866891929744824, -0.37244189531849015, 0.04360758096238785, 0.0007960220165613339, -0.6126103631846243,1.0,-8790.420413453072, -2846.3474047400587, 21693.809231788284, -76.89420568748767, 222.330570928959, 38.414607980752436,1.0,769
2536.749,-0.2384615996584305, -1.6897833178995008, -1.6345723912595336, -1.3882818890823723, 1.571340864963406, 2.1669722791806496,-0.614226275158663, 0.32722795382024694, -0.3705271744969394, 0.043133372795196426, 0.000793266548329488, -0.613593061386891,1.0,-8790.43292082984, -2845.8939816441016, 21693.821957440025, -76.89752205962341, 222.33681765856574, 38.41254351123723,1.0,769
2536.757,-0.2399468468918977, -1.6889944291762848, -1.6354653284608283, -1.3881782418651927, 1.571342778276433, 2.165488559550512,-0.615202195347739, 0.32578237075757205, -0.36861090664446494, 0.0426622358988298, 0.000790496348355392, -0.6145709186003513,1.0,-8790.381898801532, -2846.4045760542713, 21693.889470442096, -76.89656765033072, 222.32939026649024, 38.42591597554508,1.0,769
2536.765,-0.24143452044852332, -1.6882089995724403, -1.6363536781412487, -1.38807572416105, 1.5713446849736112, 2.164002408996873,-0.6161732584798932, 0.3243322074470702, -0.36669313317111435, 0.042194174364495504, 0.0007877114984896236, -0.6155439155675463,1.0,-8791.224053348247, -2845.822854475943, 21693.5681861764, -76.91584534727818, 222.323124919326, 38.41501579294143,1.0,769
2536.7729999999997,-0.2429246183693481, -1.6874270354394874, -1.6372374419238822, -1.3879743279962407, 1.57134658503117, 2.16251382949569,-0.6171394456787, 0.32287750142614946, -0.3647738954268797, 0.041729192033798754, 0.0007849120816929455, -0.6165120333947457,1.0,-8790.818764522426, -2846.8415580892442, 21693.75306233736, -76.88294019984423, 222.30553245322437, 38.41012986654465,1.0,769
2536.781,-0.24441713864172332, -1.6866485431343712, -1.6381166214113678, -1.3878740454120493, 1.5713484784253469, 2.1610228230765816,-0.6181007384313588, 0.32141829042663655, -0.36285323468541647, 0.04126729244797405, 0.0007820981867850948, -0.6174752535159582,1.0,-8790.287864394837, -2845.395487439723, 21694.043585068994, -76.91763337639986, 222.33651628209168, 38.412757828496524,1.0,769
2536.7889999999998,-0.2459120791990843, -1.6858735290190312, -1.6389912181861046, -1.3877748684649935, 1.5713503651323812, 2.1595293918230474,-0.6190571185638982, 0.3199546123763006, -0.3609311921532682, 0.04080847888400973, 0.0007792698967415989, -0.6184335577043965,1.0,-8790.696467986943, -2846.0090738182944, 21694.118447187197, -76.88879032276574, 222.3324614952154, 38.41863038246149,1.0,769
2536.797,-0.24740943792072123, -1.6851019994599685, -1.6398612338104792, -1.3876767892270196, 1.5713522451285138, 2.158033537872691,-0.6200085682287206, 0.3184865054019448, -0.3590078089808156, 0.04035275439136136, 0.0007764272986699848, -0.619386928070252,1.0,-8790.473728490246, -2846.2535446138227, 21694.191068443153, -76.90555802963954, 222.33391265206194, 38.42588105081916,1.0,769
2536.805,-0.24890921263156773, -1.6843339608278072, -1.6407266698270897, -1.3875797997857084, 1.5713541183899915, 2.156535263417432,-0.6209550699094339, 0.31701400780160316, -0.35708312622224814, 0.03990012174530284, 0.0007735704808203091, -0.6203353470922822,1.0,-8790.810199149411, -2846.7256075995447, 21694.2390804152, -76.87740723242973, 222.33015799616607, 38.414999936964875,1.0,769
2536.813,-0.250411401101978, -1.6835694194968678, -1.6415875277589471, -1.3874838922445178, 1.5713559848930745, 2.155034570703707,-0.6218966064542822, 0.3155371580646169, -0.35515718485750597, 0.03945058344432163, 0.0007706995259946948, -0.62127879755661,1.0,-8791.302199888796, -2846.183173561387, 21694.103899912996, -76.8944485180075, 222.33097725067307, 38.421581082696775,1.0,769
2536.821,-0.2519160010475101, -1.6828083818447173, -1.6424438091097304, -1.3873890587229472, 1.5713578446140246, 2.153531462032764,-0.6228331610600637, 0.31405599485275787, -0.3532300257734033, 0.03900414171966701, 0.0007678145278998422, -0.6222172625881227,1.0,-8790.383302812672, -2845.7476755331163, 21694.200810512863, -76.91343700119495, 222.34176483641022, 38.408418785563185,1.0,769
2536.8289999999997,-0.2534230101287074, -1.682050854251754, -1.643295515363942, -1.387295291356832, 1.571359697529116, 2.152025939760772,-0.6237647172273723, 0.3125705569879791, -0.35130168975567194, 0.038560798560141135, 0.0007649155723191448, -0.6231507256995387,1.0,-8791.270411701802, -2846.752993032539, 21693.995102882003, -76.8801897333463, 222.3126723116236, 38.41396729403786,1.0,769
2536.837,-0.2549324259508934, -1.6812968431007675, -1.6441426479871515, -1.387202582298534, 1.5713615436146366, 2.1505180062991136,-0.6246912588534761, 0.3110808834611662, -0.3493722174842564, 0.03812055564014611, 0.0007620027516840209, -0.6240791706960793,1.0,-8791.187324181308, -2846.17582293556, 21693.76226009345, -76.89221558211318, 222.32219130418252, 38.41426833908932,1.0,769
2536.845,-0.2564442460639498, -1.6805463547764843, -1.6449852084262195, -1.3871109237171373, 1.5713633828468778, 2.149007664114576,-0.6256127701256918, 0.30958701342297007, -0.34744164954609896, 0.037683414431274036, 0.0007590761542164664, -0.6250025817677738,1.0,-8790.668492412024, -2845.603698905141, 21693.746968387288, -76.9109360942517, 222.3466883928695, 38.41542710594371,1.0,769
2536.853,-0.25795846796212096, -1.6797993956651647, -1.645823198109455, -1.3870203077987497, 1.5713652152021533, 2.147494915729524,-0.6265292356097675, 0.308088986177476, -0.3455100264082399, 0.03724937610180772, 0.0007561358721449949, -0.6259209434204304,1.0,-8790.931890019458, -2845.7467490217086, 21694.028591199767, -76.90975807351847, 222.336994186619, 38.42028889330834,1.0,769
2536.861,-0.25947508908379113, -1.6790559721541243, -1.6466566184468867, -1.3869307267466455, 1.5713670406567768, 2.145979763722134,-0.6274406402014001, 0.30658684117236706, -0.3435773884157528, 0.03681844155731949, 0.0007531819952958057, -0.6268342405223172,1.0,-8790.703356315107, -2846.540291605681, 21694.1833263007, -76.88383554588182, 222.33313068931767, 38.415737971379684,1.0,769
2536.8689999999997,-0.2609941068112951, -1.6783160906313395, -1.6474854708304036, -1.3868421727815807, 1.5713688591870891, 2.144462210726637,-0.6283469691397324, 0.3050806180058503, -0.3416437758033705, 0.0363906114596797, 0.0007502146157612604, -0.6277424582745041,1.0,-8790.905763943454, -2845.822760664566, 21693.92746493381, -76.89194367470967, 222.3320740506802, 38.42078655400303,1.0,769
2536.877,-0.26251551847070065, -1.6775797574849838, -1.6483097566339904, -1.3867546381419835, 1.5713706707694362, 2.142942259433463,-0.6292482080303335, 0.30357035640424423, -0.3397092286564517, 0.03596588615241951, 0.0007472338252607535, -0.6286455822192138,1.0,-8791.171027089475, -2845.8066471497805, 21693.861696908876, -76.90058847699626, 222.33137699821202, 38.407088892171174,1.0,769
2536.8849999999998,-0.2640393213316239, -1.6768469791029919, -1.6491294772139309, -1.3866681150841904, 1.571372475380188, 2.141419912589435,-0.6301443427827916, 0.30205609623905666, -0.3377737869576046, 0.035544265795556994, 0.0007442397166725018, -0.6295435982553416,1.0,-8790.640127056558, -2846.029705734256, 21693.77346318276, -76.88922157316205, 222.32016955088773, 38.42048212319415,1.0,769
2536.893,-0.2655655126070178, -1.6761177618726313, -1.6499446339089827, -1.3865825958827092, 1.5713742729957267, 2.139895172998022,-0.631035359679096, 0.3005378774842315, -0.3358374905047622, 0.03512575019134529, 0.0007412323871047422, -0.6304364926393888,1.0,-8790.836993592187, -2845.7731617534655, 21694.032438805203, -76.89688075990648, 222.33770754265294, 38.40717145351326,1.0,769
2536.901,-0.2670940894529803, -1.6753921121800577, -1.650755228040591, -1.3864980728304461, 1.5713760635924514, 2.138368043519481,-0.6319212453412691, 0.2990157402620222, -0.33390037899420194, 0.034710338941647496, 0.0007382119262717359, -0.6313242519364599,1.0,-8790.510655286174, -2845.902608124945, 21694.008688107115, -76.8846632369659, 222.33621477221885, 38.42055989657183,1.0,769
2536.909,-0.26862504896856976, -1.6746700364098839, -1.6515612609130672, -1.3864145382389657, 1.571377847146788, 2.1368385270711,-0.632801986735405, 0.2974897247992898, -0.33196249195466726, 0.03429803135682419, 0.0007351784312319601, -0.6322068630721556,1.0,-8790.797097864082, -2846.363983668499, 21693.8340928227, -76.88392277916003, 222.31832982128446, 38.41334362233016,1.0,769
2536.917,-0.2701583881955978, -1.6739515409447243, -1.652362733813801, -1.3863319844387103, 1.5713796236351791, 2.135306626627314,-0.6336775711553952, 0.29595987142784186, -0.33002386875426165, 0.03388882648463087, 0.0007321319971381227, -0.633084313337266,1.0,-8790.98306481969, -2845.1860624978963, 21694.036586753387, -76.91299506504635, 222.33715004331185, 38.41202961422064,1.0,769
2536.9249999999997,-0.27169410411845263, -1.6732366321647776, -1.6531596480134283, -1.3862504037792824, 1.571381393034085, 2.1337723452200095,-0.6345479862647171, 0.29442622059971385, -0.3280845486174458, 0.03348272310828186, 0.000729072715519411, -0.6339565903241937,1.0,-8790.715249476962, -2845.647184956242, 21694.104985550566, -76.88683248987934, 222.34496366088547, 38.41925831698205,1.0,769
2536.933,-0.27323219366390816, -1.6725253164473646, -1.6539520047660439, -1.386169788629652, 1.5713831553199882, 2.1322356859385816,-0.6354132200477906, 0.2928888128530558, -0.32614457058838087, 0.033079719745814945, 0.0007260006870945561, -0.6348236820049227,1.0,-8791.16620103085, -2846.231946430141, 21694.12787202859, -76.89000923738791, 222.32334458632806, 38.417837235020414,1.0,769
2536.941,-0.27477265370094095, -1.6718176001665181, -1.6547398053093545, -1.3860901313784728, 1.571384910469401, 2.130696651930229,-0.6362732608473456, 0.29134768883160383, -0.3242039735518536, 0.03267981464553121, 0.0007229160040190356, -0.6356855766678544,1.0,-8790.617104302924, -2846.3177141065817, 21693.93034820762, -76.88245719453658, 222.31948591414022, 38.43019021645384,1.0,769
2536.949,-0.27631548104054904, -1.6711134896925142, -1.6555230508648915, -1.3860114244342814, 1.5713866584588594, 2.129155246400054,-0.6371280973236477, 0.28980288926156883, -0.3222627962136732, 0.0322830058089252, 0.000719818766690605, -0.6365422629722429,1.0,-8790.89779633494, -2845.406498077912, 21693.894805556236, -76.91829028676992, 222.33925919234275, 38.42097042699359,1.0,769
2536.957,-0.2778606724355708, -1.6704129913914416, -1.6563017426381936, -1.3859336602257617, 1.5713883992649162, 2.127611472611252,-0.6379777184986299, 0.2882544549569412, -0.32032107709993823, 0.03188929095573782, 0.0007167090715169939, -0.6373937298975747,1.0,-8790.909267884179, -2845.192269703988, 21693.778107956423, -76.91726234443934, 222.321387690174, 38.4251600410735,1.0,769
2536.9649999999997,-0.2794082245805152, -1.6697161116247798, -1.6570758818189582, -1.3858568312020463, 1.5713901328641648, 2.126065333885347,-0.6388221137424337, 0.28670242680439006, -0.3183788545398473, 0.03149866751587234, 0.0007135870163132822, -0.6382399667666634,1.0,-8790.781750125054, -2847.217882633894, 21693.677809718385, -76.85461652558692, 222.30890680296955, 38.41211919076352,1.0,769
2536.973,-0.28095813411137716, -1.6690228567489278, -1.6578454695812637, -1.3857809298329125, 1.571391859233214, 2.1245168336023066,-0.6396612727350915, 0.2851468457852313, -0.3164361667127766, 0.031111132738500365, 0.0007104526950239052, -0.6390809632389902,1.0,-8790.987162482705, -2845.9698274470784, 21693.890199743866, -76.89702124339567, 222.32924730492914, 38.42526419365586,1.0,769
2536.9809999999998,-0.2825103976054786, -1.6683332331147902, -1.6586105070837078, -1.3857059486090995, 1.5713935783487065, 2.1229659752007297,-0.6404951855181128, 0.2835877529266223, -0.3144930515624644, 0.030726683527947087, 0.0007073062095826831, -0.6399167093258119,1.0,-8790.553935241998, -2845.904378057883, 21694.21114495372, -76.90958696775951, 222.33613081661963, 38.41718547237883,1.0,769
2536.989,-0.2840650115812897, -1.6676472470673236, -1.6593709954696099, -1.385631880042543, 1.5713952901873125, 2.1214127621780174,-0.6413238424707131, 0.2820251893262041, -0.3125495468468111, 0.030345316552190905, 0.000704147660404914, -0.6407471953659974,1.0,-8790.928273123483, -2846.249152080415, 21694.271339645988, -76.896982057896, 222.34054437191935, 38.414957712844455,1.0,769
2536.997,-0.28562197249827204, -1.6669649049451012, -1.6601269358671686, -1.3855587166666536, 1.5713969947257342, 2.119857198090521,-0.6421472342833492, 0.28045919614149695, -0.31060569012565487, 0.029967028234044745, 0.0007009771428942373, -0.641572412057549,1.0,-8791.060508424373, -2846.6819230102146, 21694.197079024496, -76.87402498232967, 222.32760246441813, 38.416424451971864,1.0,769
2537.005,-0.28718127675671123, -1.6662862130798697, -1.6608783293896483, -1.38548645103657, 1.5713986919407112, 2.11829928655373,-0.6429653520194363, 0.27888981458562506, -0.3086615187497111, 0.029591814715878823, 0.0006977947625399784, -0.6423923503983608,1.0,-8791.262607599168, -2845.778018792823, 21694.30464913934, -76.8960883652513, 222.3262361768501, 38.411252704410884,1.0,769
2537.013,-0.2887429206975547, -1.6656111777961096, -1.661625177135539, -1.385415075729445, 1.5714003818090032, 2.1167390312424397,-0.6437781870466684, 0.2773170859245351, -0.30671706986842273, 0.02921967190731871, 0.0006946006074974799, -0.6432070017437485,1.0,-8790.77227323721, -2845.773776359869, 21693.94868894484, -76.91735397018766, 222.34577550899377, 38.42647668038546,1.0,769
2537.0209999999997,-0.2903069006022605, -1.664939805410608, -1.6623674801887134, -1.385344583344728, 1.5714020643074176, 2.115176435890861,-0.6445857311066497, 0.2757410514477134, -0.30477238038009896, 0.028850595392630646, 0.0006913947938137311, -0.6440163577708204,1.0,-8790.724104978053, -2846.0020467604572, 21693.762593161973, -76.89538882250125, 222.33370143128423, 38.412857831875215,1.0,769
2537.029,-0.29187321269263755, -1.664272102231994, -1.6631052396186297, -1.3852749665043955, 1.5714037394127862, 2.1136115042928,-0.6453879762025534, 0.2741617525057257, -0.302827487007995, 0.02848458059701144, 0.0006881774055614021, -0.6448204105242443,1.0,-8791.094455491959, -2846.4814812180284, 21693.690173191888, -76.88365433626407, 222.331095268401, 38.4198010888899,1.0,769
2537.037,-0.29344185313069815, -1.6636080745603046, -1.6638384564804891, -1.3852062178532272, 1.5714054071019825, 2.112044240301833,-0.6461849147443288, 0.2725792304679346, -0.3008824262179979, 0.0281216226052899, 0.0006849485552810085, -0.6456191523298129,1.0,-8790.983194094588, -2845.7238665829464, 21693.6607859174, -76.90602646000335, 222.33233028918954, 38.40057315179692,1.0,769
2537.045,-0.295012818018507, -1.6629477286865733, -1.6645671318153452, -1.3851383300591635, 1.5714070673519145, 2.1104746478314187,-0.6469765394261757, 0.27099352672971005, -0.2989372342497116, 0.027761716268299156, 0.0006817083403044017, -0.6464125758874391,1.0,-8791.184261207565, -2846.1048404918038, 21693.920251432603, -76.89072440849361, 222.3297488166063, 38.4223315859538,1.0,769
2537.053,-0.29658610339803726, -1.662291070892361, -1.6652912666503328, -1.3850712958134919, 1.5714087201395335, 2.1089027308550543,-0.647762843288056, 0.2694046827203232, -0.29699194712517757, 0.027404856199414056, 0.0006784568624922766, -0.6472006741958063,1.0,-8790.72927570312, -2845.972739663014, 21694.029725971104, -76.90294975563893, 222.34435558216796, 38.41058327953351,1.0,769
2537.0609999999997,-0.2981617052510277, -1.6616381074493223, -1.6660108619987994, -1.3850051078311596, 1.5714103654418259, 2.1073284934064067,-0.6485438196884469, 0.2678127398790617, -0.2950466006168486, 0.027051036738079185, 0.0006751942180353846, -0.6479834405993677,1.0,-8790.541844693107, -2846.6243928451695, 21694.093370506795, -76.89025935831248, 222.33081047439362, 38.42750202438501,1.0,769
2537.069,-0.2997396194988413, -1.6609888446187684, -1.6667259188604708, -1.3849397588510524, 1.5714120032358174, 2.1057519395794984,-0.6493194623220214, 0.2662177396573678, -0.2931012302553659, 0.02670025197115281, 0.0006719205152277303, -0.6487608687581675,1.0,-8791.335500177998, -2846.179336249901, 21694.059788418996, -76.88803081675348, 222.32159924705888, 38.42009123710895,1.0,769
2537.0769999999998,-0.3013198420023313, -1.6603432886512186, -1.667436438221622, -1.3848752416362506, 1.5714136334985773, 2.104173073528776,-0.6500897651935089, 0.2646197235193697, -0.29115587133447973, 0.026352495748590367, 0.0006686358560897401, -0.649532952664107,1.0,-8790.726965293352, -2845.3605023525743, 21693.837408901843, -76.9133626697674, 222.32559127684078, 38.419699291239425,1.0,769
2537.085,-0.3029023685617087, -1.6597014457859913, -1.6681424210551832, -1.384811548974386, 1.5714152562072148, 2.1025918994693087,-0.6508547226515987, 0.26301873292461175, -0.289210558883344, 0.026007761632592417, 0.0006653403378810047, -0.6502996866217323,1.0,-8791.214659587638, -2845.7003643965054, 21693.81558037208, -76.9051840702925, 222.3301573837308, 38.42493862482388,1.0,769
2537.093,-0.3044871949164101, -1.6590633222507245, -1.6688438683209617, -1.3847486736778274, 1.5714168713388879, 2.101008421676851,-0.6516143293297695, 0.2614148093384638, -0.28726532769643737, 0.025666042983201125, 0.0006620340678221619, -0.6510610652792758,1.0,-8790.805586631224, -2846.1407014770557, 21693.818600647566, -76.89628193360952, 222.32795669421284, 38.42403483101771,1.0,769
2537.1009999999997,-0.30607431674497043, -1.6584289242609724, -1.669540780965737, -1.384686608584052, 1.5714184788707954, 2.099422644488011,-0.6523685802243167, 0.25980799421665474, -0.28532021229923776, 0.02532733286598909, 0.0006587171432934285, -0.6518170835689768,1.0,-8790.797529606742, -2846.0821684025677, 21693.87075135689, -76.88669483947524, 222.33326739120326, 38.42774864173941,1.0,769
2537.109,-0.30766372966490163, -1.6577982580197501, -1.6702331599234412, -1.3846253465558878, 1.5714200787801846, 2.097834572300407,-0.6531174706099251, 0.25819832899240025, -0.28337524694863336, 0.024991624115349206, 0.0006553896742018931, -0.652567736786672,1.0,-8790.577339834734, -2845.019599633979, 21693.69544014178, -76.91733970662847, 222.33826118084534, 38.4113705108025,1.0,769
2537.1169999999997,-0.30925542923256977, -1.657171329717082, -1.6709210061153295, -1.384564880481772, 1.5714216710443436, 2.096244209572664,-0.6538609960983801, 0.2565858551076396, -0.281430465669719, 0.024658909343785746, 0.0006520517562629857, -0.6533130204973131,1.0,-8791.199475432299, -2845.9242715175515, 21693.989898084135, -76.91118231526744, 222.33197303814433, 38.434655366274285,1.0,769
2537.125,-0.31084941094308327, -1.6565481455296007, -1.6716043204500686, -1.384505203276122, 1.571423255640616, 2.0946515608246954,-0.654599152628061, 0.25497061395118176, -0.2794859021704429, 0.024329180843405948, 0.0006487034967271021, -0.654052930603646,1.0,-8790.94918613895, -2847.3031894373316, 21694.089078459925, -76.86122873399691, 222.33589083299103, 38.419393879384415,1.0,769
2537.133,-0.31244567023016856, -1.6559287116200894, -1.6722831038239212, -1.384446307879581, 1.571424832546391, 2.093056630637695,-0.6553319363988427, 0.25335264690458437, -0.2775415899244637, 0.024002430743195705, 0.0006453449995778624, -0.6547874633441255,1.0,-8791.09502249545, -2845.9543370179017, 21694.102245663238, -76.89271453692075, 222.34103681968406, 38.42744020555841,1.0,769
2537.141,-0.3140442024660697, -1.6553130341370332, -1.6729573571209064, -1.3843881872592778, 1.5714264017391073, 2.091459423654271,-0.6560593439817177, 0.2517319953179298, -0.27559756211937064, 0.023678650876614853, 0.0006419763671846655, -0.6555166152130691,1.0,-8791.013998978488, -2845.9601530394157, 21694.18608853221, -76.90020449020358, 222.3438150597862, 38.41654245329434,1.0,769
2537.149,-0.31564500296143994, -1.6547011192142085, -1.6736270812129037, -1.384330834409175, 1.5714279631962553, 2.0898599445785986,-0.6567813722112276, 0.250108700510078, -0.27365385167890977, 0.023357832881620695, 0.0006385977009844661, -0.6562403830478925,1.0,-8791.533757450521, -2846.1167239793076, 21693.972776957096, -76.89604993369616, 222.339530305754, 38.426938466883485,1.0,769
2537.1569999999997,-0.31724806696523444, -1.6540929729702327, -1.6742922769598216, -1.3842742423503323, 1.5714295168953791, 2.088258198176456,-0.6574980182448253, 0.2484828037401261, -0.27171049121068963, 0.023039968089301824, 0.0006352091063324849, -0.6569587639992747,1.0,-8791.487738884032, -2846.649433825184, 21693.898326761482, -76.87996033663262, 222.3266821632376, 38.41007737960601,1.0,769
2537.165,-0.31885338966460974, -1.6534886015081263, -1.6749529452097356, -1.3842184041312002, 1.5714310628140733, 2.0866541892753907,-0.6582092795437113, 0.24685434624008395, -0.26976751306672875, 0.022725047639251733, 0.0006318106870676762, -0.6576717555010029,1.0,-8791.122822451336, -2845.3952671914867, 21693.923806850205, -76.91068630055568, 222.34003944179887, 38.41003463621212,1.0,769
2537.173,-0.32046096618483233, -1.652888010914885, -1.6756090867990237, -1.3841633128279165, 1.5714326009299888, 2.0850479227647694,-0.6589151538831062, 0.24522336919032442, -0.26782494930495626, 0.022413062414980093, 0.0006284025467474817, -0.6583793552803486,1.0,-8790.6770475519, -2845.5929279402935, 21693.71799606557, -76.89171830976628, 222.34151664619048, 38.41860234509707,1.0,769
2537.181,-0.32207079158918184, -1.6522912072610572, -1.6762607025524838, -1.3841089615446345, 1.5714341312208324, 2.0834394035958987,-0.659615639297081, 0.24358991371103494, -0.2658828316879734, 0.022104003074790206, 0.0006249847876072135, -0.6590815614084674,1.0,-8791.138302149258, -2845.644202229678, 21693.847370745363, -76.89857013193284, 222.34163531592844, 38.412671512607005,1.0,769
2537.189,-0.32368286087886133, -1.6516981966002824, -1.6769077932835144, -1.3840553434137597, 1.5714356536643663, 2.0818286367820633,-0.6603107341461424, 0.24195402086970008, -0.26394119168985536, 0.021797860038182106, 0.0006215575166693575, -0.6597783722203354,1.0,-8791.334521107916, -2846.339241962406, 21693.68794130471, -76.88815986946929, 222.3335207356555, 38.4157357305522,1.0,769
2537.1969999999997,-0.32529716899291383, -1.6511089849688876, -1.677550359794207, -1.384002451596304, 1.5714371682384132, 2.080215627398678,-0.6610004370936844, 0.24031573166701076, -0.2620000604787653, 0.02149462346810004, 0.0006181208367215919, -0.6604697863438013,1.0,-8790.968791289366, -2845.959825645671, 21694.061191678025, -76.89358353830781, 222.3404609663, 38.41061713348586,1.0,769
2537.205,-0.3269137108081379, -1.6505235783854362, -1.678188402875497, -1.3839502792821525, 1.5714386749208515, 2.0786003805833384,-0.6616847470744898, 0.23867508703326631, -0.26005946892324133, 0.021194283311816522, 0.0006146748515560205, -0.6611558027210518,1.0,-8790.867625059673, -2845.6903680188834, 21694.180705109455, -76.902987671559, 222.35121089331335, 38.426903007965336,1.0,769
2537.2129999999997,-0.32853248113900957, -1.649941982850307, -1.6788219233073018, -1.383898819690371, 1.5714401736896202, 2.076982901535881,-0.6623636633300032, 0.23703212784933883, -0.2581194476174565, 0.020896829308543117, 0.0006112196647322533, -0.6618364205483881,1.0,-8791.342069469129, -2846.134694847964, 21693.885871260765, -76.88920783419337, 222.3314411757999, 38.41261938233015,1.0,769
2537.221,-0.3301534747376085, -1.6493642043452619, -1.6794509218586295, -1.3838480660695174, 1.5714416645227216, 2.075363195518503,-0.6630371853747972, 0.23538689488892986, -0.2561800268075078, 0.02060225092261621, 0.0006077553798225527, -0.6625116393543883,1.0,-8791.346927760014, -2846.0593623919476, 21694.18896345796, -76.88926943239409, 222.33344322071918, 38.427302309535946,1.0,769
2537.229,-0.3317766862935452, -1.648790248833011, -1.6800753992877349, -1.383798011697916, 1.571443147398217, 2.073741267855776,-0.6637053130086116, 0.2337394288627156, -0.2542412364543731, 0.02031053741336475, 0.0006042821027747679, -0.6631814589374048,1.0,-8791.269091484168, -2845.7510393723605, 21694.04711674019, -76.89032403380335, 222.3309541633102, 38.4109984528034,1.0,769
2537.237,-0.3334021104338927, -1.6482201222567854, -1.6806953563422367, -1.3837486498839686, 1.571444622294232, 2.072117123934759,-0.6643680463266768, 0.23208977040787807, -0.25230310622641783, 0.020021677844482014, 0.0006007999379128222, -0.6638458793547796,1.0,-8790.544256098878, -2845.165786227818, 21694.05408006636, -76.92012443985496, 222.3386997444195, 38.4294169279938,1.0,769
2537.245,-0.3350297417231296, -1.6476538305399249, -1.6813107937592182, -1.3836999739664941, 1.5714460891889588, 2.070490769205069,-0.6650253857033863, 0.23043796005044664, -0.2503656654410712, 0.019735660988694316, 0.0005973089858200465, -0.6645049009702002,1.0,-8790.980837895067, -2846.066555067645, 21693.989053114317, -76.898440106739, 222.3433395483891, 38.42012250997058,1.0,769
2537.2529999999997,-0.33665957466306917, -1.6470913795854125, -1.6819217122654146, -1.3836519773149396, 1.5714475480606502, 2.068862209178862,-0.6656773317711617, 0.22878403823929686, -0.24842894312832575, 0.01945247545277285, 0.0005938093513397576, -0.6651585244273003,1.0,-8791.042896747038, -2846.628667750624, 21693.817174321004, -76.88578142381763, 222.32192949483073, 38.43217782181401,1.0,769
2537.261,-0.33829160369281475, -1.6465327752754941, -1.6825281125772644, -1.3836046533297859, 1.5714489988876297, 2.067231449430965,-0.6663238854515188, 0.22712804532133304, -0.24649296798950268, 0.01917210959662219, 0.0005903011421063579, -0.6658067506380544,1.0,-8790.933709456815, -2845.5514521628993, 21693.88195227109, -76.91155101708785, 222.3346590961582, 38.4184796127808,1.0,769
2537.269,-0.3399258231886977, -1.6459780234712333, -1.683129995401064, -1.3835579954428097, 1.5714504416482882, 2.065598495598931,-0.6669650479476581, 0.22547002154096643, -0.244557768401057, 0.01889455154702378, 0.0005867844593224312, -0.6664495807808902,1.0,-8790.822813856998, -2845.509576783562, 21693.844681018676, -76.91293655932213, 222.3431423075706, 38.42567357213076,1.0,769
2537.277,-0.34156222746423737, -1.645427130012079, -1.6837273614330952, -1.3835119971173668, 1.5714518763210812, 2.0639633533830524,-0.6676008207184381, 0.22381000704944778, -0.2426233724373642, 0.018619789252604494, 0.0005832594088914576, -0.6670870163062421,1.0,-8791.091163318151, -2846.5303286963644, 21693.860657404613, -76.88591960491607, 222.34065682405617, 38.4227985407872,1.0,769
2537.285,-0.34320081077009235, -1.644880100715449, -1.6843202113597435, -1.3834666518487042, 1.5714533028845408, 2.062326028546389,-0.6682312054985577, 0.22214804187789525, -0.2406898078279154, 0.018347810406156972, 0.000579726089198476, -0.6677190589360794,1.0,-8790.925886595098, -2846.320654677521, 21693.991852230945, -76.88827490827836, 222.3281737426393, 38.429120238115615,1.0,769
2537.2929999999997,-0.34484156729402216, -1.644336941376312, -1.6849085458576, -1.3834219531642873, 1.5714547213172638, 2.0606865269148527,-0.6688562042619232, 0.22048416595137654, -0.23875710198971825, 0.018078602521954774, 0.0005761846107864853, -0.6683457106742564,1.0,-8791.017488005647, -2845.5496339104393, 21694.024035970207, -76.91072207347358, 222.3341620738251, 38.43039897012008,1.0,769
2537.301,-0.34648449116084645, -1.6437976577667648, -1.6854923655935865, -1.3833778946240942, 1.571456131597921, 2.059044854377209,-0.6694758192890485, 0.2188184190768994, -0.23682528200119232, 0.01781215286240796, 0.0005726350732329003, -0.6689669737471935,1.0,-8791.382131777515, -2845.884660598178, 21694.085612917712, -76.89528210396563, 222.33670697559796, 38.41606853204516,1.0,769
2537.3089999999997,-0.3481295764324219, -1.643262255635606, -1.6860716712250783, -1.3833344698208991, 1.5714575337052594, 2.0574010168851413,-0.6700900530831413, 0.21715084095431167, -0.23489437463474883, 0.01754844853193204, 0.0005690775803826642, -0.669582850662745,1.0,-8791.046053356842, -2846.453363366072, 21693.8754675887, -76.88243790828727, 222.33006995968424, 38.41791028834194,1.0,769
2537.317,-0.3497768171076041, -1.6427307407079255, -1.6866464634000087, -1.3832916723806026, 1.5714589276180946, 2.0557550204532475,-0.6706989084052771, 0.21548147113268654, -0.23296440628903506, 0.01728747636449205, 0.0005655122356037434, -0.670193344208758,1.0,-8791.590299987427, -2845.8572784159833, 21693.972358440282, -76.89171976733675, 222.34743492277113, 38.422164211121924,1.0,769
2537.325,-0.35142620712223227, -1.6422031186846775, -1.6872167427569913, -1.383249495962513, 1.5714603133153224, 2.0541068711590396,-0.671302388283984, 0.21381034906203472, -0.23103540306896073, 0.017029223036802262, 0.0005619391463483364, -0.6707984573879932,1.0,-8791.048536353357, -2845.6351093934345, 21694.11506580647, -76.89015544874238, 222.34210253272636, 38.41870632691459,1.0,769
2537.333,-0.3530777403491001, -1.6416793952422752, -1.6877825099254151, -1.3832079342596861, 1.5714616907759102, 2.0524565751430615,-0.6719004959904906, 0.212137514049001, -0.22910739072560768, 0.016773674997240518, 0.0005583584066922885, -0.6713981934729366,1.0,-8790.942930267976, -2845.572665242041, 21693.92400736638, -76.9086386086789, 222.3508007202285, 38.415009070257526,1.0,769
2537.341,-0.35473141059794955, -1.6411595760321696, -1.6883437655255698, -1.383166980999194, 1.5714630599789075, 2.0508041386087963,-0.6724932350599457, 0.21046300527139222, -0.22718039467923629, 0.016520818493384316, 0.0005547701293580827, -0.6719925559636365,1.0,-8790.924986776377, -2846.407164733424, 21693.755392542433, -76.87403171620636, 222.32519721584288, 38.42022943882492,1.0,769
2537.3489999999997,-0.3563872116154503, -1.640643666680428, -1.6889005101687582, -1.3831266299424394, 1.5714644209034399, 2.0491495678227536,-0.6730806092354524, 0.2087868617663168, -0.2252544400105267, 0.016270639582937778, 0.0005511744109117283, -0.6725815486428989,1.0,-8791.237396705485, -2845.4587015022817, 21693.718549239773, -76.90142761177205, 222.33689746322182, 38.41461891716631,1.0,769
2537.357,-0.3580451370851989, -1.6401316727873434, -1.689452744457375, -1.3830868748854899, 1.5714657735287123, 2.0474928691144214,-0.673662622516742, 0.2071091224323868, -0.2233295514632312, 0.016023124125693528, 0.0005475713565466885, -0.673165175518792,1.0,-8790.775089259108, -2845.7249068331175, 21693.75375861253, -76.89601268713997, 222.3347660285042, 38.425401171341775,1.0,769
2537.365,-0.3597051806277136, -1.6396235999270052, -1.6900004689850414, -1.3830477096593503, 1.5714671178340138, 2.0458340488763085,-0.6742392791889654, 0.20542982601727447, -0.2214057534220758, 0.015778257732572597, 0.0005439610694439987, -0.6737434408008283,1.0,-8790.224941236058, -2845.960720966852, 21693.95302220984, -76.89015492862342, 222.34159901513198, 38.41621223794411,1.0,769
2537.373,-0.36136733580043234, -1.6391194536468863, -1.690543684336708, -1.3830091281302668, 1.5714684537987096, 2.044173113563904,-0.6748105836885906, 0.2037490111389802, -0.21948306996784067, 0.015536025914243945, 0.0005403436476609656, -0.6743163489985823,1.0,-8790.96821286042, -2846.4198944763157, 21694.03151638549, -76.88515246733076, 222.34260916184877, 38.42802575849964,1.0,769
2537.381,-0.36303159609772084, -1.6386192394674461, -1.6910823910887522, -1.38297112420004, 1.5714697814022498, 2.0425100696957075,-0.6753765407411694, 0.2020667162476425, -0.2175615248044764, 0.015296413915489606, 0.0005367191994279103, -0.6748839048162021,1.0,-8791.186982745612, -2845.891589952861, 21693.87892881284, -76.88531302893523, 222.32327023410534, 38.421998016733966,1.0,769
