dlisjak-bit/sensor_synchronization/realtime_sync/robot_reference.csv
t,q0,q1,q2,q3,q4,q5,qd0,qd1,qd2,qd3,qd4,qd5,ss,f0,f1,f2,f3,f4,f5,tsf,do
15782.492999999999,1.700890421899082, -1.2395330679827188, -1.6309483768692639, -1.8442703117577262, 1.5713680982750216, 1.700252175376265,0.0, 0.0, 0.0, 0.0, 0.0, 0.0,1.0,-8748.892346386368, -2834.194965513597, 21548.916760139567, -76.59808589528203, 220.9663629344521, 38.13293200166933,1.0,801
15782.500999999998,1.700890421899082, -1.2395330679827188, -1.6309483768692639, -1.8442703117577262, 1.5713680982750216, 1.700252175376265,0.0, 0.0, 0.0, 0.0, 0.0, 0.0,1.0,-8749.154730577937, -2834.1590765526635, 21548.3826440824, -76.61002956332237, 220.97907667856157, 38.135213119101536,1.0,801
15782.509,1.700890421899082, -1.2395330679827188, -1.6309483768692639, -1.8442703117577262, 1.5713680982750216, 1.700252175376265,0.0, 0.0, 0.0, 0.0, 0.0, 0.0,1.0,-8747.165216955713, -2832.973040390114, 21547.799221092147, -76.67335562261007, 221.05963733553153, 38.14803604730511,1.0,801
15782.517,1.7008876293722788, -1.2395332693498196, -1.630948758649403, -1.8442697242214825, 1.571368094645022, 1.7002493831359191,-0.6953918457378017, -0.05014420629433401, -0.0950704557042924, 0.14630760666492065, -0.0009039383882633385, -0.6953205124516578,1.0,-8746.42018688576, -2832.332035819588, 21548.04534684806, -76.69981383580131, 221.11427776044974, 38.14567680579847,1.0,801
15782.525,1.700820608729002, -1.239538102160246, -1.6309579213727465, -1.8442556233516267, 1.5713680075250296, 1.7001823693676192,-0.6953918457378016, -0.050144206294334005, -0.0950704557042924, 0.14630760666492065, -0.0009039383882633384, -0.6953205124516578,1.0,-8747.098293689844, -2832.671643927012, 21548.24048453074, -76.66518402820387, 221.08145549893146, 38.1572019221276,1.0,801
15782.533,1.7006642272280235, -1.239549378717907, -1.630979301060549, -1.844222721321966, 1.5713678042450474, 1.7000260039082529,-0.6953918457378017, -0.05014420629433402, -0.09507045570429243, 0.14630760666492068, -0.0009039383882633387, -0.6953205124516579,1.0,-8749.912421659066, -2832.2510922522524, 21548.856035136097, -76.65801900973679, 220.93406910494895, 38.19446847858035,1.0,801
15782.541,1.7004184848693427, -1.2395670990228034, -1.6310128977128082, -1.8441710181324975, 1.5713674848050756, 1.6997802867578198,-0.6953918457378017, -0.05014420629433401, -0.09507045570429241, 0.14630760666492065, -0.0009039383882633387, -0.6953205124516578,1.0,-8748.700289603381, -2834.3837082032396, 21548.61747374495, -76.59417307708051, 220.9880022312933, 38.2297131185218,1.0,801
15782.548999999999,1.7000833816529597, -1.239591263074935, -1.6310587113295263, -1.8441005137832231, 1.571367049205114, 1.6994452179163204,-0.6953918457378017, -0.05014420629433402, -0.09507045570429241, 0.14630760666492065, -0.0009039383882633387, -0.6953205124516579,1.0,-8747.323278880127, -2832.376443525888, 21547.933371280196, -76.70342577839938, 221.08313022983407, 38.30112844740651,1.0,801
15782.556999999999,1.6996589175788748, -1.239621870874302, -1.6311167419107022, -1.8440112082741411, 1.5713664974451627, 1.6990207973837543,-0.6953918457378017, -0.05014420629433402, -0.09507045570429241, 0.14630760666492065, -0.0009039383882633387, -0.6953205124516579,1.0,-8747.244310869166, -2830.656432351084, 21547.80842800118, -76.75691762246996, 221.08278945204734, 38.37528557153789,1.0,801
15782.564999999999,1.6991450926470877, -1.2396589224209036, -1.6311869894563369, -1.8439031016052532, 1.5713658295252213, 1.6985070251601218,-0.6953918457378017, -0.05014420629433402, -0.09507045570429241, 0.14630760666492065, -0.0009039383882633385, -0.6953205124516579,1.0,-8748.467768544884, -2832.31504266353, 21548.318520498444, -76.69375196646286, 221.03162120645845, 38.423362052671024,1.0,801
15782.572999999999,1.6985419068575984, -1.2397024177147404, -1.6312694539664294, -1.8437761937765593, 1.5713650454452905, 1.6979039012454227,-0.6953918457378017, -0.05014420629433401, -0.09507045570429241, 0.14630760666492065, -0.0009039383882633385, -0.6953205124516578,1.0,-8749.340152457464, -2834.3318961371597, 21548.789140730718, -76.61288680829068, 220.97096014036225, 38.337579966364814,1.0,801
15782.581,1.697849360210407, -1.2397523567558117, -1.6313641354409807, -1.8436304847880578, 1.5713641452053697, 1.6972114256396569,-0.6953918457378017, -0.05014420629433402, -0.09507045570429241, 0.14630760666492068, -0.0009039383882633387, -0.6953205124516579,1.0,-8748.527937330307, -2834.3695722979473, 21548.39215300716, -76.6286402814662, 221.02508761801982, 38.337593356254615,1.0,801
15782.589,1.6970674527055136, -1.2398087395441184, -1.631471033879989, -1.8434659746397504, 1.5713631288054593, 1.6964295983428248,-0.6953918457378017, -0.05014420629433402, -0.09507045570429241, 0.14630760666492065, -0.0009039383882633388, -0.6953205124516579,1.0,-8747.585772618359, -2831.952792419819, 21548.084642376518, -76.73999390202405, 221.06900490903104, 38.353497918545145,1.0,801
15782.597,1.6961961843429179, -1.2398715660796604, -1.631590149283456, -1.8432826633316362, 1.5713619962455592, 1.695558419354926,-0.6953918457378016, -0.050144206294334005, -0.09507045570429239, 0.14630760666492063, -0.0009039383882633385, -0.6953205124516578,1.0,-8747.502244181724, -2830.987912885289, 21547.942720599225, -76.74661020632635, 221.0679703337603, 38.35098378314305,1.0,801
15782.605,1.6952355551226204, -1.239940836362437, -1.6317214816513808, -1.8430805508637151, 1.571360747525669, 1.694597888675961,-0.6953918457378017, -0.05014420629433402, -0.0950704557042924, 0.14630760666492065, -0.0009039383882633388, -0.6953205124516579,1.0,-8748.235132574853, -2833.053468543946, 21548.29951458234, -76.6643873650712, 221.02552676736968, 38.337259008476906,1.0,801
15782.613,1.6941855650446205, -1.2400165503924487, -1.6318650309837643, -1.8428596372359873, 1.5713593826457892, 1.6935480063059292,-0.6953918457378016, -0.050144206294334005, -0.0950704557042924, 0.14630760666492063, -0.0009039383882633385, -0.6953205124516577,1.0,-8748.96594375929, -2834.611421288211, 21548.82627811984, -76.61416301429506, 220.98137876135905, 38.33055786092663,1.0,801
15782.621,1.6930462141089186, -1.240098708169696, -1.6320207972806058, -1.8426199224484536, 1.5713579016059198, 1.6924087722448309,-0.6953918457378016, -0.050144206294334005, -0.0950704557042924, 0.14630760666492063, -0.0009039383882633385, -0.6953205124516578,1.0,-8748.039323564572, -2832.6986353297607, 21548.530952826364, -76.68558925023831, 221.01398152607828, 38.33697952359307,1.0,801
15782.628999999999,1.6918175023155146, -1.2401873096941785, -1.632188780541905, -1.8423614065011122, 1.5713563044060606, 1.6911801864926659,-0.6953918457378016, -0.050144206294334005, -0.0950704557042924, 0.14630760666492063, -0.0009039383882633385, -0.6953205124516578,1.0,-8747.217544307712, -2832.0138931997644, 21547.945239131855, -76.71641265816817, 221.05400698463166, 38.35474467135799,1.0,801
15782.636999999999,1.6904994296644085, -1.2402823549658955, -1.6323689807676631, -1.8420840893939658, 1.5713545910462114, 1.6898622490494346,-0.6953918457378016, -0.05014420629433401, -0.0950704557042924, 0.14630760666492065, -0.0009039383882633387, -0.6953205124516578,1.0,-8747.424012481155, -2832.007707431768, 21547.93245617681, -76.73020760924365, 221.04663480809387, 38.33934918520805,1.0,801
15782.644999999999,1.6890919961556001, -1.240383843984847, -1.632561397957879, -1.8417879711270118, 1.5713527615263727, 1.6884549599151366,-0.6953918457378016, -0.05014420629433401, -0.0950704557042924, 0.14630760666492065, -0.0009039383882633385, -0.6953205124516578,1.0,-8747.887826023498, -2832.5806374881577, 21548.45472961509, -76.673202475902, 221.03221680245662, 38.340387069339926,1.0,801
15782.652999999998,1.6875952017890898, -1.2404917767510346, -1.6327660321125528, -1.8414730517002509, 1.571350815846544, 1.6869583190897723,-0.6953918457378016, -0.05014420629433402, -0.09507045570429241, 0.14630760666492065, -0.0009039383882633385, -0.6953205124516578,1.0,-8749.031016270968, -2833.782448199121, 21549.192971329292, -76.6184544781143, 220.98808309356724, 38.33110038930232,1.0,801
15782.661,1.6860090465648774, -1.2406061532644568, -1.6329828832316853, -1.841139331113684, 1.5713487540067257, 1.6853723265733414,-0.6953918457378016, -0.05014420629433401, -0.0950704557042924, 0.14630760666492065, -0.0009039383882633384, -0.6953205124516578,1.0,-8748.05438217227, -2833.779120215966, 21548.578421311628, -76.64960377571578, 221.0370657682597, 38.33199729037233,1.0,801
15782.669,1.684333530482963, -1.2407269735251134, -1.6332119513152756, -1.8407868093673105, 1.5713465760069174, 1.6836969823658439,-0.6953918457378016, -0.05014420629433402, -0.09507045570429241, 0.14630760666492065, -0.0009039383882633385, -0.6953205124516579,1.0,-8747.320823396722, -2831.8579110814107, 21548.086387720326, -76.71852414378085, 221.0643663817296, 38.33345614717558,1.0,801
15782.677,1.6825686535433462, -1.2408542375330063, -1.6334532363633238, -1.8404154864611302, 1.5713442818471195, 1.6819322864672797,-0.6953918457378016, -0.050144206294334005, -0.0950704557042924, 0.14630760666492065, -0.0009039383882633384, -0.6953205124516578,1.0,-8747.908715345311, -2831.2177533491613, 21547.95419961264, -76.75018799329428, 221.0384316609959, 38.35045274551871,1.0,801
15782.685,1.6807144157460274, -1.2409879452881336, -1.6337067383758308, -1.840025362395143, 1.571341871527332, 1.6800782388776492,-0.6953918457378017, -0.05014420629433401, -0.0950704557042924, 0.14630760666492065, -0.0009039383882633385, -0.6953205124516579,1.0,-8748.49562918164, -2833.2302305928088, 21548.419949539682, -76.65690890095513, 221.01652331678144, 38.32787600964849,1.0,801
15782.693,1.6787708170910065, -1.2411280967904963, -1.6339724573527956, -1.83961643716935, 1.5713393450475546, 1.678134839596952,-0.6953918457378016, -0.050144206294334005, -0.0950704557042924, 0.14630760666492065, -0.0009039383882633384, -0.6953205124516578,1.0,-8749.133903187694, -2833.8894034635578, 21548.909049576916, -76.61728359770763, 220.98509698821414, 38.334199688368955,1.0,801
15782.701,1.6767378575782836, -1.2412746920400934, -1.6342503932942183, -1.8391887107837501, 1.5713367024077873, 1.6761020886251885,-0.6953918457378014, -0.050144206294334005, -0.09507045570429239, 0.14630760666492063, -0.0009039383882633384, -0.6953205124516578,1.0,-8748.103228748325, -2833.3033094541315, 21548.668030630866, -76.67520733650395, 221.04491545719185, 38.32551177987503,1.0,801
15782.708999999999,1.6746155372078584, -1.241427731036926, -1.6345405462000997, -1.8387421832383435, 1.5713339436080302, 1.6739799859623583,-0.6953918457378016, -0.050144206294334005, -0.0950704557042924, 0.14630760666492065, -0.0009039383882633384, -0.6953205124516578,1.0,-8747.480706819017, -2832.2308056841084, 21548.300530699984, -76.73534208576768, 221.0668043793221, 38.35600461743138,1.0,801
15782.716999999999,1.6724038559797312, -1.2415872137809938, -1.634842916070438, -1.8382768545331292, 1.5713310686482835, 1.6717685316084616,-0.6953918457378017, -0.05014420629433402, -0.0950704557042924, 0.14630760666492065, -0.0009039383882633385, -0.6953205124516578,1.0,-8747.142905724359, -2831.8040207360855, 21548.13281232011, -76.7117424615746, 221.0653414087833, 38.342349961059114,1.0,801
15782.724999999999,1.6701028138939018, -1.241753140272296, -1.635157502905236, -1.8377927246681098, 1.571328077528547, 1.6694677255634982,-0.6953918457378016, -0.05014420629433402, -0.09507045570429241, 0.14630760666492065, -0.0009039383882633387, -0.6953205124516579,1.0,-8748.02744470012, -2833.0048279109733, 21548.439063581078, -76.6681517159245, 221.02014726344032, 38.32317350915051,1.0,801
15782.733,1.6677124109503705, -1.2419255105108338, -1.635484306704491, -1.8372897936432837, 1.5713249702488208, 1.6670775678274685,-0.6953918457378017, -0.050144206294334026, -0.09507045570429241, 0.14630760666492068, -0.0009039383882633387, -0.6953205124516579,1.0,-8748.057283152039, -2834.824423093388, 21549.075218863858, -76.58405620183032, 221.01154840468348, 38.34225755362539,1.0,801
15782.741,1.665232647149137, -1.2421043244966068, -1.6358233274682048, -1.8367680614586508, 1.5713217468091047, 1.6645980584003721,-0.6953918457378017, -0.05014420629433402, -0.09507045570429241, 0.14630760666492068, -0.0009039383882633387, -0.6953205124516578,1.0,-8748.553601098007, -2833.223796613788, 21548.469906953374, -76.66282209991189, 221.0093366868059, 38.34713263120017,1.0,801
15782.749,1.6626635224902013, -1.2422895822296152, -1.6361745651963773, -1.836227528114211, 1.5713184072093989, 1.6620291972822094,-0.6953918457378017, -0.05014420629433402, -0.0950704557042924, 0.14630760666492065, -0.0009039383882633385, -0.6953205124516579,1.0,-8748.133690970975, -2830.952037653602, 21547.52356957803, -76.7543589563532, 221.03050898122996, 38.34275280737697,1.0,801
15782.757,1.6600050369735635, -1.242481283709858, -1.6365380198890067, -1.8356681936099646, 1.5713149514497033, 1.65937098447298,-0.6953918457378016, -0.05014420629433401, -0.0950704557042924, 0.14630760666492065, -0.0009039383882633385, -0.6953205124516578,1.0,-8747.676729513309, -2832.144883374557, 21547.791519081915, -76.7090333103323, 221.02336508341415, 38.34903454093495,1.0,801
15782.765,1.6572571905992237, -1.2426794289373362, -1.636913691546095, -1.8350900579459122, 1.571311379530018, 1.6566234199726841,-0.6953918457378017, -0.05014420629433402, -0.09507045570429243, 0.14630760666492068, -0.0009039383882633388, -0.6953205124516579,1.0,-8747.7844783387, -2833.5503369145135, 21548.408618379868, -76.66137249364547, 221.03045771120696, 38.35106533163548,1.0,801
15782.773,1.6544199833671815, -1.2428840179120488, -1.637301580167641, -1.834493121122052, 1.571307691450343, 1.6537865037813215,-0.6953918457378017, -0.05014420629433402, -0.09507045570429241, 0.14630760666492065, -0.0009039383882633387, -0.6953205124516578,1.0,-8748.615800489011, -2833.113347701208, 21549.235901876305, -76.6468953111723, 221.03027292572472, 38.354379898479664,1.0,801
15782.780999999999,1.6514934152774374, -1.2430950506339968, -1.6377016857536457, -1.833877383138386, 1.5713038872106782, 1.6508602358988926,-0.6953918457378017, -0.05014420629433401, -0.09507045570429241, 0.14630760666492065, -0.0009039383882633387, -0.6953205124516579,1.0,-8748.065495867453, -2832.309639973101, 21548.55095235723, -76.68746660734612, 221.0729679588983, 38.33345297325582,1.0,801
15782.788999999999,1.6484774863299914, -1.2433125271031802, -1.6381140083041084, -1.8332428439949133, 1.5712999668110235, 1.647844616325397,-0.6953918457378016, -0.05014420629433401, -0.0950704557042924, 0.14630760666492065, -0.0009039383882633385, -0.6953205124516578,1.0,-8748.537809629159, -2832.2320206721997, 21547.78694967658, -76.7124247492709, 221.02778114361018, 38.34262107927972,1.0,801
15782.796999999999,1.645372196524843, -1.243536447319598, -1.6385385478190289, -1.8325895036916346, 1.571295930251379, 1.6447396450608351,-0.6953918457378016, -0.05014420629433401, -0.0950704557042924, 0.14630760666492065, -0.0009039383882633384, -0.6953205124516578,1.0,-8748.356468174923, -2832.4858034171248, 21547.730463386408, -76.71051009849015, 221.01646550187633, 38.3356625879409,1.0,801
15782.804999999998,1.6421775458619925, -1.2437668112832512, -1.6389753042984072, -1.8319173622285483, 1.5712917775317448, 1.6415453221052065,-0.6953918457378017, -0.05014420629433402, -0.09507045570429241, 0.14630760666492065, -0.0009039383882633387, -0.6953205124516579,1.0,-8748.434030167784, -2833.223939448423, 21548.424519806817, -76.64861520328881, 221.01425052739927, 38.324920644284276,1.0,801
15782.813,1.6388935343414401, -1.2440036189941397, -1.6394242777422452, -1.831226419605656, 1.571287508652121, 1.6382616474585114,-0.6953918457378016, -0.05014420629433401, -0.09507045570429241, 0.14630760666492065, -0.0009039383882633385, -0.6953205124516578,1.0,-8748.714594802708, -2831.962226287549, 21549.70471817662, -76.67918276063699, 220.9986789033557, 38.33960782704071,1.0,801
15782.821,1.6355201619631854, -1.2442468704522636, -1.6398854681505401, -1.830516675822957, 1.571283123612507, 1.6348886211207498,-0.6953918457378016, -0.05014420629433401, -0.0950704557042924, 0.14630760666492063, -0.0009039383882633385, -0.6953205124516578,1.0,-8747.195234611432, -2833.879962422243, 21549.196146245704, -76.63649715720766, 221.10516953982142, 38.323261494948895,1.0,801
15782.829,1.6320574287272287, -1.244496565657622, -1.640358875523293, -1.829788130880452, 1.5712786224129036, 1.6314262430919215,-0.6953918457378017, -0.050144206294334026, -0.09507045570429243, 0.14630760666492068, -0.0009039383882633387, -0.6953205124516578,1.0,-8747.52478694791, -2832.6654047495285, 21548.307880252578, -76.69562453386479, 221.0532914755285, 38.35229605871669,1.0,801
15782.837,1.6285053346335698, -1.2447527046102147, -1.6408444998605045, -1.8290407847781394, 1.5712740050533105, 1.627874513372027,-0.6953918457378016, -0.05014420629433401, -0.09507045570429241, 0.14630760666492065, -0.0009039383882633387, -0.6953205124516579,1.0,-8748.827317104515, -2831.551576865999, 21547.502156400682, -76.73200696448467, 220.97214029802592, 38.35478658496248,1.0,801
15782.845,1.6248638796822088, -1.2450152873100437, -1.641342341162174, -1.8282746375160208, 1.5712692715337275, 1.6242334319610656,-0.6953918457378016, -0.05014420629433402, -0.09507045570429241, 0.14630760666492065, -0.0009039383882633385, -0.6953205124516578,1.0,-8748.598439665036, -2832.4064401637934, 21548.022710834328, -76.67638565963415, 221.00061202612937, 38.35120985270896,1.0,801
15782.853,1.6211330638731458, -1.2452843137571072, -1.641852399428302, -1.8274896890940955, 1.5712644218541547, 1.6205029988590378,-0.6953918457378016, -0.05014420629433401, -0.0950704557042924, 0.14630760666492063, -0.0009039383882633385, -0.6953205124516578,1.0,-8748.651566613413, -2833.8241785963637, 21549.471933808283, -76.63270291955868, 221.0061771043499, 38.325849530010316,1.0,801
15782.860999999999,1.6173128872063804, -1.2455597839514052, -1.642374674658888, -1.8266859395123634, 1.571259456014592, 1.6166832140659435,-0.6953918457378017, -0.05014420629433402, -0.09507045570429241, 0.14630760666492065, -0.0009039383882633387, -0.6953205124516579,1.0,-8747.619015045313, -2833.388611456624, 21549.06849083067, -76.6658051801071, 221.0789496954613, 38.33314050773299,1.0,801
15782.868999999999,1.6134033496819131, -1.2458416978929394, -1.642909166853932, -1.8258633887708244, 1.5712543740150398, 1.6127740775817827,-0.6953918457378016, -0.05014420629433401, -0.09507045570429241, 0.14630760666492065, -0.0009039383882633387, -0.6953205124516578,1.0,-8748.513969495849, -2832.089146128803, 21547.862323268266, -76.7057428291393, 221.01918500961528, 38.33697558078063,1.0,801
15782.876999999999,1.6094044512997439, -1.246130055581708, -1.6434558760134337, -1.8250220368694796, 1.5712491758554978, 1.6087755894065554,-0.6953918457378016, -0.05014420629433402, -0.09507045570429241, 0.14630760666492065, -0.0009039383882633385, -0.6953205124516578,1.0,-8747.796371251232, -2832.0571681985703, 21547.339327207912, -76.7211483331445, 221.02675118282946, 38.36263608532232,1.0,801
15782.884999999998,1.6053161920598722, -1.246424857017712, -1.644014802137395, -1.824161883808328, 1.5712438615359658, 1.6046877495402614,-0.6953918457378016, -0.05014420629433401, -0.0950704557042924, 0.14630760666492063, -0.0009039383882633385, -0.6953205124516578,1.0,-8748.923986421747, -2831.665440415608, 21547.9726985912, -76.70209742590879, 220.9961879241983, 38.34547379273232,1.0,801
15782.893,1.6011385719622986, -1.2467261022009506, -1.6445859452258134, -1.8232829295873696, 1.5712384310564442, 1.6005105579829009,-0.6953918457378017, -0.05014420629433402, -0.09507045570429241, 0.14630760666492065, -0.0009039383882633387, -0.6953205124516578,1.0,-8747.531906921507, -2835.4974954593354, 21549.838405044324, -76.5877508521715, 221.04947748379095, 38.36348434809011,1.0,801
15782.901,1.596871591007023, -1.2470337911314244, -1.6451693052786895, -1.8223851742066044, 1.571232884416933, 1.596244014734474,-0.6953918457378017, -0.05014420629433402, -0.09507045570429243, 0.14630760666492068, -0.0009039383882633388, -0.6953205124516579,1.0,-8749.306086474719, -2832.814972068205, 21548.758936192848, -76.69226090913386, 220.98736133847478, 38.37183230446959,1.0,801
15782.909,1.592515249194045, -1.2473479238091336, -1.6457648822960245, -1.8214686176660333, 1.5712272216174317, 1.5918881197949803,-0.6953918457378017, -0.05014420629433402, -0.09507045570429241, 0.14630760666492065, -0.0009039383882633385, -0.6953205124516579,1.0,-8747.543734751189, -2832.16698288915, 21547.89577629503, -76.71807616689284, 221.0659975412073, 38.36784144596737,1.0,801
15782.917,1.5880695465233652, -1.2476685002340773, -1.6463726762778172, -1.8205332599656545, 1.5712214426579407, 1.5874428731644203,-0.6953918457378016, -0.05014420629433401, -0.0950704557042924, 0.14630760666492063, -0.0009039383882633385, -0.6953205124516578,1.0,-8748.550021212523, -2831.963573520894, 21547.853532431665, -76.72915932411948, 221.03828356730696, 38.374560449176045,1.0,801
15782.925,1.583534482994983, -1.2479955204062563, -1.6469926872240688, -1.8195791011054698, 1.5712155475384602, 1.5829082748427938,-0.6953918457378017, -0.05014420629433402, -0.09507045570429241, 0.14630760666492065, -0.0009039383882633387, -0.6953205124516579,1.0,-8748.35028830199, -2833.2373567472723, 21548.649574365125, -76.67160524508415, 221.02896687557802, 38.35587472358611,1.0,801
15782.932999999999,1.5789100586088989, -1.2483289843256706, -1.6476249151347782, -1.8186061410854784, 1.5712095362589897, 1.5782843248301006,-0.6953918457378017, -0.05014420629433401, -0.09507045570429241, 0.14630760666492065, -0.0009039383882633387, -0.6953205124516579,1.0,-8749.079851325323, -2834.1262278036393, 21548.94344846723, -76.61640870859003, 220.96395254159887, 38.3223945882732,1.0,801
15782.940999999999,1.5741962733651125, -1.2486688919923203, -1.6482693600099454, -1.817614379905681, 1.5712034088195295, 1.5735710231263411,-0.6953918457378016, -0.05014420629433402, -0.09507045570429241, 0.14630760666492065, -0.0009039383882633385, -0.6953205124516578,1.0,-8748.888130928746, -2831.4724359313923, 21548.125312396765, -76.71711110069828, 221.0210442774527, 38.374964359476365,1.0,801
15782.948999999999,1.5693931272636241, -1.2490152434062045, -1.6489260218495705, -1.816603817566076, 1.5711971652200796, 1.568768369731515,-0.6953918457378017, -0.05014420629433401, -0.0950704557042924, 0.14630760666492063, -0.0009039383882633385, -0.6953205124516578,1.0,-8746.610360831113, -2832.7438132081643, 21548.07689627619, -76.69461581116323, 221.07689370100343, 38.369053729338134,1.0,801
15782.956999999999,1.5645006203044336, -1.249368038567324, -1.6495949006536543, -1.815574454066665, 1.5711908054606398, 1.5638763646456222,-0.6953918457378017, -0.05014420629433402, -0.09507045570429241, 0.14630760666492065, -0.0009039383882633387, -0.6953205124516579,1.0,-8748.703124638623, -2831.8677658935476, 21548.464657378063, -76.73558776049944, 220.99116105480203, 38.36642599568714,1.0,801
15782.965,1.559518752487541, -1.249727277475678, -1.650275996422197, -1.8145262894074472, 1.5711843295412102, 1.558895007868663,-0.6953918457378016, -0.05014420629433401, -0.09507045570429241, 0.14630760666492065, -0.0009039383882633387, -0.6953205124516578,1.0,-8748.180224696283, -2833.1379805306833, 21548.31159333887, -76.65481115648285, 221.02727014818265, 38.350460847584344,1.0,801
15782.973,1.5544475238129463, -1.2500929601312674, -1.6509693091551965, -1.8134593235884227, 1.571177737461791, 1.553824299400637,-0.6953918457378017, -0.05014420629433401, -0.09507045570429241, 0.14630760666492065, -0.0009039383882633385, -0.6953205124516578,1.0,-8749.034115816394, -2833.0123703939516, 21548.86029294636, -76.66663066928538, 220.99105764035187, 38.34416116791601,1.0,801
15782.981,1.5492869342806495, -1.250465086534092, -1.6516748388526548, -1.8123735566095922, 1.571171029222382, 1.5486642392415448,-0.6953918457378016, -0.05014420629433401, -0.0950704557042924, 0.14630760666492063, -0.0009039383882633385, -0.6953205124516578,1.0,-8748.996049700163, -2834.0923478258983, 21548.523941907475, -76.63802109934119, 220.99726200541966, 38.38371764953476,1.0,801
15782.989,1.5440369838906505, -1.2508436566841512, -1.652392585514571, -1.811268988470954, 1.571164204822983, 1.543414827391386,-0.6953918457378016, -0.05014420629433402, -0.09507045570429241, 0.14630760666492068, -0.0009039383882633387, -0.6953205124516578,1.0,-8747.325578471871, -2832.268799140418, 21547.729385501363, -76.71741058564982, 221.05445200955535, 38.351554860509225,1.0,801
15782.997,1.5386976726429493, -1.2512286705814457, -1.6531225491409458, -1.81014561917251, 1.5711572642635945, 1.5380760638501605,-0.6953918457378017, -0.05014420629433401, -0.09507045570429241, 0.14630760666492065, -0.0009039383882633387, -0.6953205124516578,1.0,-8746.896445461063, -2831.8335276256166, 21548.336715008925, -76.74586026652315, 221.05084178608405, 38.365143893757704,1.0,801
15783.005,1.5332690005375462, -1.2516201282259756, -1.6538647297317777, -1.8090034487142592, 1.571150207544216, 1.5326479486178686,-0.6953918457378016, -0.05014420629433401, -0.0950704557042924, 0.14630760666492063, -0.0009039383882633384, -0.6953205124516578,1.0,-8747.845043608377, -2832.8893426267514, 21548.69267042276, -76.68602010423345, 221.03267588662715, 38.35497583189189,1.0,801
15783.012999999999,1.527750967574441, -1.2520180296177408, -1.6546191272870683, -1.8078424770962025, 1.571143034664848, 1.5271304816945102,-0.6953918457378016, -0.05014420629433401, -0.0950704557042924, 0.14630760666492063, -0.0009039383882633385, -0.6953205124516578,1.0,-8750.70141336109, -2833.588480744098, 21548.89512479444, -76.62596753134073, 220.92433865525373, 38.37489048548696,1.0,801
15783.020999999999,1.5221435737536335, -1.2524223747567405, -1.6553857418068176, -1.806662704318338, 1.5711357456254902, 1.5215236630800852,-0.6953918457378017, -0.05014420629433402, -0.09507045570429243, 0.14630760666492068, -0.0009039383882633387, -0.6953205124516579,1.0,-8748.071035522367, -2832.1470982184464, 21547.975213651116, -76.69963212740456, 221.0422981919603, 38.33566618166114,1.0,801
15783.028999999999,1.5164468190751241, -1.2528331636429746, -1.6561645732910248, -1.8054641303806678, 1.5711283404261425, 1.5158274927745938,-0.6953918457378017, -0.05014420629433402, -0.09507045570429243, 0.14630760666492065, -0.0009039383882633388, -0.6953205124516579,1.0,-8748.252277028689, -2832.21579707777, 21548.022898316623, -76.70969022127764, 221.0057106218323, 38.35739288883519,1.0,801
15783.036999999998,1.5106607035389126, -1.253250396276445, -1.65695562173969, -1.8042467552831907, 1.5711208190668051, 1.5100419707780357,-0.6953918457378017, -0.05014420629433402, -0.09507045570429241, 0.14630760666492065, -0.0009039383882633387, -0.6953205124516579,1.0,-8748.40963353501, -2831.3192410868296, 21548.266031590338, -76.7224846949089, 221.01949730759407, 38.377836831715825,1.0,801
15783.045,1.5047852271449988, -1.2536740726571498, -1.6577588871528128, -1.8030105790259068, 1.571113181547478, 1.504167097090411,-0.6953918457378017, -0.05014420629433401, -0.09507045570429241, 0.14630760666492065, -0.0009039383882633387, -0.6953205124516578,1.0,-8746.844374225437, -2833.8742891386046, 21548.169108995247, -76.6474889608607, 221.06246827992567, 38.352923853788184,1.0,801
15783.053,1.498820389893383, -1.2541041927850891, -1.6585743695303945, -1.801755601608817, 1.5711054278681609, 1.49820287171172,-0.6953918457378016, -0.05014420629433401, -0.09507045570429241, 0.14630760666492065, -0.0009039383882633385, -0.6953205124516578,1.0,-8749.058274521669, -2833.7125967590437, 21549.518617154994, -76.63538302671057, 220.99225810640382, 38.332728961641806,1.0,801
15783.061,1.492766191784065, -1.2545407566602647, -1.659402068872435, -1.8004818230319195, 1.5710975580288542, 1.4921492946419623,-0.6953918457378017, -0.05014420629433402, -0.09507045570429241, 0.14630760666492065, -0.0009039383882633387, -0.6953205124516578,1.0,-8749.327053714027, -2832.5074887996743, 21548.402885460408, -76.67508530604911, 220.98201355089964, 38.395681903597705,1.0,801
15783.069,1.4866226328170449, -1.2549837642826747, -1.6602419851789323, -1.7991892432952161, 1.5710895720295577, 1.4860063658811382,-0.6953918457378016, -0.05014420629433401, -0.0950704557042924, 0.14630760666492065, -0.0009039383882633385, -0.6953205124516578,1.0,-8746.423355600293, -2831.4297148668084, 21547.724153921703, -76.73418215503426, 221.09444410289825, 38.39902613222128,1.0,801
15783.077,1.4803897129923227, -1.25543321565232, -1.6610941184498884, -1.7978778623987068, 1.5710814698702713, 1.4797740854292474,-0.6953918457378016, -0.05014420629433401, -0.0950704557042924, 0.14630760666492065, -0.0009039383882633384, -0.6953205124516578,1.0,-8749.175025193681, -2832.491151955419, 21548.184309682798, -76.68529381884471, 220.92640890791205, 38.371039521013216,1.0,801
15783.085,1.4740674323098986, -1.2558891107691998, -1.6619584686853024, -1.7965476803423899, 1.5710732515509953, 1.47345245328629,-0.6953918457378016, -0.05014420629433401, -0.09507045570429241, 0.14630760666492063, -0.0009039383882633385, -0.6953205124516578,1.0,-8747.182864554039, -2832.9500353075427, 21547.650180273624, -76.68310453300356, 221.0652512449592, 38.38104150085712,1.0,801
15783.092999999999,1.467655790769772, -1.256351449633315, -1.6628350358851742, -1.7951986971262661, 1.5710649170717295, 1.4670414694522664,-0.6953918457378017, -0.05014420629433402, -0.09507045570429243, 0.14630760666492065, -0.0009039383882633387, -0.6953205124516579,1.0,-8748.65877625354, -2833.9622300979872, 21549.2499744386, -76.6235313328398, 221.00653029598556, 38.35074646485498,1.0,801
15783.100999999999,1.4611547883719438, -1.2568202322446655, -1.6637238200495048, -1.7938309127503365, 1.571056466432474, 1.460541133927176,-0.6953918457378017, -0.05014420629433402, -0.09507045570429241, 0.14630760666492068, -0.0009039383882633387, -0.6953205124516579,1.0,-8750.017309241975, -2832.547478056642, 21548.889529246728, -76.67796811625755, 220.9715458544107, 38.369703706961815,1.0,801
15783.108999999999,1.4545644251164132, -1.2572954586032505, -1.6646248211782932, -1.7924443272146, 1.5710478996332287, 1.4539514467110193,-0.6953918457378016, -0.05014420629433401, -0.09507045570429239, 0.14630760666492063, -0.0009039383882633384, -0.6953205124516577,1.0,-8747.542892443511, -2831.5475115269373, 21547.857163024415, -76.72697326537661, 221.05966738254756, 38.36260423655372,1.0,801
15783.117,1.4478847010031803, -1.2577771287090709, -1.6655380392715404, -1.7910389405190568, 1.5710392166739935, 1.4472724078037957,-0.6953918457378016, -0.05014420629433401, -0.09507045570429241, 0.14630760666492065, -0.0009039383882633387, -0.6953205124516578,1.0,-8748.90426217302, -2832.4737368439646, 21548.13103434043, -76.72079707578783, 220.96797827767602, 38.33724404771095,1.0,801
15783.125,1.4411156160322456, -1.2582652425621266, -1.6664634743292446, -1.7896147526637076, 1.5710304175547687, 1.440504017205506,-0.6953918457378016, -0.05014420629433402, -0.09507045570429241, 0.14630760666492065, -0.0009039383882633387, -0.6953205124516578,1.0,-8747.038743792671, -2833.6546546425016, 21548.240707316254, -76.65381121559147, 221.07567945193006, 38.379071803334455,1.0,801
15783.133,1.4342571702036087, -1.2587598001624176, -1.6674011263514084, -1.7881717636485508, 1.571021502275554, 1.4336462749161494,-0.6953918457378016, -0.05014420629433401, -0.0950704557042924, 0.14630760666492065, -0.0009039383882633385, -0.6953205124516578,1.0,-8748.622244452083, -2833.75509966923, 21549.403587061945, -76.63404867624334, 221.02676766633186, 38.3941112534209,1.0,801
15783.141,1.4273093635172696, -1.2592608015099431, -1.668350995338029, -1.786709973473588, 1.5710124708363498, 1.4266991809357263,-0.6953918457378016, -0.050144206294334005, -0.0950704557042924, 0.14630760666492065, -0.0009039383882633384, -0.6953205124516578,1.0,-8749.850886920014, -2832.475560447393, 21548.07231737737, -76.70026621309205, 220.92003409151175, 38.32895008997596,1.0,801
15783.149,1.4202721959732285, -1.259768246604704, -1.6693130812891086, -1.7852293821388185, 1.5710033232371554, 1.4196627352642368,-0.6953918457378017, -0.05014420629433402, -0.09507045570429243, 0.14630760666492065, -0.0009039383882633388, -0.6953205124516579,1.0,-8745.89569336364, -2832.370127991435, 21547.90128732051, -76.72406948000818, 221.10724231761355, 38.37553261353037,1.0,801
15783.157,1.4131456675714853, -1.2602821354466993, -1.670287384204646, -1.7837299896442431, 1.5709940594779717, 1.4125369379016808,-0.6953918457378016, -0.05014420629433401, -0.0950704557042924, 0.14630760666492063, -0.0009039383882633385, -0.6953205124516577,1.0,-8750.42961840179, -2832.788651529855, 21548.390550012773, -76.7060356091296, 220.90036052404992, 38.36392884878464,1.0,801
15783.164999999999,1.4059297783120397, -1.26080246803593, -1.6712739040846412, -1.78221179598986, 1.5709846795587978, 1.4053217888480583,-0.6953918457378017, -0.05014420629433402, -0.09507045570429241, 0.14630760666492065, -0.0009039383882633387, -0.6953205124516578,1.0,-8746.076554196175, -2833.948978311292, 21548.37384105586, -76.6358850309916, 221.1137811212854, 38.41196886128358,1.0,801
15783.172999999999,1.3986245281948924, -1.261329244372396, -1.6722726409290951, -1.780674801175671, 1.5709751834796344, 1.398017288103369,-0.6953918457378016, -0.050144206294334005, -0.0950704557042924, 0.14630760666492063, -0.0009039383882633385, -0.6953205124516578,1.0,-8750.480588089617, -2832.6079634154985, 21549.388165542332, -76.66667088470228, 220.93262054434285, 38.352275207233504,1.0,801
15783.180999999999,1.3912299172200426, -1.2618624644560965, -1.6732835947380078, -1.7791190052016752, 1.570965571240481, 1.3906234356676135,-0.6953918457378017, -0.05014420629433401, -0.09507045570429241, 0.14630760666492065, -0.0009039383882633387, -0.6953205124516579,1.0,-8747.842748406822, -2832.8924747845995, 21548.46293207733, -76.68731326125163, 221.03403631964886, 38.32773437269381,1.0,801
15783.188999999998,1.3837459453874912, -1.2624021282870324, -1.6743067655113775, -1.7775444080678726, 1.5709558428413382, 1.3831402315407912,-0.6953918457378016, -0.05014420629433401, -0.0950704557042924, 0.14630760666492065, -0.0009039383882633387, -0.6953205124516578,1.0,-8749.474262370984, -2832.1020393073095, 21548.1252497553, -76.71335859135522, 220.99491873737668, 38.40935412615153,1.0,801
15783.197,1.3761726126972373, -1.2629482358652036, -1.6753421532492059, -1.7759510097742641, 1.5709459982822054, 1.3755676757229025,-0.6953918457378017, -0.05014420629433402, -0.0950704557042924, 0.14630760666492065, -0.0009039383882633385, -0.6953205124516578,1.0,-8747.865670825751, -2834.020798251303, 21547.587183433647, -76.66667683036945, 220.981504135063, 38.40055254769592,1.0,801
15783.205,1.3685099191492813, -1.2635007871906092, -1.6763897579514921, -1.774338810320848, 1.570936037563083, 1.3679057682139473,-0.6953918457378016, -0.050144206294334005, -0.09507045570429241, 0.14630760666492065, -0.0009039383882633387, -0.6953205124516578,1.0,-8747.608783730837, -2832.1536568222, 21548.577420033904, -76.70696414757683, 221.05753408496417, 38.430357145198,1.0,801
15783.213,1.3607578647436234, -1.2640597822632502, -1.6774495796182363, -1.7727078097076259, 1.5709259606839705, 1.3601545090139255,-0.6953918457378016, -0.05014420629433401, -0.0950704557042924, 0.14630760666492063, -0.0009039383882633385, -0.6953205124516578,1.0,-8751.420872795023, -2833.1461662985876, 21549.358977764474, -76.66876235895674, 220.84986979014792, 38.32742424009544,1.0,801
15783.221,1.3529164494802632, -1.2646252210831266, -1.6785216182494391, -1.771058007934597, 1.5709157676448686, 1.352313898122837,-0.6953918457378017, -0.05014420629433402, -0.09507045570429241, 0.14630760666492065, -0.0009039383882633387, -0.6953205124516579,1.0,-8746.054369261592, -2833.0394642204483, 21549.02866682301, -76.68948707564454, 221.15602452522592, 38.37852758800119,1.0,801
15783.229,1.344985673359201, -1.2651971036502374, -1.6796058738450999, -1.7693894050017613, 1.5709054584457767, 1.3443839355406824,-0.6953918457378017, -0.05014420629433402, -0.09507045570429243, 0.14630760666492065, -0.0009039383882633387, -0.6953205124516579,1.0,-8750.164118796903, -2834.8157988982284, 21547.701504214187, -76.64486333484876, 220.8562955268422, 38.380100834502514,1.0,801
15783.237,1.3369655363804365, -1.2657754299645845, -1.6807023464052193, -1.7677020009091198, 1.570895033086695, 1.336364621267461,-0.6953918457378016, -0.050144206294334005, -0.0950704557042924, 0.14630760666492063, -0.0009039383882633385, -0.6953205124516577,1.0,-8745.333741245358, -2831.9770290519946, 21547.89537871372, -76.74398217800922, 221.18460795254896, 38.435143055487885,1.0,801
15783.244999999999,1.32885603854397, -1.2663602000261651, -1.6818110359297958, -1.7659957956566714, 1.5708844915676237, 1.328255955303173,-0.6953918457378017, -0.05014420629433401, -0.09507045570429241, 0.14630760666492065, -0.0009039383882633387, -0.6953205124516579,1.0,-8752.275435288417, -2832.0586274284033, 21548.16780650991, -76.71506897710034, 220.79920793541862, 38.34530289623331,1.0,801
15783.252999999999,1.3206571798498015, -1.266951413834982, -1.682931942418831, -1.7642707892444154, 1.5708738338885626, 1.3200579376478185,-0.6953918457378016, -0.05014420629433401, -0.0950704557042924, 0.14630760666492065, -0.0009039383882633385, -0.6953205124516578,1.0,-8745.586250728122, -2832.966887909455, 21549.012380678378, -76.66967957381891, 221.15627842994036, 38.380058227444835,1.0,801
15783.260999999999,1.3123689602979307, -1.2675490713910333, -1.6840650658723249, -1.7625269816723543, 1.5708630600495117, 1.3117705683013976,-0.6953918457378016, -0.05014420629433402, -0.0950704557042924, 0.14630760666492065, -0.0009039383882633385, -0.6953205124516578,1.0,-8750.863835386719, -2835.9996473146393, 21548.56093736762, -76.59552314706792, 220.83954462632096, 38.4362676116271,1.0,801
15783.268999999998,1.3040025499955705, -1.2681523672259152, -1.6852088791697186, -1.7607667230854611, 1.5708521845704697, 1.3034050162252933,-0.6953918457378016, -0.05014420629433402, -0.09507045570429243, 0.14630760666492065, -0.0009039383882633387, -0.6953205124516579,1.0,-8744.574184387335, -2832.0492058229356, 21547.952210478234, -76.72142928611927, 221.1967551271248, 38.37493873312167,1.0,801
15783.277,1.2956249695859978, -1.2687564685292019, -1.6863542195876704, -1.7590041143535924, 1.570841294571429, 1.2950282951878058,-0.6953918457378016, -0.05014420629433402, -0.09507045570429243, 0.14630760666492065, -0.0009039383882633387, -0.6953205124516579,1.0,-8751.697325917008, -2832.1246176568675, 21548.76532475723, -76.73128348892348, 220.81501867559723, 38.449377120362186,1.0,801
15783.285,1.2872473891764251, -1.2693605698324886, -1.6874995600056213, -1.7572415056217245, 1.5708304045723884, 1.2866515741503184,-0.6953918457378016, -0.05014420629433402, -0.09507045570429243, 0.14630760666492065, -0.0009039383882633387, -0.6953205124516579,1.0,-8744.711052959523, -2833.6258908662703, 21548.44351852502, -76.68346853033304, 221.16960565622003, 38.378496212702004,1.0,801
15783.293,1.2788698087668524, -1.2699646711357744, -1.688644900423573, -1.7554788968898567, 1.5708195145733477, 1.2782748531128307,-0.6953918457378016, -0.05014420629433402, -0.09507045570429243, 0.14630760666492065, -0.0009039383882633387, -0.6953205124516579,1.0,-8751.023709527513, -2837.1655352283497, 21549.110414675302, -76.55044520517987, 220.8371545997196, 38.38026646190812,1.0,801
15783.301,1.2704922283572795, -1.270568772439061, -1.6897902408415248, -1.753716288157988, 1.570808624574307, 1.269898132075343,-0.6953918457378016, -0.05014420629433402, -0.09507045570429243, 0.14630760666492065, -0.0009039383882633387, -0.6953205124516579,1.0,-8745.350409059949, -2834.056796032971, 21548.72603256316, -76.65463358957501, 221.19377783561504, 38.42459295682045,1.0,801
15783.309,1.2621146479477066, -1.2711728737423478, -1.6909355812594766, -1.7519536794261192, 1.5707977345752664, 1.2615214110378556,-0.6953918457378016, -0.05014420629433402, -0.09507045570429243, 0.14630760666492065, -0.0009039383882633387, -0.6953205124516579,1.0,-8751.088880212712, -2832.478644505104, 21548.751852155925, -76.71162278725421, 220.83013715707045, 38.39731590949438,1.0,801
15783.317,1.2537370675381339, -1.2717769750456345, -1.6920809216774284, -1.7501910706942514, 1.5707868445762256, 1.2531446900003682,-0.6953918457378016, -0.05014420629433402, -0.09507045570429243, 0.14630760666492065, -0.0009039383882633387, -0.6953205124516579,1.0,-8744.793657741262, -2832.0884229149015, 21548.463685018083, -76.7550204108606, 221.16090804456627, 38.42533033808911,1.0,801
15783.324999999999,1.2453594871285611, -1.2723810763489212, -1.6932262620953793, -1.7484284619623827, 1.5707759545771849, 1.2447679689628806,-0.6953918457378016, -0.05014420629433402, -0.09507045570429243, 0.14630760666492065, -0.0009039383882633387, -0.6953205124516579,1.0,-8749.166094404087, -2836.573431240983, 21547.8747358012, -76.57651036098497, 220.91095121533476, 38.37752255273503,1.0,801
15783.332999999999,1.2369819067189884, -1.272985177652207, -1.694371602513331, -1.746665853230514, 1.5707650645781444, 1.2363912479253931,-0.6953918457378016, -0.05014420629433402, -0.09507045570429243, 0.14630760666492065, -0.0009039383882633387, -0.6953205124516579,1.0,-8746.936136500877, -2833.335815570136, 21548.98687018101, -76.66979348401668, 221.0949647022626, 38.4460235851173,1.0,801
15783.340999999999,1.2286043263094155, -1.2735892789554937, -1.6955169429312829, -1.744903244498646, 1.5707541745791036, 1.2280145268879057,-0.6953918457378016, -0.05014420629433402, -0.09507045570429243, 0.14630760666492065, -0.0009039383882633387, -0.6953205124516579,1.0,-8751.219672563779, -2834.2982485844223, 21548.40718510095, -76.63865446861618, 220.83856818518115, 38.3966443920327,1.0,801
15783.349,1.2202267458998426, -1.2741933802587804, -1.6966622833492337, -1.7431406357667774, 1.570743284580063, 1.219637805850418,-0.6953918457378016, -0.05014420629433402, -0.09507045570429243, 0.14630760666492065, -0.0009039383882633387, -0.6953205124516579,1.0,-8745.52606032946, -2832.881063898594, 21548.636738204863, -76.73920610285683, 221.136624381616, 38.40979926333705,1.0,801
15783.357,1.2118491654902699, -1.2747974815620662, -1.6978076237671855, -1.7413780270349086, 1.5707323945810223, 1.2112610848129304,-0.6953918457378016, -0.05014420629433402, -0.09507045570429243, 0.14630760666492065, -0.0009039383882633387, -0.6953205124516579,1.0,-8748.755067491804, -2835.918548637097, 21548.867218020485, -76.6011053249793, 220.91406784203002, 38.47641426046164,1.0,801
15783.365,1.2034715850806972, -1.2754015828653529, -1.6989529641851373, -1.7396154183030408, 1.5707215045819816, 1.2028843637754432,-0.6953918457378016, -0.05014420629433402, -0.09507045570429243, 0.14630760666492065, -0.0009039383882633387, -0.6953205124516579,1.0,-8745.37135439863, -2831.888500289786, 21548.417194754606, -76.74646451981945, 221.15355904840698, 38.41029499714884,1.0,801
15783.373,1.1950940046711245, -1.2760056841686396, -1.700098304603089, -1.737852809571172, 1.570710614582941, 1.1945076427379555,-0.6953918457378016, -0.05014420629433402, -0.09507045570429243, 0.14630760666492065, -0.0009039383882633387, -0.6953205124516579,1.0,-8751.528804270329, -2835.777072566486, 21549.040308409567, -76.5706652463902, 220.8023214438029, 38.36557100605583,1.0,801
15783.381,1.1867164242615516, -1.2766097854719263, -1.7012436450210409, -1.7360902008393042, 1.5706997245839003, 1.1861309217004679,-0.6953918457378016, -0.05014420629433402, -0.09507045570429243, 0.14630760666492065, -0.0009039383882633387, -0.6953205124516579,1.0,-8744.34138152207, -2834.1739781550577, 21548.193105172963, -76.6846848429438, 221.13751200172322, 38.38697140042308,1.0,801
15783.389,1.1783388438519788, -1.277213886775213, -1.7023889854389918, -1.7343275921074355, 1.5706888345848595, 1.1777542006629804,-0.6953918457378016, -0.05014420629433402, -0.09507045570429243, 0.14630760666492065, -0.0009039383882633387, -0.6953205124516579,1.0,-8749.102879234497, -2835.3278722519817, 21547.418682921103, -76.62838469782358, 220.91220370967056, 38.37311444749028,1.0,801
15783.396999999999,1.169961263442406, -1.2778179880784988, -1.7035343258569435, -1.7325649833755676, 1.570677944585819, 1.169377479625493,-0.6953918457378016, -0.05014420629433402, -0.09507045570429243, 0.14630760666492065, -0.0009039383882633387, -0.6953205124516579,1.0,-8745.584488315046, -2831.314164720571, 21549.026109827646, -76.77125490573547, 221.10952837494517, 38.4440056756207,1.0,801
15783.404999999999,1.1615836830328332, -1.2784220893817855, -1.7046796662748953, -1.730802374643699, 1.5706670545867782, 1.1610007585880053,-0.6953918457378016, -0.05014420629433402, -0.09507045570429243, 0.14630760666492065, -0.0009039383882633387, -0.6953205124516579,1.0,-8749.95063409644, -2833.9576299685586, 21548.18734160844, -76.67035670125358, 220.83557457825543, 38.388257214294384,1.0,801
15783.412999999999,1.1532061026232605, -1.2790261906850722, -1.7058250066928462, -1.7290397659118302, 1.5706561645877375, 1.152624037550518,-0.6953918457378016, -0.05014420629433402, -0.09507045570429243, 0.14630760666492065, -0.0009039383882633387, -0.6953205124516579,1.0,-8745.424836957316, -2835.3015757680087, 21548.995631724854, -76.63652562749178, 221.12041745572998, 38.42410048621997,1.0,801
15783.420999999998,1.1448285222136878, -1.279630291988358, -1.706970347110798, -1.7272771571799623, 1.570645274588697, 1.1442473165130305,-0.6953918457378016, -0.05014420629433402, -0.09507045570429243, 0.14630760666492065, -0.0009039383882633387, -0.6953205124516579,1.0,-8749.614901976629, -2836.321774958993, 21547.735645535675, -76.59706966621974, 220.89525896347345, 38.42416720999131,1.0,801
15783.429,1.1364509418041149, -1.2802343932916447, -1.7081156875287498, -1.7255145484480936, 1.5706343845896562, 1.1358705954755428,-0.6953918457378016, -0.05014420629433402, -0.09507045570429243, 0.14630760666492065, -0.0009039383882633387, -0.6953205124516579,1.0,-8746.019606628935, -2832.0102714321674, 21548.089446805472, -76.75944492881442, 221.08644823183528, 38.42189225255427,1.0,801
15783.437,1.128073361394542, -1.2808384945949314, -1.7092610279467015, -1.7237519397162249, 1.5706234945906157, 1.1274938744380552,-0.6953918457378016, -0.05014420629433402, -0.09507045570429243, 0.14630760666492065, -0.0009039383882633387, -0.6953205124516579,1.0,-8749.498260454713, -2833.565336502612, 21548.234299023454, -76.7019843021925, 220.85976788898967, 38.41466847089745,1.0,801
15783.445,1.1196957809849692, -1.281442595898218, -1.7104063683646533, -1.721989330984357, 1.570612604591575, 1.1191171534005677,-0.6953918457378016, -0.05014420629433402, -0.09507045570429243, 0.14630760666492065, -0.0009039383882633387, -0.6953205124516579,1.0,-8743.982523500577, -2834.577788110766, 21548.86237258207, -76.67605014657514, 221.17637804097706, 38.404909498157,1.0,801
15783.453,1.1113182005753965, -1.2820466972015048, -1.7115517087826042, -1.7202267222524883, 1.5706017145925342, 1.1107404323630803,-0.6953918457378016, -0.05014420629433402, -0.09507045570429243, 0.14630760666492065, -0.0009039383882633387, -0.6953205124516579,1.0,-8749.36059671705, -2836.3101253332497, 21548.521974960026, -76.58373601453488, 220.84744615500546, 38.38868815279059,1.0,801
15783.461,1.1029406201658238, -1.2826507985047906, -1.712697049200556, -1.7184641135206205, 1.5705908245934936, 1.1023637113255926,-0.6953918457378016, -0.05014420629433402, -0.09507045570429243, 0.14630760666492065, -0.0009039383882633387, -0.6953205124516579,1.0,-8746.253495582438, -2833.3098673740324, 21548.206964591653, -76.69729917960339, 221.07006837481123, 38.392704947893094,1.0,801
15783.469,1.094563039756251, -1.2832548998080773, -1.7138423896185078, -1.7167015047887517, 1.5705799345944529, 1.0939869902881052,-0.6953918457378016, -0.05014420629433402, -0.09507045570429243, 0.14630760666492065, -0.0009039383882633387, -0.6953205124516579,1.0,-8748.68750606992, -2833.739512295856, 21548.325026465758, -76.69283077146537, 220.89271598905037, 38.44395157689658,1.0,801
15783.476999999999,1.0861854593466782, -1.283859001111363, -1.7149877300364587, -1.7149388960568839, 1.5705690445954121, 1.0856102692506178,-0.6953918457378016, -0.05014420629433402, -0.09507045570429243, 0.14630760666492065, -0.0009039383882633387, -0.6953205124516579,1.0,-8746.089483543474, -2834.605048784836, 21548.426056367407, -76.68220199826408, 221.08307323711847, 38.477374174801554,1.0,801
15783.484999999999,1.0778078789371053, -1.2844631024146498, -1.7161330704544104, -1.7131762873250151, 1.5705581545963716, 1.07723354821313,-0.6953918457378016, -0.05014420629433402, -0.09507045570429243, 0.14630760666492065, -0.0009039383882633387, -0.6953205124516579,1.0,-8748.256794283134, -2834.048556524859, 21547.923582146122, -76.68720072454349, 220.94465707954555, 38.44504308120645,1.0,801
15783.492999999999,1.0694302985275326, -1.2850672037179365, -1.7172784108723622, -1.7114136785931464, 1.5705472645973308, 1.0688568271756427,-0.6953918457378016, -0.05014420629433402, -0.09507045570429243, 0.14630760666492065, -0.0009039383882633387, -0.6953205124516579,1.0,-8747.704092075195, -2835.0790774334173, 21548.962558804196, -76.63800475767775, 220.9984994614096, 38.38547114986113,1.0,801
15783.500999999998,1.0610527181179596, -1.2856713050212232, -1.718423751290314, -1.7096510698612786, 1.57053637459829, 1.060480106138155,-0.6953918457378016, -0.05014420629433402, -0.09507045570429243, 0.14630760666492065, -0.0009039383882633387, -0.6953205124516579,1.0,-8747.126851161975, -2835.2995733796324, 21547.814419684546, -76.65635143802089, 220.96196320916545, 38.38084130498589,1.0,801
15783.509,1.052675137708387, -1.2862754063245099, -1.7195690917082658, -1.7078884611294098, 1.5705254845992496, 1.0521033851006676,-0.6953918457378016, -0.05014420629433402, -0.09507045570429243, 0.14630760666492065, -0.0009039383882633387, -0.6953205124516579,1.0,-8746.445452574257, -2834.405829376409, 21548.02365122985, -76.67830576389508, 221.0255321227537, 38.377460943581866,1.0,801
15783.517,1.0442975572988142, -1.2868795076277957, -1.7207144321262167, -1.706125852397541, 1.5705145946002088, 1.0437266640631802,-0.6953918457378016, -0.05014420629433402, -0.09507045570429243, 0.14630760666492065, -0.0009039383882633387, -0.6953205124516579,1.0,-8746.911687571379, -2833.575700186524, 21547.398309896736, -76.69548694124629, 220.94334259995344, 38.43182681306337,1.0,801
15783.525,1.0359199768892415, -1.2874836089310824, -1.7218597725441684, -1.7043632436656733, 1.5705037046011683, 1.0353499430256927,-0.6953918457378016, -0.05014420629433402, -0.09507045570429243, 0.14630760666492065, -0.0009039383882633387, -0.6953205124516579,1.0,-8747.826025626004, -2833.3517666615708, 21548.61256841596, -76.72873970363185, 220.96243074488223, 38.412110136553906,1.0,801
15783.533,1.0275423964796688, -1.288087710234369, -1.7230051129621202, -1.7026006349338045, 1.5704928146021275, 1.026973221988205,-0.6953918457378016, -0.05014420629433402, -0.09507045570429243, 0.14630760666492065, -0.0009039383882633387, -0.6953205124516579,1.0,-8745.793600904586, -2835.9945852085684, 21548.926561857043, -76.62556994737946, 221.03654568481352, 38.43278227488901,1.0,801
15783.541,1.019164816070096, -1.2886918115376549, -1.7241504533800711, -1.7008380262019358, 1.5704819246030868, 1.0185965009507176,-0.6953918457378016, -0.05014420629433402, -0.09507045570429243, 0.14630760666492065, -0.0009039383882633387, -0.6953205124516579,1.0,-8748.37387537076, -2836.114065567702, 21548.810347138155, -76.61826966771099, 220.95286116012477, 38.46059062713411,1.0,801
15783.548999999999,1.0107872356605232, -1.2892959128409416, -1.725295793798023, -1.699075417470068, 1.5704710346040462, 1.01021977991323,-0.6953918457378016, -0.05014420629433402, -0.09507045570429243, 0.14630760666492065, -0.0009039383882633387, -0.6953205124516579,1.0,-8746.737408749756, -2833.197782750198, 21547.665750605305, -76.71240872461536, 221.01269279598267, 38.40989012522343,1.0,801
15783.556999999999,1.0024096552509503, -1.2899000141442283, -1.7264411342159747, -1.6973128087382001, 1.5704601446050055, 1.0018430588757425,-0.6953918457378016, -0.05014420629433402, -0.09507045570429243, 0.14630760666492065, -0.0009039383882633387, -0.6953205124516579,1.0,-8749.689817181841, -2833.723923246809, 21548.125599489613, -76.70613036057804, 220.85648516303627, 38.4259081004455,1.0,801
15783.564999999999,0.9940320748413776, -1.290504115447515, -1.7275864746339264, -1.6955502000063314, 1.5704492546059647, 0.9934663378382551,-0.6953918457378016, -0.05014420629433402, -0.09507045570429243, 0.14630760666492065, -0.0009039383882633387, -0.6953205124516579,1.0,-8744.14008492729, -2834.3799450119686, 21547.96221567413, -76.68515004969643, 221.11475687757297, 38.4362703957452,1.0,801
15783.572999999999,0.9856544944318049, -1.2911082167508017, -1.7287318150518782, -1.6937875912744627, 1.5704383646069242, 0.9850896168007675,-0.6953918457378016, -0.05014420629433402, -0.09507045570429243, 0.14630760666492065, -0.0009039383882633387, -0.6953205124516579,1.0,-8748.8342313416, -2836.230099835745, 21548.93914621799, -76.59301306361729, 220.8825362351128, 38.39684305377094,1.0,801
15783.581,0.9772769140222319, -1.2917123180540875, -1.7298771554698291, -1.6920249825425948, 1.5704274746078835, 0.97671289576328,-0.6953918457378016, -0.05014420629433402, -0.09507045570429243, 0.14630760666492065, -0.0009039383882633387, -0.6953205124516579,1.0,-8744.540188150848, -2834.135977753096, 21548.15026056281, -76.69717068602407, 221.0966135364855, 38.41655003290495,1.0,801
15783.589,0.9688993336126592, -1.2923164193573742, -1.731022495887781, -1.690262373810726, 1.5704165846088427, 0.9683361747257924,-0.6953918457378016, -0.05014420629433402, -0.09507045570429243, 0.14630760666492065, -0.0009039383882633387, -0.6953205124516579,1.0,-8749.513197635562, -2835.194676743492, 21548.3344536244, -76.6730639339709, 220.85165206563755, 38.405096447415445,1.0,801
15783.597,0.9605217532030863, -1.2929205206606609, -1.7321678363057327, -1.6884997650788574, 1.5704056946098022, 0.9599594536883049,-0.6953918457378016, -0.05014420629433402, -0.09507045570429243, 0.14630760666492065, -0.0009039383882633387, -0.6953205124516579,1.0,-8743.450639182809, -2833.4298937834374, 21547.485250533227, -76.73269088494521, 221.1548006795984, 38.477180294025345,1.0,801
15783.605,0.9521441727935136, -1.2935246219639467, -1.7333131767236836, -1.6867371563469895, 1.5703948046107614, 0.9515827326508175,-0.6953918457378016, -0.05014420629433402, -0.09507045570429243, 0.14630760666492065, -0.0009039383882633387, -0.6953205124516579,1.0,-8749.85292781285, -2835.8368861516674, 21548.120173467167, -76.64401498220289, 220.83748199674193, 38.43743680731632,1.0,801
15783.613,0.9437665923839409, -1.2941287232672334, -1.7344585171416353, -1.6849745476151208, 1.5703839146117209, 0.9432060116133298,-0.6953918457378016, -0.05014420629433402, -0.09507045570429243, 0.14630760666492065, -0.0009039383882633387, -0.6953205124516579,1.0,-8744.792576142749, -2833.2439218898244, 21548.50630157082, -76.69113803354236, 221.1015320828124, 38.40460267385569,1.0,801
15783.621,0.9354037154811264, -1.294731764311214, -1.7356018473705168, -1.6832150324410744, 1.5703730437257375, 0.9348439925743153,-0.6953918457378014, -0.050144206294334005, -0.09507045570429241, 0.14630760666492068, -0.0009039383882633388, -0.695320512451658,1.0,-8749.54565063036, -2836.999901594676, 21548.83243109102, -76.61187749798057, 220.828519639722, 38.406750452520356,1.0,801
15783.628999999999,0.9271220779228048, -1.2953289472444398, -1.7367340709671453, -1.6814726096935964, 1.570362278442606, 0.9265632045462624,-0.6953918457378014, -0.050144206294334, -0.09507045570429239, 0.1463076066649207, -0.0009039383882633389, -0.6953205124516579,1.0,-8742.3816394817, -2833.7728350584584, 21548.26378519473, -76.71765911969482, 221.1806416382185, 38.42124326483466,1.0,801
15783.636999999999,0.9189298012221854, -1.2959196864304312, -1.7378540775993159, -1.6797489881059242, 1.5703516293194644, 0.9183717682092765,-0.6953918457378013, -0.050144206294334005, -0.09507045570429239, 0.14630760666492068, -0.0009039383882633388, -0.695320512451658,1.0,-8749.010269094506, -2836.7074427021735, 21548.0453344355, -76.62984648909674, 220.85906875200726, 38.44408543296004,1.0,801
15783.644999999999,0.9108268853792679, -1.2965039818691872, -1.7389618672670277, -1.6780441676780598, 1.5703410963563125, 0.9102696835633567,-0.6953918457378014, -0.05014420629433401, -0.09507045570429241, 0.1463076066649207, -0.0009039383882633388, -0.695320512451658,1.0,-8743.976358826158, -2832.46272365647, 21547.388972565852, -76.76757054337324, 221.08420713812956, 38.419420159356406,1.0,801
15783.652999999998,0.9028133303940526, -1.2970818335607088, -1.7400574399702817, -1.6763581484100012, 1.5703306795531504, 0.9022569506085039,-0.6953918457378014, -0.05014420629433401, -0.09507045570429241, 0.14630760666492074, -0.000903938388263339, -0.695320512451658,1.0,-8747.999421796992, -2838.5496969984097, 21548.53803890296, -76.55443529649324, 220.87256191195388, 38.433641102134004,1.0,801
15783.661,0.8948891362665399, -1.297653241504995, -1.7411407957090779, -1.6746909303017494, 1.5703203789099782, 0.894333569344717,-0.6953918457378014, -0.050144206294334005, -0.09507045570429241, 0.14630760666492068, -0.0009039383882633388, -0.6953205124516579,1.0,-8742.495988183993, -2834.600341609328, 21548.151766943764, -76.70475167717944, 221.1870805441274, 38.44372169502893,1.0,801
15783.669,0.8870543029967287, -1.298218205702046, -1.7422119344834162, -1.6730425133533036, 1.5703101944267954, 0.8864995397719972,-0.6953918457378014, -0.05014420629433401, -0.0950704557042924, 0.1463076066649207, -0.0009039383882633387, -0.6953205124516579,1.0,-8748.62989234742, -2837.189790844267, 21548.210038794754, -76.61326085574663, 220.84573581015786, 38.449796313403084,1.0,801
15783.677,0.8793088305846197, -1.2987767261518615, -1.7432708562932948, -1.6714128975646654, 1.5703001261036027, 0.8787548618903435,-0.6953918457378014, -0.05014420629433401, -0.0950704557042924, 0.1463076066649207, -0.0009039383882633389, -0.695320512451658,1.0,-8744.74255107827, -2832.16583461947, 21547.530990544317, -76.7886661407905, 221.05345768530827, 38.42253176061149,1.0,801
15783.685,0.871652719030213, -1.2993288028544425, -1.7443175611387165, -1.669802082935834, 1.5702901739403996, 0.8710995356997564,-0.6953918457378013, -0.050144206294334005, -0.09507045570429241, 0.1463076066649207, -0.0009039383882633388, -0.6953205124516579,1.0,-8746.628882783534, -2836.4055297088653, 21547.85056557649, -76.63217419646449, 220.91709335110426, 38.427505499896654,1.0,801
15783.693,0.8640859683335083, -1.2998744358097891, -1.7453520490196803, -1.6682100694668076, 1.5702803379371864, 0.863533561200236,-0.6953918457378014, -0.050144206294334005, -0.0950704557042924, 0.14630760666492074, -0.000903938388263339, -0.695320512451658,1.0,-8743.616841349183, -2835.007253800054, 21548.457811001874, -76.66513036747747, 221.09252213448144, 38.447132237742125,1.0,801
15783.701,0.8566085784945056, -1.3004136250178995, -1.7463743199361854, -1.6666368571575898, 1.5702706180939627, 0.856056938391782,-0.6953918457378014, -0.05014420629433401, -0.0950704557042924, 0.1463076066649207, -0.0009039383882633389, -0.695320512451658,1.0,-8747.52064156821, -2836.9341575005037, 21549.000366917655, -76.59904814855224, 220.90834556202526, 38.434941095838724,1.0,801
15783.708999999999,0.849220549513205, -1.3009463704787754, -1.7473843738882326, -1.665082446008177, 1.570261014410729, 0.8486696672743949,-0.6953918457378013, -0.050144206294334005, -0.0950704557042924, 0.14630760666492068, -0.0009039383882633387, -0.695320512451658,1.0,-8745.864760782044, -2834.1942715945315, 21548.038200677187, -76.70870575644554, 221.00624480925285, 38.48089850360745,1.0,801
15783.716999999999,0.8419218813896066, -1.301472672192416, -1.7483822108758211, -1.663546836018572, 1.570251526887485, 0.8413717478480738,-0.6953918457378014, -0.050144206294334005, -0.09507045570429239, 0.1463076066649207, -0.0009039383882633389, -0.6953205124516579,1.0,-8745.091049453467, -2834.6262649076116, 21547.77867676815, -76.7139571182812, 221.00674690353594, 38.42411721650973,1.0,801
15783.724999999999,0.8347125741237102, -1.301992530158822, -1.7493678308989518, -1.6620300271887727, 1.570242155524231, 0.8341631801128198,-0.6953918457378014, -0.050144206294334005, -0.09507045570429241, 0.1463076066649207, -0.0009039383882633388, -0.695320512451658,1.0,-8745.139119665002, -2836.6613660080548, 21547.433971279228, -76.6384965725523, 221.0063885563343, 38.44608162563023,1.0,801
15783.733,0.8275926277155161, -1.3025059443779927, -1.7503412339576245, -1.6605320195187803, 1.5702329003209663, 0.8270439640686318,-0.6953918457378013, -0.05014420629433401, -0.0950704557042924, 0.14630760666492074, -0.0009039383882633387, -0.695320512451658,1.0,-8745.754638828932, -2834.9326461123037, 21548.323152286644, -76.68295566468439, 221.02606141446148, 38.42973477435547,1.0,801
15783.741,0.8205620421650242, -1.303012914849928, -1.7513024200518394, -1.6590528130085946, 1.5702237612776917, 0.8200140997155108,-0.6953918457378013, -0.05014420629433401, -0.0950704557042924, 0.1463076066649207, -0.0009039383882633389, -0.6953205124516582,1.0,-8746.367828762508, -2837.0214088214116, 21548.01883046957, -76.6038861439446, 220.94808699658165, 38.40964183596452,1.0,801
15783.749,0.8136208174722341, -1.3035134415746281, -1.7522513891815956, -1.6575924076582158, 1.5702147383944067, 0.8130735870534558,-0.6953918457378014, -0.050144206294334005, -0.09507045570429241, 0.1463076066649207, -0.0009039383882633388, -0.695320512451658,1.0,-8744.793263248306, -2833.858830953699, 21547.517856354465, -76.73806765617684, 221.00972896803637, 38.40214652122202,1.0,801
15783.757,0.8067689536371463, -1.3040075245520937, -1.753188141346893, -1.6561508034676429, 1.5702058316711116, 0.8062224260824675,-0.6953918457378014, -0.05014420629433402, -0.0950704557042924, 0.14630760666492074, -0.0009039383882633391, -0.6953205124516579,1.0,-8745.424944317814, -2835.9683013614194, 21548.348042176636, -76.66316304061485, 221.00997137317734, 38.41665510409348,1.0,801
15783.765,0.8000064506597604, -1.3044951637823239, -1.7541126765477335, -1.6547280004368767, 1.5701970411078061, 0.799460616802546,-0.6953918457378013, -0.050144206294334, -0.09507045570429239, 0.1463076066649207, -0.0009039383882633388, -0.6953205124516579,1.0,-8744.661621860132, -2834.311463143794, 21547.99735586198, -76.70100141545419, 221.02883469124987, 38.42497144022255,1.0,801
15783.773,0.7933333085400769, -1.3049763592653196, -1.7550249947841152, -1.6533239985659174, 1.5701883667044905, 0.792788159213691,-0.6953918457378013, -0.05014420629433401, -0.09507045570429241, 0.1463076066649207, -0.0009039383882633389, -0.695320512451658,1.0,-8745.593883240233, -2835.8946223179255, 21547.971403316325, -76.65026545294847, 220.96400805691593, 38.429493635314316,1.0,801
15783.780999999999,0.7867495272780953, -1.30545111100108, -1.755925096056039, -1.6519387978547648, 1.5701798084611647, 0.7862050533159024,-0.6953918457378012, -0.05014420629433401, -0.09507045570429239, 0.1463076066649207, -0.0009039383882633389, -0.695320512451658,1.0,-8746.459222790996, -2836.4905260882297, 21548.056440955836, -76.61674279808517, 220.93249830281513, 38.4374161210809,1.0,801
15783.788999999999,0.7802551068738164, -1.305919418989605, -1.7568129803635042, -1.6505723983034182, 1.5701713663778287, 0.7797112991091804,-0.6953918457378014, -0.05014420629433401, -0.09507045570429243, 0.14630760666492074, -0.000903938388263339, -0.695320512451658,1.0,-8744.360889442081, -2835.6306098200794, 21547.992096816877, -76.69678411235213, 221.02991586734078, 38.4324086202968,1.0,801
15783.796999999999,0.7738500473272389, -1.3063812832308948, -1.7576886477065123, -1.6492247999118783, 1.5701630404544824, 0.773306896593525,-0.6953918457378013, -0.05014420629433401, -0.0950704557042924, 0.14630760666492074, -0.0009039383882633387, -0.695320512451658,1.0,-8745.919476214072, -2836.0353691962428, 21548.247770388058, -76.66873246088338, 220.96722942069994, 38.462764927247974,1.0,801
15783.804999999998,0.7675343486383637, -1.3068367037249509, -1.7585520980850617, -1.6478960026801461, 1.5701548306911257, 0.7669918457689358,-0.6953918457378014, -0.050144206294334, -0.0950704557042924, 0.14630760666492074, -0.000903938388263339, -0.695320512451658,1.0,-8744.786866098375, -2833.316309380787, 21547.755005724888, -76.75039815569531, 221.02047216533094, 38.42414299938196,1.0,801
15783.813,0.7613080108071906, -1.3072856804717707, -1.7594033314991524, -1.646586006608219, 1.570146737087759, 0.7607661466354132,-0.6953918457378013, -0.050144206294334, -0.0950704557042924, 0.14630760666492068, -0.0009039383882633387, -0.695320512451658,1.0,-8745.25540440087, -2835.8945633362173, 21548.576004800656, -76.65348160632232, 221.00811312169174, 38.45211201755839,1.0,801
15783.821,0.7551710338337199, -1.3077282134713553, -1.7602423479487852, -1.6452948116960995, 1.570138759644382, 0.7546297991929576,-0.6953918457378013, -0.05014420629433402, -0.0950704557042924, 0.14630760666492076, -0.0009039383882633391, -0.695320512451658,1.0,-8746.390231376907, -2836.847516681735, 21548.069311623825, -76.61010276708282, 220.9260931212288, 38.43269999612113,1.0,801
15783.829,0.7491234177179509, -1.3081643027237053, -1.7610691474339601, -1.644022417943786, 1.570130898360995, 0.7485828034415678,-0.6953918457378012, -0.05014420629433399, -0.09507045570429237, 0.1463076066649207, -0.0009039383882633388, -0.695320512451658,1.0,-8744.387251713477, -2835.642612435062, 21547.527667641625, -76.68104237882449, 221.01837344967322, 38.44417586517491,1.0,801
15783.837,0.7431651624598841, -1.30859394822882, -1.7618837299546772, -1.642768825351279, 1.5701231532375972, 0.7426251593812454,-0.6953918457378014, -0.05014420629433401, -0.09507045570429241, 0.14630760666492074, -0.0009039383882633389, -0.6953205124516582,1.0,-8745.626833171773, -2834.5993809594956, 21547.95663617691, -76.69933657197731, 220.96341145316785, 38.46272547255083,1.0,801
15783.845,0.7372962680595194, -1.3090171499867003, -1.7626860955109347, -1.64153403391858, 1.5701155242741895, 0.7367568670119888,-0.6953918457378013, -0.05014420629433402, -0.09507045570429241, 0.14630760666492074, -0.000903938388263339, -0.6953205124516582,1.0,-8745.01653435987, -2834.6556417291304, 21547.84643401311, -76.71383027070283, 220.9946427703029, 38.431577385633744,1.0,801
15783.853,0.731516734516857, -1.3094339079973452, -1.7634762441027352, -1.640318043645686, 1.5701080114707717, 0.7309779263337992,-0.6953918457378013, -0.050144206294334, -0.09507045570429239, 0.1463076066649207, -0.0009039383882633389, -0.695320512451658,1.0,-8744.277166078135, -2835.8324641990894, 21548.462620283128, -76.6756930285552, 221.03660371225976, 38.43531505523805,1.0,801
15783.860999999999,0.7258265618318964, -1.3098442222607547, -1.7642541757300778, -1.6391208545325995, 1.5701006148273435, 0.7252883373466759,-0.6953918457378014, -0.05014420629433401, -0.0950704557042924, 0.1463076066649207, -0.0009039383882633387, -0.6953205124516579,1.0,-8745.520675469215, -2837.692675375053, 21548.311641454704, -76.60700147320256, 220.9447411531919, 38.44581758552127,1.0,801
15783.868999999999,0.7202257500046383, -1.3102480927769289, -1.7650198903929617, -1.637942466579319, 1.570093334343905, 0.7196881000506195,-0.6953918457378013, -0.050144206294334005, -0.09507045570429243, 0.14630760666492076, -0.0009039383882633391, -0.6953205124516582,1.0,-8744.656705081678, -2835.8780530634676, 21547.429624015633, -76.67644392189291, 220.98319786466107, 38.46822538950329,1.0,801
15783.876999999999,0.7147142990350819, -1.3106455195458686, -1.7657733880913877, -1.6367828797858452, 1.5700861700204565, 0.7141772144456291,-0.6953918457378014, -0.05014420629433401, -0.0950704557042924, 0.14630760666492074, -0.000903938388263339, -0.695320512451658,1.0,-8744.189138307356, -2834.128454602411, 21548.302762720305, -76.73186468298607, 221.0429637546137, 38.447150710361655,1.0,801
15783.884999999998,0.7092922089232279, -1.3110365025675739, -1.766514668825355, -1.6356420941521783, 1.5700791218569976, 0.7087556805317052,-0.6953918457378013, -0.05014420629433401, -0.0950704557042924, 0.14630760666492076, -0.0009039383882633391, -0.695320512451658,1.0,-8745.37906651873, -2835.702920533192, 21548.510306870885, -76.66745552672691, 220.9926280399779, 38.43382519056635,1.0,801
15783.893,0.7039594796690758, -1.311421041842043, -1.7672437325948653, -1.6345201096783182, 1.5700721898535286, 0.7034234983088483,-0.6953918457378014, -0.050144206294334005, -0.09507045570429243, 0.14630760666492076, -0.0009039383882633391, -0.695320512451658,1.0,-8745.607560070734, -2835.557892769145, 21547.635058299973, -76.67564524043993, 220.98876492859586, 38.45228437317914,1.0,801
15783.901,0.6987161112726259, -1.3117991373692774, -1.767960579399917, -1.633416926364264, 1.570065374010049, 0.6981806677770575,-0.6953918457378013, -0.050144206294334005, -0.09507045570429237, 0.1463076066649207, -0.0009039383882633387, -0.695320512451658,1.0,-8745.000689551835, -2836.589966748589, 21547.71509575801, -76.64031929737314, 220.99946331649943, 38.43584218736834,1.0,801
15783.909,0.6935621037338782, -1.3121707891492767, -1.7686652092405097, -1.6323325442100165, 1.5700586743265594, 0.6930271889363337,-0.6953918457378014, -0.05014420629433399, -0.0950704557042924, 0.14630760666492076, -0.0009039383882633391, -0.695320512451658,1.0,-8746.930156085591, -2835.7376582141915, 21547.801607953425, -76.65283762275814, 220.9291644442901, 38.41297799536707,1.0,801
15783.917,0.688497457052833, -1.3125359971820414, -1.7693576221166456, -1.6312669632155758, 1.5700520908030597, 0.6879630617866761,-0.6953918457378012, -0.050144206294334005, -0.09507045570429243, 0.14630760666492074, -0.000903938388263339, -0.6953205124516583,1.0,-8744.07407883836, -2835.1974166925947, 21547.41916585284, -76.70415781109034, 221.02709089424275, 38.420757332429304,1.0,801
15783.925,0.6835221712294894, -1.3128947614675708, -1.7700378180283218, -1.630220183380942, 1.5700456234395497, 0.6829882863280854,-0.6953918457378013, -0.05014420629433402, -0.09507045570429239, 0.14630760666492074, -0.0009039383882633389, -0.6953205124516582,1.0,-8743.979828756812, -2835.1426990127375, 21547.908445701298, -76.69498276099213, 221.03209289279067, 38.42770950463802,1.0,801
15783.932999999999,0.678636246263848, -1.3132470820058648, -1.770705796975541, -1.629192204706115, 1.5700392722360295, 0.6781028625605607,-0.6953918457378012, -0.05014420629433399, -0.09507045570429239, 0.14630760666492074, -0.000903938388263339, -0.6953205124516582,1.0,-8744.459818514972, -2836.1194205874435, 21548.775582672093, -76.64489408270165, 221.0572213916921, 38.46075119304538,1.0,801
15783.940999999999,0.6738396821559085, -1.3135929587969244, -1.7713615589583016, -1.6281830271910938, 1.5700330371924989, 0.6733067904841026,-0.6953918457378013, -0.05014420629433401, -0.09507045570429241, 0.14630760666492074, -0.0009039383882633389, -0.6953205124516582,1.0,-8745.52434469032, -2836.465823582651, 21548.125746995942, -76.64224458087693, 220.951472829649, 38.42774982256756,1.0,801
15783.948999999999,0.6691324787597446, -1.3139323917780024, -1.772005114246853, -1.6271926406284516, 1.5700269183111255, 0.6686000699601264,-0.695389779094519, -0.05014396871697017, -0.09508258267433424, 0.14631949244000114, -0.000903932848868137, -0.695318437150685,1.0,-8744.745164431759, -2834.9728291275205, 21547.302459818773, -76.69816352477775, 221.00518608986658, 38.457559395715236,1.0,801
15783.956999999999,0.6645146250380735, -1.3142653783103908, -1.7726369519470628, -1.6262205585482015, 1.5700209156895402, 0.6639826903010282,-0.6953631785548255, -0.05014093419997003, -0.09523854449633437, 0.1464723731848521, -0.0009038616395610154, -0.6952917252474948,1.0,-8745.450447977319, -2834.789799829744, 21547.87843990632, -76.69676181831903, 220.96874219168956, 38.45288433597972,1.0,801
15783.965,0.6599860747737135, -1.3145919139639588, -1.7732582163776698, -1.6252656410229847, 1.570015029528329, 0.659454606108059,-0.6953051919297379, -0.050134390011132686, -0.09557776490830441, 0.14680494793244447, -0.0009037067612627104, -0.6952334963489148,1.0,-8744.995409082183, -2835.8438384549036, 21547.801134511214, -76.66538470478491, 220.96522384516277, 38.41254862299476,1.0,801
15783.973,0.655546744341258, -1.3149119973960621, -1.7738700669282732, -1.6243267299086108, 1.570009259980498, 0.6550157345855928,-0.6952147458886787, -0.050124303508984114, -0.09610486368383712, 0.14732180198416805, -0.0009034659352572208, -0.6951426737601653,1.0,-8744.724363962248, -2836.780896153764, 21547.80621756248, -76.64573311414227, 220.99835951423432, 38.453518699578865,1.0,801
15783.981,0.6511965136436927, -1.3152256306462817, -1.7744736268765227, -1.6234026997320754, 1.5700036071409569, 0.6506659564411554,-0.6950905409255955, -0.05011062817324273, -0.0968248149116569, 0.14802786071066587, -0.0009031365142252696, -0.6950179543544397,1.0,-8744.912088447705, -2835.9469829985665, 21547.93185728385, -76.68106970657323, 220.99676665562367, 38.48547928612092,1.0,801
15783.989,0.6469352267178735, -1.315532819081394, -1.7750699838253912, -1.6224924573102903, 1.5699980710474477, 0.6464051164912051,-0.6949310326013936, -0.050093302563397946, -0.09774296613103166, 0.14892840761568635, -0.0009027154541294092, -0.6948577898013559,1.0,-8745.37134929628, -2835.0902183097423, 21548.392158060917, -76.70654342170883, 220.97700130382935, 38.4429399625989,1.0,801
15783.997,0.6427626923400043, -1.3158335713403515, -1.7756601901404379, -1.6215949413688033, 1.5699926516814724, 0.6422330242669128,-0.6947344104256635, -0.05007224913759031, -0.09886505838414447, 0.15002910317344875, -0.0009021992828516643, -0.694660365434025,1.0,-8744.960274117428, -2835.1951040471376, 21547.55607460755, -76.69288531414733, 220.9674340536102, 38.44107551653437,1.0,801
15784.005,0.638678684631115, -1.3161278992792553, -1.776245263387076, -1.620709122160524, 1.569987348969218, 0.6381494546199434,-0.6944985741168028, -0.05004737291606866, -0.10019724716797637, 0.15133600440593797, -0.0009015840652490545, -0.6944235764938474,1.0,-8744.043934752586, -2835.303669853808, 21547.467702526606, -76.67973715429702, 221.0249775792215, 38.43621620073429,1.0,801
15784.012999999999,0.6346829436625393, -1.3164158179163277, -1.7768261867678419, -1.6198340010844516, 1.5699821627824861, 0.6341541483282365,-0.6942211069503323, -0.05001855997169696, -0.10174612424679787, 0.1528555851432426, -0.000900865364258781, -0.6941450014628647,1.0,-8744.461620726961, -2835.9108910007244, 21548.00103790496, -76.65095770429872, 221.02667609844104, 38.43347088092159,1.0,801
15784.020999999999,0.6307751760613927, -1.3166973453768938, -1.777403909559661, -1.6189686103043934, 1.569977092939619, 0.6302468127017867,-0.6938992458732799, -0.049985675728012026, -0.10351874025928097, 0.15459475688094362, -0.0009000381976490266, -0.6938218721615829,1.0,-8745.936591083371, -2836.2458657295538, 21548.208426070596, -76.65747773144389, 220.94508576792725, 38.45176166702797,1.0,801
15784.028999999999,0.62695505561605, -1.3169725028383503, -1.7779793475511152, -1.6181120123676944, 1.5699721392064263, 0.6264271221884248,-0.6935298480279855, -0.04994856304319258, -0.10552262802028371, 0.15656089011240718, -0.0008990969899735578, -0.6934510402556952,1.0,-8745.104523129672, -2835.4668821948344, 21547.497050646733, -76.69236204520084, 220.97708615936784, 38.45061136086662,1.0,801
15784.036999999998,0.6232222238816237, -1.3172413144751456, -1.7785533834797072, -1.6172632998239598, 1.5699673012971138, 0.622694718979598,-0.6931093532916903, -0.04990704005599709, -0.1077658263750269, 0.15876183596914242, -0.0008980355192490577, -0.6930289397781629,1.0,-8744.601614282365, -2834.9586946695845, 21547.28582269596, -76.69564345403319, 220.99260244703038, 38.46052100473378,1.0,801
15784.045,0.6195762907854417, -1.3175038074037495, -1.7791268674691354, -1.6164215948437795, 1.5699625788752087, 0.6190492136161514,-0.6926337423990646, -0.049860897767274356, -0.11025690441089496, 0.16120594794738377, -0.0008968468578340986, -0.692551545233951,1.0,-8744.732924178905, -2835.113028192646, 21548.103232158825, -76.69344193566616, 220.99596173566277, 38.44407483736987,1.0,801
15784.053,0.6160168352325247, -1.3177600116276347, -1.7797006174665526, -1.6155860488374536, 1.5699579715544887, 0.6154901855941077,-0.6920984901739183, -0.04980989732807764, -0.11300498576732623, 0.16390210343165484, -0.0008955233069489607, -0.6920143248138447,1.0,-8744.501046860018, -2836.092504991816, 21548.25571034743, -76.65483658600871, 221.00592690793883, 38.44097893328117,1.0,801
15784.061,0.6125434057110648, -1.3180099599822466, -1.7802754196798372, -1.6147558420737154, 1.569953478899908, 0.6120171839704491,-0.691498513354469, -0.04975376700276051, -0.11601977270470364, 0.16685972464380097, -0.0008940563242376206, -0.6914121882019635,1.0,-8745.173081219544, -2837.1369998192586, 21547.80021403243, -76.62546417435499, 220.9598632804569, 38.436410168738774,1.0,801
15784.069,0.6091555208979027, -1.3182536880799818, -1.780852029014862, -1.613930183298459, 1.5699491004285249, 0.6086297279688969,-0.6908281124548749, -0.04969219877277246, -0.11931156949586298, 0.17008879854595996, -0.0008924364437392996, -0.690739428419995,1.0,-8744.740432868244, -2835.625366511431, 21547.15977384102, -76.67391806328735, 220.9904303432507, 38.451797653329294,1.0,801
15784.077,0.6058526702640064, -1.318491234255161, -1.7814311695127572, -1.6131083093534588, 1.5699448356104289, 0.605327307585693,-0.6900809070659518, -0.04962484454429924, -0.12289130458535436, 0.1735998951048275, -0.0008906531876098459, -0.6899896571114595,1.0,-8744.328902138579, -2834.007023699648, 21547.598868863286, -76.72486570339495, 221.0192169586279, 38.444872174851014,1.0,801
15784.085,0.602634314679948, -1.3187226395090068, -1.7820135347871826, -1.6122894847950988, 1.5699406838696681, 0.6021093841953803,-0.6892497639623923, -0.04955131192055084, -0.12677055081793287, 0.17740418317851975, -0.0008886949689168099, -0.68915573263383,1.0,-8746.1463460851, -2834.6510530549203, 21548.01297399057, -76.70229584615882, 220.95849644246834, 38.439471220029475,1.0,801
15784.092999999999,0.5994998870213826, -1.3189479474546149, -1.7825997884615887, -1.6114730015130965, 1.5699366445851763, 0.5989753911565836,-0.6883267173556497, -0.04947115949757918, -0.13096154286434497, 0.18151344311196632, -0.0008865489848314647, -0.6882296802982908,1.0,-8744.822519746827, -2836.576724405246, 21547.679365756718, -76.63852220053661, 220.97916667008013, 38.46353306814831,1.0,801
15784.100999999999,0.5964487927745256, -1.3191672042619338, -1.7831905646064898, -1.6106581783492233, 1.5699327170917001, 0.5959247344177901,-0.6873028806152274, -0.049383891641274914, -0.13547719076414838, 0.18594007491718598, -0.0008842010995629871, -0.6872026040806558,1.0,-8745.0056540415, -2837.0415628555265, 21547.500298049294, -76.63757212998362, 220.95810249528773, 38.4636692711787,1.0,801
15784.108999999999,0.5934804106416305, -1.319380458602737, -1.7837864681767286, -1.6098443607160347, 1.5699289006807264, 0.5929567931231305,-0.6861683487822937, -0.04928895270299983, -0.14033108825631657, 0.1906971006656271, -0.0008816357164332631, -0.6860645891283177,1.0,-8743.879210112611, -2835.3700438897104, 21547.74441975954, -76.70412796556704, 221.02750785993362, 38.45961829421117,1.0,801
15784.117,0.5905940931464672, -1.3195877615955975, -1.7843880754487431, -1.6090309202155906, 1.5699251946014092, 0.5900709202181591,-0.684912091225881, -0.04918572063262669, -0.1455375142725012, 0.19579815942524173, -0.0008788356385865537, -0.6848045944146615,1.0,-8744.854132557293, -2833.822999856716, 21548.565505344726, -76.74889883595156, 220.98244110186465, 38.450957018261164,1.0,801
15784.125,0.5877891672397996, -1.3197891667508674, -1.784995934457834, -1.6082172542581823, 1.5699215980614976, 0.5872664430556352,-0.6835218338534363, -0.04907349995119395, -0.15111142561850868, 0.2012574927291906, -0.0008757819179808581, -0.6834103349541248,1.0,-8744.643501739982, -2835.838516677826, 21547.92062120353, -76.6861145069908, 220.9959202111848, 38.42765484623311,1.0,801
15784.133,0.5850649349048636, -1.3199847299156469, -1.7856105654354328, -1.6074027856810567, 1.5699181102282616, 0.5845426640013035,-0.6819839303968703, -0.04895151405172655, -0.15706843846022983, 0.20708991816028452, -0.0008724536925352255, -0.6818681531007782,1.0,-8744.597603265638, -2837.0890730746733, 21547.110978118446, -76.63653646140949, 220.98729085737511, 38.427007140651654,1.0,801
15784.141,0.5824206737628446, -1.3201745092187647, -1.7862324612463674, -1.606586962367139, 1.5699147302294207, 0.5818988610396749,-0.680283222468832, -0.04881889680703625, -0.16342479575486665, 0.21331078817042487, -0.0008688280116319582, -0.6801628786272036,1.0,-8744.912495042168, -2836.9165429314035, 21547.494857717596, -76.62846155083878, 220.97613351621123, 38.459339908477034,1.0,801
15784.149,0.5798556376783559, -1.3203585650157486, -1.7868620878261323, -1.605769256863761, 1.5699114571540707, 0.5793342883798069,-0.6784028883420454, -0.048674683478763275, -0.17019731722199102, 0.21993593072386744, -0.0008648796506221628, -0.6782776775389748,1.0,-8744.957095101116, -2834.610233431472, 21547.927944484498, -76.7212753732037, 220.98805965869337, 38.43446771265138,1.0,801
15784.157,0.5773690573649164, -1.3205369598338077, -1.7874998846181525, -1.6049491660013793, 1.5699082900536105, 0.5768481770610853,-0.6763242807725058, -0.04851780094413581, -0.17740332782927473, 0.22698156775625153, -0.0008605809155909053, -0.6761938899484369,1.0,-8745.729634143729, -2834.011726201973, 21547.8823126235, -76.7063097493093, 220.94841640737172, 38.43160563077325,1.0,801
15784.164999999999,0.5749601409904282, -1.3207097583167968, -1.7881462650110516, -1.6041262105123089, 1.56990522794267, 0.5744397355590033,-0.6740267546958999, -0.048347057287835477, -0.1850605600761367, 0.23446420678147695, -0.00085590144044412, -0.6738908578405585,1.0,-8743.820559343876, -2835.097047616023, 21547.148575213465, -76.69857697715884, 221.03073691735312, 38.43920105806089,1.0,801
15784.172999999999,0.5726280747826549, -1.3208770271702024, -1.7888016167759213, -1.6032999346494385, 1.5699022698000362, 0.5721081503909441,-0.6714874863126207, -0.048161130848284585, -0.19318702460272594, 0.24240050026571575, -0.0008508079794297997, -0.6713457442501823,1.0,-8745.166598617467, -2836.625666534782, 21547.384317488988, -76.6425777538615, 220.97599298057844, 38.42337105815568,1.0,801
15784.180999999999,0.5703720236346991, -1.3210388351061102, -1.7894663025035848, -1.602469905804961, 1.569899414569582, 0.5698525867219602,-0.6686812859831567, -0.047958558863333556, -0.20180084284844346, 0.25080706664174374, -0.0008452641995533921, -0.6685333462769965,1.0,-8744.205382591945, -2835.689017261516, 21548.07939834125, -76.66049809851069, 221.03014476275206, 38.42954981302802,1.0,801
15784.188999999998,0.5681911317104803, -1.3211952527881863, -1.7901406600418683, -1.601635714129097, 1.5698966611611918, 0.5676721889705546,-0.6655804085311255, -0.04773772593282018, -0.2109200346635464, 0.2597002660904911, -0.000839230479048976, -0.6654259055406264,1.0,-8745.498039945036, -2835.7183617023084, 21548.323288593194, -76.67758605917058, 220.96023100012758, 38.43288230740271,1.0,801
15784.197,0.5660845230502134, -1.3213463527766454, -1.7908250029328645, -1.6007969721488182, 1.56989400845169, 0.565566081414462,-0.6621543660485671, -0.04749685260817829, -0.2205622529873499, 0.2690959235217683, -0.0008326637201825656, -0.6619929211761838,1.0,-8744.189874936832, -2835.1570413215322, 21547.233639689945, -76.69807736934067, 220.99670933371033, 38.44047291823978,1.0,801
15784.205,0.5640513021758856, -1.3214922094732326, -1.7915196208501998, -1.5999533143865712, 1.5698914552857672, 0.5635333687964286,-0.6583697501711383, -0.047233984535671444, -0.23074445701944754, 0.27900899061840323, -0.0008255171872469652, -0.6582009723441241,1.0,-8744.426961357916, -2835.4803140366867, 21547.15263151259, -76.68419668483779, 220.98273762665445, 38.42500746266373,1.0,801
15784.213,0.562090554696735, -1.321632899066195, -1.7922247800363076, -1.5991043969790049, 1.5698890004769086, 0.5615731369299936,-0.6541900730887795, -0.046946982723154534, -0.24148251482993233, 0.2894531384745486, -0.0008177403837017101, -0.6540135595265585,1.0,-8744.46643225939, -2835.591618823597, 21547.61537417831, -76.68069717010255, 220.9949980792486, 38.447158009683676,1.0,801
15784.221,0.560201347914728, -1.3217684994752572, -1.7929407237396857, -1.598249897295692, 1.5698866428083198, 0.5596844533052696,-0.6495756393162289, -0.04663351567297807, -0.2527907262237179, 0.3004402724050982, -0.0008092789860340688, -0.6493909766410749,1.0,-8745.103199663865, -2836.7332218805923, 21548.168969306003, -76.6415712048697, 220.9628185962979, 38.4357638002698,1.0,801
15784.229,0.5583827314300376, -1.3218990902965961, -1.7936676726521732, -1.5973895135578573, 1.5698843810338547, 0.5578663676947233,-0.6444834634768027, -0.046291054326590635, -0.26468125708238344, 0.31197996111949555, -0.000800074856040817, -0.6442902292318807,1.0,-8744.822768214712, -2835.566091869935, 21547.31994944529, -76.67722543261166, 220.97985036656775, 38.439008465902816,1.0,801
15784.237,0.5566337377465211, -1.3220247527478186, -1.7944058253462094, -1.5965229644570975, 1.5698822138789434, 0.5561179127589565,-0.6388672530163559, -0.045916870997632, -0.27716347759669574, 0.32407877387992007, -0.0007900661577586846, -0.6386650176607312,1.0,-8745.172880422862, -2834.997081670909, 21547.06017794775, -76.69492618571132, 220.97067245868686, 38.42851668915995,1.0,801
15784.244999999999,0.5549533828771979, -1.3221455696129336, -1.7951553587121083, -1.5956499887741087, 1.569880140041518, 0.5544381046524863,-0.6326774787562864, -0.04550804372355414, -0.2902431990703575, 0.3367395217907032, -0.0007791876100044284, -0.6324658082104404,1.0,-8744.35762597618, -2833.6117620613895, 21547.63015744464, -76.73116330574234, 221.00949416314904, 38.445263083132346,1.0,801
15784.252999999999,0.5533406669497271, -1.3222616251873287, -1.7959164283953202, -1.5947703449974124, 1.5698781581929409, 0.5528259436295266,-0.6258615603072346, -0.045061467728415114, -0.30392180766441174, 0.3499604033236801, -0.0007673709100814052, -0.6256400191239085,1.0,-8744.253729981245, -2835.8387026504597, 21548.360146031395, -76.67661921759932, 221.00043774838707, 38.422209837195254,1.0,801
15784.260999999999,0.5517945748118862, -1.3223730052227465, -1.7966891692337015, -1.5938838109420752, 1.5698762669789317, 0.5512804146497681,-0.6183641972528818, -0.04457387594011384, -0.31819529893386844, 0.3637340599229159, -0.000754545368140057, -0.6181323524854045,1.0,-8745.515530838802, -2837.1009808798635, 21547.97728739248, -76.61787496629475, 220.94628689017895, 38.434235710924696,1.0,801
15784.268999999998,0.5503140766370482, -1.3224797968722548, -1.7974736956947837, -1.592990183368439, 1.5698744650204939, 0.5498004879841591,-0.6101278801537832, -0.044041870711459964, -0.333053224644209, 0.3780465553791683, -0.000740638794189043, -0.6098853059858893,1.0,-8744.421858175283, -2835.8523812991616, 21547.500109930792, -76.67525436530588, 221.00422923331428, 38.42753642510067,1.0,801
15784.277,0.5488981285296599, -1.3225820886352295, -1.798270102313034, -1.5920892776008406, 1.5698727509148434, 0.548385119820687,-0.6010936170840674, -0.04346196901029462, -0.3484775734296878, 0.39287630285686426, -0.0007255786798298679, -0.6008399002697791,1.0,-8744.912962570043, -2834.1822966657, 21547.70835417212, -76.72537372268297, 220.9692829344193, 38.44132027769035,1.0,801
15784.285,0.5475456731307192, -1.3226799703023238, -1.7990784641271311, -1.5911809271463397, 1.569871123236334, 0.5470332528701581,-0.5912019106467903, -0.04283066330929896, -0.36444161947833353, 0.4081929760431771, -0.0007092937131653828, -0.5909366567843986,1.0,-8744.815466880367, -2834.976917434182, 21548.073719716995, -76.69785616841997, 220.9862921739985, 38.42447572245541,1.0,801
15784.293,0.5462556402232539, -1.3227735329004444, -1.7998988371172269, -1.5902649833134426, 1.5698695805373863, 0.5457438169719788,-0.5803940160656926, -0.04214450014802929, -0.38090878840611114, 0.42395645560095613, -0.000691715656549579, -0.5801168566945136,1.0,-8744.52725174232, -2835.773808846864, 21547.594332068118, -76.66374583192177, 220.98766654795696, 38.42480305513851,1.0,801
15784.301,0.5450269473377988, -1.3228628686377277, -1.800731258642215, -1.5893413148308246, 1.5698681213494134, 0.5445157296999362,-0.5686135017549595, -0.04140017777697349, -0.39783160615855384, 0.4401158782053662, -0.0006727816013849516, -0.5683241022161027,1.0,-8744.795508469933, -2836.9131517663645, 21547.32689162549, -76.6298447681769, 220.98141505187226, 38.429132292095375,1.0,801
15784.309,0.5438585003578738, -1.3229480708485157, -1.8015757478769983, -1.5884098074660589, 1.5698667441837493, 0.5433478969679789,-0.5558081185080692, -0.04059466334727186, -0.41515081387048025, 0.45660887156569013, -0.0006524365907124744, -0.5555061864506297,1.0,-8745.13509002022, -2834.9983276173634, 21547.63153167218, -76.70288496130328, 220.96148146657725, 38.41628523929029,1.0,801
15784.317,0.5427491941254619, -1.3230292339383283, -1.8024323062497558, -1.5874703636443357, 1.5698654475325755, 0.5422392136359977,-0.5419319612264465, -0.039725328720715124, -0.43279474708714993, 0.4733610728819719, -0.0006306365681308432, -0.5416172555694709,1.0,-8745.196762392361, -2834.9144425526238, 21547.933139433855, -76.71676064879043, 220.946843371669, 38.42559619388143,1.0,801
15784.324999999999,0.541697913046487, -1.323106453328843, -1.8033009178792092, -1.5865229020671912, 1.5698642298698482, 0.541188564115606,-0.5269478777263465, -0.03879010212620404, -0.4506790887807916, 0.49028603732169, -0.0006073515709468365, -0.5266202178077832,1.0,-8744.62055631237, -2834.5136436714656, 21547.437165566145, -76.71281071641963, 220.9961125090257, 38.430868128680345,1.0,801
15784.332999999999,0.5407035316962915, -1.3231798254028648, -1.8041815500118927, -1.5855673573312323, 1.569863089652226, 0.5401948229759215,-0.5108300435501439, -0.03778763063564232, -0.468707108718025, 0.5072856439138107, -0.0005825690383322714, -0.5104893181124929,1.0,-8743.901090814199, -2836.3071510310365, 21547.580350295364, -76.65927089540983, 221.02542503126807, 38.42348257697205,1.0,801
15784.340999999999,0.5397649154251148, -1.323249447449304, -1.805074153459417, -1.5846036795468565, 1.5698620253199966, 0.5392568555493455,-0.49356658235547574, -0.03671744592751227, -0.4867704932292224, 0.5242510951866087, -0.0005562970556649867, -0.49321275794235314,1.0,-8744.75055612105, -2836.955994670093, 21547.896515211323, -76.6357521613053, 220.9717728674189, 38.419324673791124,1.0,801
15784.349,0.5388809209635708, -1.3233154176081525, -1.8059786630357397, -1.5836318339569813, 1.569861035298004, 0.538373518537345,-0.4751620726733641, -0.0355801233198421, -0.5047508460222546, 0.5410645809200773, -0.0005285673104690701, -0.4747952009524687,1.0,-8745.70354932836, -2836.230391273504, 21547.794006198113, -76.65567654976377, 220.92453669398793, 38.42481027546279,1.0,801
15784.357,0.5380503970281252, -1.3233778348154566, -1.8068949979944273, -1.582651800555765, 1.569860117996576, 0.5375436606162327,-0.45563974966868387, -0.03437742196844988, -0.5225219004816936, 0.5576016340470803, -0.0004994375017393563, -0.4552599731668368,1.0,-8744.552001809603, -2834.5498347607363, 21547.383059820615, -76.72292695050083, 220.9869397832714, 38.43550123020631,1.0,801
15784.365,0.5372721849265747, -1.3234367987482942, -1.8078230624659302, -1.5816635737073348, 1.5698592718124518, 0.5367661230429475,-0.43504319220478654, -0.03311239290017011, -0.5399524274590889, 0.5737341490485726, -0.00046899293222536385, -0.4346507479515836,1.0,-8744.132964300581, -2834.143306327518, 21547.86248353815, -76.7340303675411, 220.99976493563537, 38.43013017434916,1.0,801
15784.373,0.5365451191635235, -1.323492409769747, -1.8087627458948417, -1.5806671617645094, 1.5698584951297077, 0.5360397402608359,-0.4134372881578789, -0.031789441644408216, -0.5569097537749881, 0.5893339645031188, -0.00043734703099161166, -0.4130325087949968,1.0,-8744.119458010528, -2836.18694151848, 21548.026206246675, -76.67805288372656, 220.99268323084078, 38.42315213675377,1.0,801
15784.381,0.5358680280458622, -1.3235447688738802, -1.8097139234771715, -1.5796625866875242, 1.5698577863206862, 0.5353633405054324,-0.3909082999346029, -0.030414333992820532, -0.5732637330505935, 0.6042768396625543, -0.00040464060674208263, -0.3904916119615429,1.0,-8744.829204136378, -2836.5121527323217, 21547.587408445426, -76.62399124261233, 220.95218607327797, 38.422423885494,1.0,801
15784.389,0.5352397342882451, -1.323593977630713, -1.8106764565976103, -1.578649883662754, 1.5698571437469222, 0.5347357464102401,-0.36756290927206164, -0.028994136981673763, -0.588890942656126, 0.6184465907516178, -0.00037103972109322694, -0.3671348282619776,1.0,-8744.835376552153, -2835.4582795570477, 21547.215848764736, -76.69269755166854, 220.96005225029478, 38.43532460723827,1.0,801
15784.396999999999,0.5346590556185682, -1.3236401381311964, -1.8116501932667983, -1.577629100721441, 1.5698565657600698, 0.5341557756125117,-0.3435262022816572, -0.027537092355640707, -0.603678830494615, 0.6317391079157874, -0.00033673218832725983, -0.3430873251001726,1.0,-8744.801910123866, -2835.043629348993, 21547.441402452365, -76.70156600183893, 220.97162461506815, 38.43121117281743,1.0,801
15784.404999999999,0.5341248053834473, -1.3236833529321883, -1.8126349685585872, -1.5766002983584144, 1.569856050702831, 0.5336222413590299,-0.3189386534022324, -0.02605242597947734, -0.617529513893756, 0.6440659586577806, -0.00030192284023496167, -0.31848964767717064,1.0,-8744.695313492713, -2835.233631847279, 21547.36423650885, -76.69856391359653, 220.96532863541705, 38.42682939799141,1.0,801
15784.412999999999,0.5336357931536955, -1.323723725001427, -1.813630605047316, -1.5755635491508224, 1.569855596909881, 0.5331339531118886,-0.29395226695950827, -0.024550103062743044, -0.6303629469743987, 0.6553573042550502, -0.00026682782240212727, -0.2934938582546366,1.0,-8744.650242919288, -2835.5150706327813, 21547.398459223197, -76.67535086364376, 220.98577084527335, 38.420825407768405,1.0,801
15784.420999999998,0.5331908253298012, -1.3237613576625096, -1.8146369132450726, -1.5745189373768476, 1.5698552027087973, 0.5326897171542732,-0.26872612182130745, -0.023040544659327335, -0.6421192232607229, 0.6655639117789679, -0.0002316682912122561, -0.2682590791362117,1.0,-8744.701759207283, -2835.733146844538, 21547.822143589467, -76.67148186822979, 220.96656670341912, 38.427153801809766,1.0,801
15784.429,0.5327887057474062, -1.323796354539862, -1.8156536920389605, -1.5734665586344398, 1.5698548664209853, 0.5322883371962412,-0.24342162396673953, -0.02153432478114669, -0.6527598607859142, 0.6746581287938398, -0.00019666394163121533, -0.24294674429606614,1.0,-8745.543931358912, -2836.0189316020933, 21548.22725455862, -76.66250177707698, 220.92859430175753, 38.42668097844978,1.0,801
15784.437,0.5324282362827835, -1.323828819503719, -1.8166807291283709, -1.5724065194600358, 1.5698545863626066, 0.5319286149805037,-0.2181977941231277, -0.020041868999216644, -0.6622680153907134, 0.6826337878235453, -0.00016202680457102646, -0.21771588684856893,1.0,-8744.860141770734, -2834.2963467150566, 21547.382788623356, -76.73511045560412, 220.9843373168406, 38.433749477553675,1.0,801
15784.445,0.5321082174583148, -1.3238588566150966, -1.8177178014622433, -1.571338936947284, 1.5698543608455056, 0.5316093508882054,-0.19320690036450563, -0.018573174409217005, -0.6706476689181555, 0.689505107653221, -0.00012795570908856287, -0.192718772220055,1.0,-8744.305836490696, -2834.845287939299, 21547.229239743854, -76.72429241594682, 220.98719194427474, 38.43186254849502,1.0,801
15784.453,0.5318274490479689, -1.3238865700707683, -1.8187646756763396, -1.5702639383657715, 1.569854188178137, 0.5313293445447055,-0.1685906934325677, -0.01713756759552109, -0.6779219274366467, 0.69530474363429, -9.463171816929948e-05, -0.16809713468679083,1.0,-8744.672761599017, -2836.6001517510804, 21547.704299117635, -76.65140855240489, 220.97133716430346, 38.42947840381632,1.0,801
15784.461,0.531584730682779, -1.3239120641482423, -1.8198211085305056, -1.5691816607797477, 1.569854066666493, 0.5310873954253585,-0.14447742608282976, -0.015743512397933642, -0.6841306288437399, 0.7000811984291893, -6.221473357169758e-05, -0.14397919843853327,1.0,-8744.557168462867, -2836.9733001297946, 21547.6493456854, -76.64408389700765, 220.95879403040794, 38.427690189963755,1.0,801
15784.469,0.5313788624563213, -1.323935443150729, -1.8208868473459408, -1.5680922506668464, 1.5698539946150307, 0.5308823034612951,-0.120979750533608, -0.014398473729855102, -0.689327493157146, 0.7038958328923298, -3.084134413946451e-05, -0.12047757707717442,1.0,-8744.878375379734, -2834.860639523198, 21547.729936072832, -76.7148748963769, 220.97746764147257, 38.43013110766006,1.0,801
15784.476999999999,0.5312086455301921, -1.3239568113521276, -1.8219616304424662, -1.5669958635368149, 1.5698539703275987, 0.5307128696452024,-0.09819350349816439, -0.013108838273690047, -0.6935770524391169, 0.7068197148670854, -6.238806453338242e-07, -0.09768806085986013,1.0,-8744.868066249586, -2834.4218763222425, 21547.781160604638, -76.73748069431718, 220.9691056099382, 38.42946856721164,1.0,801
15784.484999999999,0.5310728827394865, -1.3239762729419917, -1.82304518757579, -1.5658926635502342, 1.5698539921083647, 0.5305778966371051,-0.07619731694030991, -0.011879888276823142, -0.6969515755339114, 0.7089305171978991, 2.8349448512506156e-05, -0.07568922967143334,1.0,-8745.218752567083, -2834.957322590286, 21547.467118775425, -76.70769263961077, 220.94956990658903, 38.4305588537799,1.0,801
15784.492999999999,0.5309703791982754, -1.3239939319705076, -1.8241372403747764, -1.5647828231372456, 1.5698540582627432, 0.5304761893701465,-0.05505294102053563, -0.01071582131064483, -0.6995281635299891, 0.7103096335474509, 5.601352584039488e-05, -0.05454277806602382,1.0,-8744.899386129026, -2835.2162445363892, 21547.30237151594, -76.69800485791976, 220.98807117911997, 38.42252628285556,1.0,801
15784.500999999998,0.5308999429050838, -1.3240098922934713, -1.8252375027787107, -1.563666522616276, 1.5698541670983213, 0.5304065556563683,-0.0348061356862397, -0.009619806874905611, -0.7013861438338507, 0.7110396305580173, 8.232461184990082e-05, -0.03429440873871627,1.0,-8745.041204953972, -2837.199709173773, 21547.877611947955, -76.62579586535512, 220.95470690992295, 38.423914433268436,1.0,801
15784.509,0.5308603853483691, -1.3240242575172605, -1.8263456814745682, -1.5625439498127607, 1.5698543169257877, 0.5303678067924921,-0.01548797736106519, -0.008594070034396701, -0.7026048417808843, 0.7112021052250365, 0.00010725816797472855, -0.014975140824948453,1.0,-8744.996951514471, -2835.788028894717, 21547.695281146312, -76.65792414418982, 220.95947649811097, 38.42804325343292,1.0,801
15784.517,0.5308505221119979, -1.3240371309438146, -1.8274614763342818, -1.5614152996778694, 1.5698545060598588, 0.5303587581656997,0.0028835667886588346, -0.007639992615403181, -0.7032617646349568, 0.7108759726285304, 0.00013080641551496043, 0.003397114519859478,1.0,-8744.702194790943, -2834.2749284250367, 21547.77382688314, -76.74816198503581, 220.98436240695918, 38.43438372556591,1.0,801
