dlisjak-bit/sensor_synchronization/realtime_sync/robot_reference.csv
t,q0,q1,q2,q3,q4,q5,qd0,qd1,qd2,qd3,qd4,qd5,ss,f0,f1,f2,f3,f4,f5,tsf,do
13018.999,0.7269052265168578, -1.4236082758784443, -1.4757606900782552, -1.8154121903442926, 1.5721135142539815, 2.3201682575964426,0.0, 0.0, 0.0, 0.0, 0.0, 0.0,1.0,-8790.427275922922, -2846.3413498764885, 21698.924981147527, -76.87444511097146, 222.37418562014534, 38.22237488466166,1.0,769
13019.502999999999,0.7269163966240706, -1.4236133316545159, -1.4757624111557792, -1.81540538922442, 1.5721135023446815, 2.320177986837062,0.6512238112900672, -0.29475471449252993, -0.10033983056016234, 0.3965092832469896, -0.000694319187597242, 0.5672204426113788,1.0,-8790.86547465581, -2846.625492983878, 21698.807475122085, -76.8847773785784, 222.3806855505781, 38.217667680467514,1.0,769
13019.510999999999,0.7270057574817728, -1.4236537778630884, -1.475776179775976, -1.8153509802654355, 1.5721134070702811, 2.3202558207620188,0.6512238112900671, -0.2947547144925299, -0.1003398305601623, 0.3965092832469895, -0.0006943191875972418, 0.5672204426113787,1.0,-8790.70619923645, -2848.2034348685174, 21698.678048412814, -76.82900348507235, 222.36171706714742, 38.206122136195006,1.0,769
13019.519,0.727184479197177, -1.4237346702802327, -1.475803717016369, -1.8152421623474684, 1.5721132165214804, 2.3204114886119322,0.6512238112900672, -0.29475471449252993, -0.10033983056016234, 0.39650928324698953, -0.0006943191875972421, 0.5672204426113788,1.0,-8790.621361203659, -2848.139925185401, 21698.989797618866, -76.8050335028152, 222.38791912453104, 38.153780888128665,1.0,769
13019.527,0.7274525617702833, -1.4238560089059504, -1.4758450228769586, -1.8150789354705168, 1.5721129306982793, 2.320644990386802,0.6512238112900672, -0.2947547144925299, -0.10033983056016234, 0.39650928324698953, -0.000694319187597242, 0.5672204426113788,1.0,-8790.451593410224, -2846.7995181057177, 21698.285473203403, -76.85478413801818, 222.38527527791786, 38.15719043994741,1.0,769
13019.535,0.7278100052010917, -1.4240177937402407, -1.4759000973577443, -1.8148612996345808, 1.5721125496006778, 2.3209563260866286,0.6512238112900672, -0.29475471449252993, -0.10033983056016232, 0.39650928324698953, -0.000694319187597242, 0.5672204426113788,1.0,-8790.950923822773, -2847.8515197114402, 21698.102941691905, -76.83556907013903, 222.36786070345778, 38.15423050058436,1.0,769
13019.543,0.7282568094896023, -1.4242200247831027, -1.4759689404587268, -1.814589254839662, 1.572112073228676, 2.321345495711412,0.6512238112900672, -0.2947547144925299, -0.10033983056016234, 0.39650928324698953, -0.000694319187597242, 0.5672204426113787,1.0,-8791.049475093412, -2848.8011472915186, 21698.520413088674, -76.81391045711834, 222.3678470570011, 38.1576199854083,1.0,769
13019.551,0.7287929746358149, -1.4244627020345373, -1.4760515521799054, -1.8142628010857589, 1.5721115015822738, 2.3218124992611515,0.6512238112900671, -0.2947547144925299, -0.10033983056016232, 0.39650928324698953, -0.000694319187597242, 0.5672204426113788,1.0,-8790.00869460958, -2848.003687951955, 21698.56295161731, -76.82662160196051, 222.38766379978387, 38.15924911027966,1.0,769
13019.559,0.7294185006397297, -1.4247458254945453, -1.4761479325212807, -1.8138819383728713, 1.5721108346614714, 2.322357336735848,0.6512238112900673, -0.29475471449252993, -0.10033983056016234, 0.3965092832469896, -0.0006943191875972421, 0.5672204426113788,1.0,-8789.823345780487, -2847.424009288434, 21698.84119968561, -76.85108927300857, 222.40499254701808, 38.15987510586348,1.0,769
13019.567,0.7301333875013466, -1.4250693951631241, -1.476258081482852, -1.813446666701, 1.5721100724662684, 2.322980008135501,0.6512238112900672, -0.29475471449252993, -0.10033983056016232, 0.39650928324698953, -0.000694319187597242, 0.5672204426113787,1.0,-8791.167094270479, -2847.702676733835, 21698.6416997641, -76.83366124421508, 222.3953697371498, 38.158943458242646,1.0,769
13019.574999999999,0.7309376352206656, -1.4254334110402764, -1.4763819990646203, -1.8129569860701453, 1.5721092149966651, 2.323680513460111,0.6512238112900672, -0.2947547144925299, -0.10033983056016232, 0.3965092832469895, -0.000694319187597242, 0.5672204426113788,1.0,-8791.393785951515, -2847.6396894200407, 21698.506179955835, -76.84774046519266, 222.34858298061295, 38.15919939505295,1.0,769
13019.582999999999,0.7318312437976867, -1.4258378731260013, -1.4765196852665845, -1.812412896480307, 1.5721082622526614, 2.324458852709677,0.6512238112900671, -0.2947547144925299, -0.10033983056016231, 0.3965092832469895, -0.000694319187597242, 0.5672204426113788,1.0,-8791.07961654656, -2847.369373374864, 21698.425845089125, -76.84352370505727, 222.3633698006234, 38.16349225850146,1.0,769
13019.590999999999,0.7328142132324099, -1.4262827814202987, -1.4766711400887456, -1.8118143979314842, 1.5721072142342576, 2.3253150258842,0.6512238112900671, -0.2947547144925299, -0.10033983056016232, 0.39650928324698953, -0.000694319187597242, 0.5672204426113787,1.0,-8790.645814834048, -2847.86889557383, 21698.736178385458, -76.84681935325776, 222.39590670737067, 38.15936659841998,1.0,769
13019.599,0.7338865435248353, -1.4267681359231679, -1.4768363635311035, -1.811161490423678, 1.5721060709414532, 2.3262490329836796,0.6512238112900671, -0.2947547144925299, -0.10033983056016231, 0.39650928324698953, -0.0006943191875972419, 0.5672204426113787,1.0,-8790.352686891074, -2848.186883117659, 21698.72638517152, -76.82054433706014, 222.37426911377406, 38.164091167344225,1.0,769
13019.607,0.7350482346749627, -1.4272939366346105, -1.4770153555936574, -1.810454173956888, 1.5721048323742484, 2.327260874008116,0.6512238112900672, -0.29475471449252993, -0.10033983056016232, 0.39650928324698953, -0.0006943191875972419, 0.5672204426113787,1.0,-8790.570927690866, -2848.9616958881534, 21698.47791947756, -76.7969288860493, 222.39208548040364, 38.16806609195973,1.0,769
13019.615,0.7362992866827922, -1.4278601835546247, -1.4772081162764072, -1.8096924485311137, 1.5721034985326434, 2.3283505489575087,0.6512238112900672, -0.2947547144925299, -0.10033983056016234, 0.39650928324698953, -0.0006943191875972421, 0.5672204426113788,1.0,-8790.148111847979, -2847.8518531159716, 21698.787631810854, -76.82414491744058, 222.40097972006123, 38.16145598457632,1.0,769
13019.623,0.7376396995483239, -1.4284668766832116, -1.477414645579354, -1.8088763141463549, 1.5721020694166379, 2.329518057831858,0.6512238112900672, -0.2947547144925299, -0.10033983056016231, 0.3965092832469895, -0.000694319187597242, 0.5672204426113788,1.0,-8791.2171504742, -2847.485811677475, 21698.35229499407, -76.84470087076593, 222.3491773273542, 38.168791849945535,1.0,769
13019.631,0.7390694732715577, -1.429114016020371, -1.4776349435024976, -1.8080057708026134, 1.5721005450262322, 2.3307634006311644,0.6512238112900672, -0.29475471449252993, -0.10033983056016234, 0.3965092832469896, -0.000694319187597242, 0.5672204426113788,1.0,-8791.087600839695, -2847.3283869744137, 21697.64952643027, -76.85997384593668, 222.3488149883413, 38.168756586337565,1.0,769
13019.639,0.7405886078524935, -1.429801601566103, -1.4778690100458372, -1.8070808184998874, 1.572098925361426, 2.332086577355427,0.6512238112900672, -0.2947547144925299, -0.10033983056016234, 0.39650928324698953, -0.000694319187597242, 0.5672204426113788,1.0,-8790.7018130456, -2848.145413755713, 21698.351555994028, -76.8188913165512, 222.37717999793625, 38.1678620914993,1.0,769
13019.646999999999,0.7421971032911315, -1.4305296333204076, -1.4781168452093736, -1.806101457238178, 1.5720972104222193, 2.3334875880046466,0.6512238112900671, -0.2947547144925299, -0.10033983056016231, 0.3965092832469895, -0.000694319187597242, 0.5672204426113787,1.0,-8790.049220105953, -2847.9523411291793, 21699.223220331645, -76.83220276967813, 222.40509043682192, 38.183710536995505,1.0,769
13019.654999999999,0.7438949595874715, -1.4312981112832839, -1.478378448993106, -1.805067687017484, 1.5720954002086125, 2.3349664325788226,0.6512238112900672, -0.2947547144925299, -0.10033983056016232, 0.3965092832469896, -0.000694319187597242, 0.5672204426113787,1.0,-8790.872221919182, -2847.814686871453, 21698.82258908516, -76.84203408784833, 222.34480573298424, 38.17189292977238,1.0,769
13019.662999999999,0.7456821767415138, -1.4321070354547336, -1.4786538213970353, -1.8039795078378074, 1.5720934947206053, 2.336523111077955,0.6512238112900672, -0.2947547144925299, -0.10033983056016232, 0.3965092832469895, -0.000694319187597242, 0.5672204426113788,1.0,-8790.706430403889, -2847.5043604072143, 21698.098914779093, -76.84402314596082, 222.35029639397754, 38.17870677890974,1.0,769
13019.671,0.7475587547532581, -1.432956405834755, -1.4789429624211605, -1.8028369196991463, 1.5720914939581976, 2.3381576235020445,0.6512238112900671, -0.2947547144925299, -0.1003398305601623, 0.3965092832469895, -0.0006943191875972419, 0.5672204426113787,1.0,-8790.413827604156, -2847.892359280295, 21698.443202259532, -76.84489306372652, 222.38076721258244, 38.17132851749949,1.0,769
13019.679,0.7495246936227046, -1.433846222423349, -1.4792458720654826, -1.8016399226015007, 1.5720893979213897, 2.3398699698510903,0.6512238112900672, -0.2947547144925299, -0.10033983056016231, 0.3965092832469895, -0.000694319187597242, 0.5672204426113787,1.0,-8791.358724406253, -2848.5487080874373, 21699.116564582484, -76.82678416797265, 222.33055578758797, 38.175415819652585,1.0,769
13019.687,0.751579993349853, -1.4347764852205156, -1.4795625503300016, -1.8003885165448716, 1.5720872066101812, 2.341660150125093,0.6512238112900671, -0.2947547144925299, -0.10033983056016232, 0.39650928324698953, -0.0006943191875972421, 0.5672204426113788,1.0,-8790.429459785022, -2847.8932222963276, 21698.252000470726, -76.85376985055098, 222.36798402162088, 38.18259439998192,1.0,769
13019.695,0.7537246539347037, -1.4357471942262556, -1.4798929972147157, -1.799082701529259, 1.5720849200245726, 2.343528164324052,0.6512238112900671, -0.2947547144925299, -0.10033983056016232, 0.39650928324698953, -0.0006943191875972419, 0.5672204426113787,1.0,-8789.760337760596, -2848.326392915912, 21698.622449360515, -76.8393758162211, 222.39246621353044, 38.18410987536237,1.0,769
13019.703,0.7559586753772565, -1.4367583494405665, -1.4802372127196275, -1.7977224775546627, 1.5720825381645636, 2.345474012447968,0.6512238112900672, -0.2947547144925299, -0.10033983056016232, 0.39650928324698953, -0.000694319187597242, 0.5672204426113788,1.0,-8792.09572924551, -2847.914385902928, 21698.392486094253, -76.84205455447571, 222.27948495468763, 38.17274820870591,1.0,769
13019.711,0.7582820576775113, -1.4378099508634508, -1.4805951968447353, -1.7963078446210812, 1.572080061030154, 2.34749769449684,0.6512238112900672, -0.2947547144925299, -0.10033983056016231, 0.39650928324698953, -0.0006943191875972419, 0.5672204426113787,1.0,-8789.497953478183, -2848.127378150961, 21698.02814005184, -76.83126761727422, 222.39957675274445, 38.180519277730326,1.0,769
13019.719,0.7606948008354683, -1.4389019984949076, -1.480966949590039, -1.794838802728517, 1.5720774886213442, 2.3495992104706693,0.6512238112900672, -0.29475471449252993, -0.10033983056016234, 0.39650928324698953, -0.0006943191875972421, 0.5672204426113788,1.0,-8790.473604392768, -2847.8278569334716, 21698.902558649213, -76.83414362350808, 222.37576562783818, 38.15741869835563,1.0,769
13019.726999999999,0.7631969048511273, -1.4400344923349362, -1.4813524709555406, -1.793315351876969, 1.572074820938134, 2.351778560369455,0.6512238112900672, -0.29475471449252993, -0.10033983056016232, 0.39650928324698953, -0.0006943191875972421, 0.5672204426113788,1.0,-8790.618151991714, -2848.0027220609163, 21698.154472785594, -76.83263815858405, 222.35051091150916, 38.16705416083687,1.0,769
13019.734999999999,0.7657883697244886, -1.4412074323835373, -1.4817517609412372, -1.7917374920664368, 1.5720720579805236, 2.3540357441931974,0.6512238112900672, -0.29475471449252993, -0.10033983056016232, 0.3965092832469895, -0.000694319187597242, 0.5672204426113787,1.0,-8789.878372076064, -2848.4033627053986, 21698.3467470282, -76.80437431845004, 222.40091494984023, 38.1651340316198,1.0,769
13019.742999999999,0.7684691954555518, -1.442420818640712, -1.4821648195471315, -1.790105223296921, 1.5720691997485128, 2.3563707619418963,0.6512238112900671, -0.2947547144925299, -0.10033983056016232, 0.3965092832469895, -0.000694319187597242, 0.5672204426113787,1.0,-8792.147776861217, -2845.3122205409354, 21697.952675401648, -76.89754261658945, 222.2996664951923, 38.16577571935022,1.0,769
13019.751,0.7712393820443173, -1.4436746511064582, -1.482591646773221, -1.7884185455684207, 1.5720662462421013, 2.358783613615552,0.6512238112900671, -0.2947547144925299, -0.10033983056016232, 0.39650928324698953, -0.000694319187597242, 0.5672204426113788,1.0,-8788.184123997029, -2850.208395302324, 21698.770881544624, -76.74256471255109, 222.45905268706463, 38.159182638228316,1.0,769
13019.759,0.7740989294907847, -1.444968929780777, -1.4830322426195082, -1.7866774588809369, 1.5720631974612898, 2.3612742992141644,0.6512238112900671, -0.2947547144925299, -0.10033983056016231, 0.3965092832469895, -0.0006943191875972419, 0.5672204426113787,1.0,-8792.713459480734, -2846.1087177488935, 21698.57171422943, -76.89561173636179, 222.2706961380169, 38.180558341977616,1.0,769
13019.767,0.7770478377949545, -1.4463036546636685, -1.4834866070859904, -1.7848819632344695, 1.5720600534060778, 2.363842818737733,0.6512238112900671, -0.2947547144925299, -0.10033983056016231, 0.3965092832469895, -0.0006943191875972419, 0.5672204426113787,1.0,-8787.918490580369, -2850.446869314407, 21698.36438339581, -76.74269325788421, 222.45967310797653, 38.1732326707928,1.0,769
13019.775,0.7800861069568261, -1.4476788257551316, -1.4839547401726705, -1.7830320586290176, 1.5720568140764655, 2.3664891721862586,0.6512238112900672, -0.29475471449252993, -0.10033983056016232, 0.39650928324698953, -0.000694319187597242, 0.5672204426113788,1.0,-8792.312841253422, -2844.602823266843, 21698.044330494125, -76.93662098163034, 222.28021251401725, 38.17052121703901,1.0,769
13019.783,0.7832137369764, -1.4490944430551682, -1.4844366418795456, -1.7811277450645822, 1.5720534794724528, 2.369213359559741,0.6512238112900672, -0.2947547144925299, -0.10033983056016232, 0.39650928324698953, -0.000694319187597242, 0.5672204426113787,1.0,-8788.620070283669, -2851.2522430140843, 21698.61211798649, -76.7047503272133, 222.4315667465732, 38.17686538309411,1.0,769
13019.791,0.786430727853676, -1.4505505065637774, -1.4849323122066185, -1.7791690225411632, 1.5720500495940397, 2.3720153808581794,0.6512238112900672, -0.2947547144925299, -0.10033983056016231, 0.39650928324698953, -0.000694319187597242, 0.5672204426113787,1.0,-8791.921275316552, -2845.3595834164435, 21698.47312018239, -76.92484584490356, 222.28318497735228, 38.18711822502644,1.0,769
13019.798999999999,0.789737079588654, -1.4520470162809582, -1.4854417511538873, -1.7771558910587597, 1.5720465244412263, 2.3748952360815747,0.6512238112900671, -0.2947547144925298, -0.10033983056016232, 0.3965092832469895, -0.0006943191875972419, 0.5672204426113787,1.0,-8789.59112354576, -2849.6758092605114, 21698.733115217092, -76.75312134726508, 222.38715983894957, 38.17142426102609,1.0,769
13019.806999999999,0.7931327921813343, -1.4535839722067116, -1.4859649587213521, -1.7750883506173727, 1.5720429040140125, 2.3778529252299268,0.6512238112900672, -0.2947547144925299, -0.10033983056016232, 0.3965092832469895, -0.000694319187597242, 0.5672204426113788,1.0,-8791.101831357088, -2846.734002760134, 21698.087816277784, -76.87950070795705, 222.33154007025996, 38.16569921566975,1.0,769
13019.814999999999,0.7966178656317165, -1.4551613743410377, -1.4865019349090147, -1.772966401217002, 1.5720391883123983, 2.3808884483032355,0.6512238112900671, -0.2947547144925298, -0.1003398305601623, 0.3965092832469895, -0.0006943191875972419, 0.5672204426113786,1.0,-8791.297557151505, -2847.9734202644486, 21698.439568140726, -76.8252567080443, 222.33451056529134, 38.167534221849536,1.0,769
13019.823,0.8001922999398009, -1.4567792226839362, -1.4870526797168724, -1.770790042857647, 1.5720353773363838, 2.384001805301501,0.6512238112900672, -0.2947547144925299, -0.10033983056016232, 0.3965092832469895, -0.0006943191875972419, 0.5672204426113787,1.0,-8789.859721809717, -2849.1970498680566, 21698.407281321197, -76.78557970781245, 222.3851959725552, 38.160965496774594,1.0,769
13019.831,0.8038560951055874, -1.4584375172354074, -1.487617193144927, -1.7685592755393085, 1.5720314710859689, 2.387192996224723,0.6512238112900671, -0.2947547144925299, -0.10033983056016231, 0.3965092832469895, -0.0006943191875972419, 0.5672204426113787,1.0,-8792.09661457483, -2844.8822334052747, 21698.049159387447, -76.91426636150098, 222.2958842431736, 38.16751217997728,1.0,769
13019.839,0.807609251129076, -1.460136257995451, -1.4881954751931783, -1.7662740992619863, 1.5720274695611538, 2.3904620210729015,0.6512238112900672, -0.2947547144925299, -0.10033983056016232, 0.39650928324698953, -0.000694319187597242, 0.5672204426113787,1.0,-8789.954699053036, -2849.7355972979003, 21698.446895034864, -76.77163957411955, 222.38003461831227, 38.163170508887674,1.0,769
13019.847,0.8114517680102667, -1.4618754449640665, -1.4887875258616257, -1.7639345140256797, 1.5720233727619382, 2.3938088798460364,0.6512238112900672, -0.2947547144925299, -0.10033983056016232, 0.39650928324698953, -0.000694319187597242, 0.5672204426113788,1.0,-8790.128740489787, -2847.4311512552276, 21698.533859890566, -76.84956786769754, 222.37866446967314, 38.19395335214756,1.0,769
13019.855,0.8153836457491596, -1.4636550781412554, -1.4893933451502699, -1.7615405198303895, 1.5720191806883221, 2.3972335725441285,0.6512238112900671, -0.2947547144925299, -0.10033983056016231, 0.3965092832469895, -0.0006943191875972419, 0.5672204426113788,1.0,-8791.574292054596, -2847.7855445351406, 21698.553615164306, -76.82501282103428, 222.29421110878616, 38.18320063515631,1.0,769
13019.863,0.8194048843457545, -1.465475157527016, -1.49001293305911, -1.7590921166761158, 1.5720148933403058, 2.400736099167177,0.6512238112900672, -0.29475471449252993, -0.10033983056016232, 0.3965092832469895, -0.000694319187597242, 0.5672204426113788,1.0,-8790.629677320896, -2848.0179906074645, 21698.145798784593, -76.84983465927681, 222.34553096535944, 38.16898803305551,1.0,769
13019.871,0.8235154838000516, -1.46733568312135, -1.4906462895881472, -1.7565893045628576, 1.5720105107178892, 2.404316459715182,0.6512238112900671, -0.2947547144925299, -0.10033983056016232, 0.39650928324698953, -0.000694319187597242, 0.5672204426113788,1.0,-8790.316381309369, -2848.945885449094, 21698.614248062524, -76.81668148291075, 222.3556739852715, 38.1948630451773,1.0,769
13019.878999999999,0.8277154441120508, -1.4692366549242557, -1.4912934147373802, -1.7540320834906158, 1.572006032821072, 2.4079746541881435,0.6512238112900672, -0.2947547144925299, -0.10033983056016232, 0.3965092832469895, -0.000694319187597242, 0.5672204426113788,1.0,-8791.826577739219, -2847.8418703303696, 21698.707367359682, -76.84871380939958, 222.29228264705898, 38.18018089782379,1.0,769
13019.886999999999,0.832004765281752, -1.471178072935734, -1.49195430850681, -1.7514204534593905, 1.5720014596498546, 2.411710682586062,0.6512238112900671, -0.2947547144925299, -0.10033983056016231, 0.3965092832469895, -0.000694319187597242, 0.5672204426113787,1.0,-8790.501720644494, -2847.6098474624623, 21698.65339573446, -76.84452752460075, 222.36108775348032, 38.17656332567651,1.0,769
13019.894999999999,0.8363834473091554, -1.4731599371557849, -1.4926289708964369, -1.7487544144691807, 1.571996791204237, 2.415524544908937,0.6512238112900671, -0.2947547144925298, -0.10033983056016231, 0.39650928324698953, -0.0006943191875972419, 0.5672204426113787,1.0,-8791.034832417561, -2847.8172896905935, 21698.391806847994, -76.83418202172138, 222.3255614281531, 38.16176353322763,1.0,769
13019.903,0.840851490194261, -1.4751822475844074, -1.4933174019062587, -1.7460339665199873, 1.5719920274842187, 2.419416241156769,0.6512238112900671, -0.2947547144925298, -0.10033983056016231, 0.3965092832469895, -0.0006943191875972419, 0.5672204426113787,1.0,-8789.738230473667, -2849.403219967091, 21698.076653346194, -76.76689234015112, 222.36863626524644, 38.148726493518325,1.0,769
13019.911,0.8454088939370685, -1.4772450042216034, -1.4940196015362783, -1.7432591096118095, 1.5719871684898001, 2.423385771329557,0.6512238112900671, -0.2947547144925299, -0.10033983056016231, 0.3965092832469895, -0.000694319187597242, 0.5672204426113787,1.0,-8790.900275263482, -2846.707939193723, 21698.159411840657, -76.86764902255015, 222.32476012298605, 38.17540741352104,1.0,769
13019.919,0.8500556585375783, -1.4793482070673711, -1.494735569786494, -1.7404298437446482, 1.5719822142209814, 2.427433135427302,0.6512238112900671, -0.2947547144925299, -0.10033983056016232, 0.39650928324698953, -0.000694319187597242, 0.5672204426113787,1.0,-8790.582200860475, -2847.29571095993, 21697.922198251475, -76.8387342401115, 222.34584560468335, 38.17404805170298,1.0,769
13019.927,0.8547917839957901, -1.4814918561217123, -1.4954653066569064, -1.737546168918504, 1.571977164677762, 2.4315583334500035,0.6512238112900672, -0.2947547144925299, -0.10033983056016232, 0.39650928324698953, -0.000694319187597242, 0.5672204426113788,1.0,-8791.131661801437, -2847.6265957657133, 21698.110623893175, -76.84944668256387, 222.29866852011514, 38.18212327720596,1.0,769
13019.935,0.859617270311704, -1.4836759513846252, -1.4962088121475148, -1.7346080851333747, 1.5719720198601426, 2.4357613653976613,0.6512238112900672, -0.2947547144925299, -0.10033983056016231, 0.39650928324698953, -0.0006943191875972419, 0.5672204426113787,1.0,-8790.468829823645, -2849.400890734889, 21698.24101213675, -76.78947873914657, 222.32501746373765, 38.17351181166728,1.0,769
13019.943,0.86453211748532, -1.4859004928561106, -1.49696608625832, -1.7316155923892618, 1.5719667797681225, 2.4400422312702763,0.6512238112900672, -0.29475471449252993, -0.10033983056016234, 0.39650928324698953, -0.000694319187597242, 0.5672204426113788,1.0,-8789.974342779977, -2847.8313411105282, 21697.862987392105, -76.83263448912439, 222.35968019040018, 38.18018621347369,1.0,769
13019.951,0.8695363255166382, -1.4881654805361686, -1.4977371289893213, -1.7285686906861653, 1.5719614444017023, 2.4444009310678476,0.6512238112900672, -0.29475471449252993, -0.10033983056016232, 0.39650928324698953, -0.000694319187597242, 0.5672204426113788,1.0,-8790.60902521889, -2848.4038132640917, 21698.20062117488, -76.80117176641815, 222.34410875269276, 38.146920526353966,1.0,769
13019.958999999999,0.8745797262722215, -1.4904482074942607, -1.498514210491086, -1.725497925790818, 1.5719560672489408, 2.4487937679992577,0.6512238112900672, -0.2947547144925299, -0.10033983056016234, 0.39650928324698953, -0.000694319187597242, 0.5672204426113788,1.0,-8791.031175100235, -2847.788503423002, 21698.462707112565, -76.83427714119799, 222.32794166966175, 38.17993567576784,1.0,769
13019.966999999999,0.8795393837362886, -1.4926930308475495, -1.499278388920918, -1.7224781494986523, 1.5719507793812653, 2.453113663944702,0.6512238112900672, -0.2947547144925299, -0.10033983056016234, 0.39650928324698953, -0.000694319187597242, 0.5672204426113788,1.0,-8789.929297390583, -2842.989234363712, 21699.092262725844, -76.94356869736671, 222.38962691228772, 38.195556936970775,1.0,769
13019.974999999999,0.8844096803426535, -1.4948974079922666, -1.500028798730554, -1.71951278216547, 1.5719455867879901, 2.4573557259651904,0.6512238112900671, -0.2947547144925298, -0.10033983056016234, 0.3965092832469895, -0.000694319187597242, 0.5672204426113788,1.0,-8790.499492493345, -2844.912412303055, 21699.378748643823, -76.89457671217315, 222.3497825042861, 38.17683760653469,1.0,769
13019.983,0.8891906160913166, -1.4970613389284102, -1.5007654399199932, -1.7166018237912715, 1.5719404894691156, 2.461519954060722,0.6512238112900672, -0.2947547144925298, -0.10033983056016234, 0.39650928324698953, -0.0006943191875972421, 0.5672204426113788,1.0,-8792.152739145607, -2845.10102342548, 21699.871361796017, -76.87745711302773, 222.2766145237996, 38.19074064495567,1.0,769
13019.991,0.8938821909822775, -1.4991848236559822, -1.5014883124892355, -1.7137452743760564, 1.5719354874246412, 2.4656063482312964,0.6512238112900671, -0.2947547144925299, -0.10033983056016235, 0.39650928324698953, -0.0006943191875972421, 0.5672204426113788,1.0,-8789.815592441564, -2843.8439791190776, 21700.07057671739, -76.93802784439282, 222.37237979448173, 38.1946129431978,1.0,769
13019.999,0.8984844050155362, -1.5012678621749815, -1.5021974164382819, -1.7109431339198267, 1.571930580654567, 2.4696149084769146,0.6512238112900671, -0.2947547144925298, -0.10033983056016232, 0.3965092832469895, -0.000694319187597242, 0.5672204426113787,1.0,-8788.167957709284, -2844.550496869145, 21699.54335909274, -76.93113105395793, 222.44310907353633, 38.18602111116505,1.0,769
13020.007,0.9029972581910926, -1.5033104544854083, -1.5028927517671313, -1.7081954024225787, 1.5719257691588935, 2.4735456347975764,0.6512238112900671, -0.2947547144925299, -0.10033983056016234, 0.39650928324698953, -0.000694319187597242, 0.5672204426113787,1.0,-8790.388570835674, -2845.5362363744707, 21699.237087155256, -76.91712813863549, 222.3495802386812, 38.194387309484085,1.0,769
13020.015,0.907420750508947, -1.5053126005872626, -1.5035743184757848, -1.7055020798843161, 1.5719210529376202, 2.477398527193281,0.6512238112900671, -0.2947547144925299, -0.10033983056016234, 0.39650928324698953, -0.000694319187597242, 0.5672204426113787,1.0,-8792.162240446254, -2845.1625021982554, 21698.752505279957, -76.91311962405845, 222.2821330913028, 38.15562066071769,1.0,769
13020.023,0.9117548819690995, -1.5072743004805442, -1.5042421165642423, -1.702863166305037, 1.5719164319907473, 2.4811735856640293,0.6512238112900671, -0.2947547144925298, -0.10033983056016232, 0.39650928324698953, -0.0006943191875972419, 0.5672204426113787,1.0,-8790.227879867876, -2845.0619843411914, 21698.98241160256, -76.91865806740566, 222.35946046785733, 38.172957927423454,1.0,769
13020.030999999999,0.9159996525715499, -1.5091955541652533, -1.504896146032503, -1.7002786616847416, 1.5719119063182747, 2.484870810209821,0.6512238112900671, -0.2947547144925299, -0.10033983056016235, 0.39650928324698953, -0.0006943191875972422, 0.5672204426113788,1.0,-8789.632604493348, -2845.6900728845485, 21698.505219624192, -76.88337713367011, 222.36488071142122, 38.15421587758968,1.0,769
13020.038999999999,0.920155062316298, -1.5110763616413907, -1.5055364068805668, -1.6977485660234306, 1.5719074759202023, 2.4884902008306558,0.6512238112900672, -0.2947547144925299, -0.10033983056016235, 0.3965092832469896, -0.0006943191875972422, 0.5672204426113788,1.0,-8789.531028961364, -2847.39933202716, 21698.379319978554, -76.84900909975528, 222.358013791985, 38.186275337413946,1.0,769
13020.046999999999,0.9242211112033439, -1.5129167229089546, -1.5061628991084337, -1.6952728793211032, 1.5719031407965307, 2.4920317575265343,0.6512238112900672, -0.2947547144925298, -0.10033983056016235, 0.39650928324698953, -0.0006943191875972421, 0.5672204426113788,1.0,-8791.309138615974, -2844.1341053705873, 21698.403614006944, -76.92855834327932, 222.27743479444484, 38.159570824144225,1.0,769
13020.055,0.9281977992326877, -1.5147166379679469, -1.5067756227161055, -1.6928516015777593, 1.5718989009472593, 2.495495480297456,0.6512238112900671, -0.2947547144925299, -0.10033983056016234, 0.39650928324698953, -0.0006943191875972421, 0.5672204426113788,1.0,-8789.81748161781, -2843.5927045134795, 21698.792992002003, -76.93244766288387, 222.36358821730994, 38.167781528996954,1.0,769
13020.063,0.9320851264043297, -1.5164761068183665, -1.5073745777035796, -1.6904847327933998, 1.5718947563723882, 2.4988813691434206,0.6512238112900671, -0.2947547144925298, -0.10033983056016234, 0.3965092832469895, -0.000694319187597242, 0.5672204426113787,1.0,-8788.714541994992, -2845.8639461345592, 21699.110790107457, -76.86361278639214, 222.39769147423874, 38.155130748464074,1.0,769
13020.071,0.935883094546896, -1.5181951298728693, -1.5079597717997562, -1.6881722648203459, 1.5718907070727168, 2.502189426337289,0.6512095933955621, -0.2947458957770582, -0.10038042437049033, 0.39654103981147365, -0.0006942882366739107, 0.5672119661153547,1.0,-8789.31317416007, -2845.057215986444, 21699.393148089483, -76.90637931590581, 222.3489330908293, 38.16819620763741,1.0,769
13020.079,0.93959473995771, -1.519874386929133, -1.5085442797246191, -1.6859004329011995, 1.5718867544435622, 2.505423448634344,0.6491834848580794, -0.293498122493949, -0.1060985701289564, 0.40100875403437936, -0.0006899160430302507, 0.5659984555635165,1.0,-8790.790930077586, -2843.924720038837, 21699.48453660421, -76.9373230249183, 222.30747669393116, 38.15499290511099,1.0,769
13020.087,0.943231300276534, -1.5215163561939828, -1.5091782143702615, -1.683616607523021, 1.571882904130491, 2.5085976511664825,0.6437657039904479, -0.29021199613390114, -0.12082469768179412, 0.4124414901710828, -0.0006784834273002167, 0.5627038874412175,1.0,-8788.539892492492, -2846.46412900588, 21699.065962703626, -76.86699018997413, 222.4107900116337, 38.15124710507385,1.0,769
13020.095,0.9468032292996328, -1.523123253857639, -1.5099123513037505, -1.6812677599480335, 1.5718791625420077, 2.5117256512235397,0.6349534829640389, -0.2849820129334761, -0.1432816188882899, 0.42965618931292865, -0.000660524042177187, 0.5572116538246964,1.0,-8790.31328012438, -2845.26110799074, 21698.4303561986, -76.91048658280405, 222.3181244521088, 38.14775880800423,1.0,769
13020.103,0.9503184298928269, -1.5246966452283832, -1.5107903981493775, -1.678808587691206, 1.5718755359926475, 2.5148182474888134,0.6227608739182556, -0.2779249343824971, -0.17187261289258132, 0.45117246753992296, -0.0006366996446587382, 0.5493900516482182,1.0,-8791.182590103524, -2845.5418788420156, 21697.948757624352, -76.89776137743138, 222.30073807951993, 38.160843917228675,1.0,769
13020.110999999999,0.9537824345570858, -1.5262374986737264, -1.51184935077473, -1.6762011039089888, 1.5718720306568006, 2.517883606347251,0.6073168287670719, -0.26921512863415764, -0.20483416839975466, 0.4754009519934054, -0.0006078501926693899, 0.5391901453371427,1.0,-8789.526113425534, -2847.7961541112936, 21697.716788320013, -76.8421738177324, 222.38437533930949, 38.18110168174968,1.0,769
13020.118999999999,0.9571985859941208, -1.5277462395615737, -1.513119849476774, -1.673414226788033, 1.5718686525225363, 2.5209274481936346,0.5889210983762033, -0.2591005031947566, -0.24040023798665722, 0.5008236340483336, -0.0005749941419371404, 0.5267086022345812,1.0,-8789.429732666265, -2845.5567883563535, 21696.609946455694, -76.90478765260528, 222.3726558486864, 38.18503725834458,1.0,769
13020.126999999999,0.9605682176719788, -1.5292228042013924, -1.5146265351679329, -1.6704233689339203, 1.5718654073454286, 2.523953233740768,0.5680419379235507, -0.247892929477298, -0.2769575425619548, 0.5261396383446417, -0.0005392688999479625, 0.5121999239016797,1.0,-8789.654976862674, -2846.442366033172, 21696.158512177095, -76.87744744975981, 222.34352571293851, 38.18423817326442,1.0,769
13020.135,0.9638908343906346, -1.5306666937853812, -1.5163884055621653, -1.667210026759892, 1.5718623006023795, 2.526962350327662,0.5452641690507287, -0.23593859008292808, -0.31316404517394336, 0.5503539678611382, -0.0005018311564938428, 0.49604284763957873,1.0,-8790.542695884284, -2844.963888026452, 21695.99389716324, -76.929105794626, 222.30066425781143, 38.165845539505,1.0,769
13020.143,0.9671642928475849, -1.532077028329633, -1.5184191713610424, -1.6637613698755729, 1.5718593374454441, 2.52995429822772,0.5212125384921383, -0.22358055499227644, -0.34801112730235045, 0.5728021117085459, -0.000463751540878115, 0.47868048443446387,1.0,-8788.773575717098, -2846.1463986667286, 21696.04891125685, -76.8816994719833, 222.39256040030187, 38.16542934831452,1.0,769
13020.151,0.9703849822034409, -1.5334526006153046, -1.5207276124398277, -1.6600698304757007, 1.571856522655655, 2.532926876956924,0.49647766316819064, -0.21112589905750528, -0.3808277512736326, 0.5931211691305559, -0.0004259339073661742, 0.4605573861003535,1.0,-8789.513295437482, -2845.400646398233, 21696.100701376177, -76.89831887925808, 222.3400149211231, 38.15712002633268,1.0,769
13020.159,0.9735480046475219, -1.534791930129785, -1.5233179340335568, -1.6561326927288516, 1.571853860596846, 2.535876371582023,0.4715628716398494, -0.19882471800444076, -0.41124062338278194, 0.6111889044184334, -0.00038907382532403213, 0.44207048195771675,1.0,-8789.981896022655, -2846.1439412679265, 21695.733475679524, -76.88620239104134, 222.33448274127107, 38.16138903017162,1.0,769
13020.167,0.976647355963448, -1.5360933170078575, -1.5261901229231123, -1.6519516821661666, 1.571851355169478, 2.5387977390287144,0.44685772254789685, -0.1868623945581325, -0.439111067670832, 0.6270528125334744, -0.00035365469517219754, 0.4235407144189394,1.0,-8789.150165221674, -2846.4912680925117, 21696.229890586, -76.86262402863076, 222.35966435879567, 38.171180755318886,1.0,769
13020.175,0.9796761060947337, -1.5373548959728716, -1.5293403036213062, -1.6475325550700797, 1.571849009764462, 2.541684794389834,0.42263449932921054, -0.17536235073052694, -0.4644672317475237, 0.6408650503629068, -0.0003199704079477633, 0.4052039010153904,1.0,-8789.252365680208, -2846.411944678628, 21696.451776969345, -76.88856982324486, 222.35901292994316, 38.1885864224333,1.0,769
13020.182999999999,0.9826265797103807, -1.5385746902779092, -1.532761094558957, -1.642884687863046, 1.5718468272169848, 2.5445303972335407,0.3990598297839248, -0.16439505771881557, -0.48744372421931714, 0.6528310914265523, -0.0002881614413813096, 0.3872152063122713,1.0,-8790.333202739617, -2845.1756783709843, 21696.448516778924, -76.91819030234382, 222.32145002985231, 38.177038510832176,1.0,769
13020.190999999999,0.9854905367704715, -1.539750665646948, -1.5364419642709661, -1.638020666496267, 1.5718448097603324, 2.5473266379115014,0.3762136410066202, -0.15398950656803728, -0.5082340583685008, 0.6631736668405664, -0.00025825391288550537, 0.3696610488216357,1.0,-8790.061680451929, -2846.0533418899913, 21696.97505769897, -76.8694819334101, 222.31775556102974, 38.1527271630101,1.0,769
13020.198999999999,0.9882593530917623, -1.5408807842160321, -1.5403695875824006, -1.632955875838416, 1.5718429589797152, 2.5500650238670786,0.35410974467345585, -0.1441445606227334, -0.5270565082085719, 0.6721100077505963, -0.0002301951867398886, 0.35257361786843355,1.0,-8788.676459605276, -2844.7471420290467, 21696.756444609273, -76.92048621603152, 222.37948393537442, 38.15153865711946,1.0,769
13020.206999999999,0.990924200913276, -1.5419630584744386, -1.5445282017945674, -1.6277080890643685, 1.5718412757660918, 2.5527366659435144,0.33271474920862215, -0.13483883332996974, -0.5441314762652272, 0.6798391245868269, -0.00020388318956905075, 0.3359450019502338,1.0,-8789.202384632461, -2845.5771439618966, 21697.423544905585, -76.88788174954081, 222.33823977012463, 38.17219799414033,1.0,769
13020.215,0.9934762294618958, -1.5429956052058431, -1.548899962871097, -1.6222970570439275, 1.5718397602699945, 2.5553324646921185,0.3119638863628221, -0.12603862752294867, -0.5596676383866833, 0.6865359207894659, -0.0001791889507061615, 0.31973947187872936,1.0,-8788.707103770957, -2845.3631729459303, 21697.57011525672, -76.91357683506101, 222.37419887132393, 38.186052710860935,1.0,769
13020.223,0.995906745517958, -1.5439766994294875, -1.5534653016240156, -1.6167440977305514, 1.5718384118553523, 2.557843296680454,0.29177353776683423, -0.11770399769827034, -0.5738542354787953, 0.6923495712016167, -0.00015597313429829867, 0.30390349609248923,1.0,-8788.242521965698, -2845.8435168540573, 21697.433518280053, -76.8774879907304, 222.3910281024314, 38.17617201387975,1.0,769
13020.231,0.9982073939808453, -1.5449048283413482, -1.5582032798998284, -1.6110716855500797, 1.571837229053317, 2.560260200800521,0.27205087426708674, -0.10979324290294402, -0.5868573755290442, 0.6974043363704469, -0.0001340978106411287, 0.2883736465768067,1.0,-8790.039732816043, -2842.6976144606633, 21697.239710158512, -76.97728258820362, 222.32549545257092, 38.166304462181785,1.0,769
13020.239,1.0003703384345801, -1.5457787452552996, -1.5630919467655975, -1.60530304078946, 1.5718362095160863, 2.5625745645769458,0.25270127407360654, -0.10226621170722923, -0.5988187760162618, 0.70180162528933, -0.00011343475927156604, 0.2730828214824662,1.0,-8788.703179281414, -2844.8841751623204, 21697.130616019498, -76.90656654133275, 222.36548133509456, 38.18461119859984,1.0,769
13020.247,1.0023884417134177, -1.5465975235442837, -1.5681086946950193, -1.5994617189854772, 1.5718353499707285, 2.5647783104751642,0.23363423241151351, -0.09508678570681028, -0.6098558753149494, 0.7056226028335894, -9.387144140550395e-05, 0.2579652952080374,1.0,-8789.131220025925, -2843.7081203194602, 21697.370958867396, -76.9546141920903, 222.3329815772563, 38.18805087198575,1.0,769
13020.255,1.0042554464674385, -1.54736061058148, -1.5732306157545022, -1.593571200313475, 1.5718346461730082, 2.5668640822096087,0.21476842720939682, -0.08822485642763732, -0.6200626312011486, 0.708930976078112, -7.531556107325702e-05, 0.24296110029125056,1.0,-8788.210082798798, -2846.9200558877965, 21698.688113682834, -76.87310435633597, 222.38827830089116, 38.1724272654981,1.0,769
13020.262999999999,1.0059661557281432, -1.5480678816814644, -1.5784348577892473, -1.5876544789760914, 1.5718340928612087, 2.568825431051896,0.19603652490765164, -0.08165804998996508, -0.629510611488211, 0.7117758199991139, -5.7698918261888466e-05, 0.22802020202852788,1.0,-8789.19977713281, -2843.9270728237807, 21698.66246688045, -76.93765779647009, 222.36810811159768, 38.188231673675034,1.0,769
13020.270999999999,1.007516613474044, -1.5487196940413845, -1.5836989806093271, -1.5817336525919794, 1.5718336837099582, 2.570657002139008,0.1773902254871528, -0.07537339570915115, -0.6382501888324582, 0.7141944517717944, -4.09810656458971e-05, 0.2131068721443747,1.0,-8788.081598274819, -2845.7281137150057, 21698.744029108475, -76.88418123786863, 222.40735581154024, 38.16204613277537,1.0,769
13020.278999999999,1.0089042851962586, -1.5493169406821217, -1.5890013121757605, -1.5758295115845335, 1.5718334112840537, 2.5723547207814845,0.15880596170861763, -0.06936908057621514, -0.6463118022963599, 0.7162154590511494, -2.51531116001561e-05, 0.19820460888111383,1.0,-8790.50849199058, -2842.8017496667444, 21698.34899317044, -76.98176955366637, 222.33046929318238, 38.17934520327847,1.0,769
13020.287,1.0101282384641037, -1.5498611043894597, -1.5943213047865967, -1.569961128570621, 1.5718332669922852, 2.5739159787716037,0.1402915754898291, -0.06365637741149076, -0.6537073595634721, 0.7178620446149725, -1.0241852973811484e-05, 0.18332188170073033,1.0,-8789.385105691697, -2843.5280814964535, 21698.555049083057, -76.95192092994063, 222.3676116191357, 38.16820494464537,1.0,769
13020.295,1.011189323490687, -1.5503543116552514, -1.5996398912629894, -1.5641454477493069, 1.5718332410412599, 2.5753398206915703,0.12189417595463817, -0.05826177352070442, -0.6604319334044425, 0.7191558682599062, 3.6857465858918647e-06, 0.16849888453039555,1.0,-8788.611712081714, -2843.3438583170773, 21698.962828090538, -76.93914383641402, 222.39507276909586, 38.1867218985972,1.0,769
13020.303,1.0120903536985022, -1.5507993866185865, -1.604939841135275, -1.5583968742905796, 1.5718333223892278, 2.576627130221703,0.10370921403473198, -0.05322925047588216, -0.6664659499474643, 0.7201215342420701, 1.6517912064851756e-05, 0.15381534067414548,1.0,-8788.098327124882, -2845.0141633194253, 21699.716736796156, -76.90831627412351, 222.43740625616738, 38.17536564101957,1.0,769
13020.311,1.01283628628502, -1.551199905006957, -1.6102061168290573, -1.5527268637240788, 1.571833498699905, 2.5777808164486165,0.08589055929800504, -0.04862256560964021, -0.6717780570188114, 0.7207917627041271, 2.8093664112487347e-05, 0.13939918964494052,1.0,-8789.088539342094, -2844.144165149183, 21699.406443212225, -76.94287857205546, 222.36347477063168, 38.178748209853836,1.0,769
13020.319,1.0134344027882831, -1.5515602480774255, -1.6154262298512778, -1.5471435113278247, 1.5718337562962987, 2.578806000173411,0.06866100921709892, -0.044527255032132805, -0.676328767995833, 0.7212130591541266, 3.819938643590852e-05, 0.12543567594661698,1.0,-8788.892744314262, -2845.230336165261, 21699.330717999674, -76.90631461352004, 222.39331983324246, 38.17801867689883,1.0,769
13020.327,1.0138944896524986, -1.5518856565577899, -1.6205905969762995, -1.5416511415169403, 1.5718340801145316, 2.579710200219858,0.052322181771665095, -0.04105191376674373, -0.6800747633564593, 0.7214513175229076, 4.6567402775364544e-05, 0.11217593410502245,1.0,-8790.637076667563, -2843.620761575671, 21698.996060276888, -76.95327630169683, 222.32038109837742, 38.17673973974712,1.0,769
13020.335,1.014229018793631, -1.5521822845877562, -1.6256928964319854, -1.5362498972323833, 1.5718344536576665, 2.580503519742583,0.03726213983282982, -0.03832811574462513, -0.6829733722314784, 0.7215962382277524, 5.287798416562044e-05, 0.09994362151124807,1.0,-8788.138032481787, -2846.080757481788, 21698.692397514562, -76.88471911834222, 222.4267446063203, 38.18083493098521,1.0,769
13020.342999999999,1.0144533281649954, -1.552457253660097, -1.6307304240857734, -1.5309353293296706, 1.5718348589495303, 2.581198832535255,0.02395839782863184, -0.036508130902007656, -0.6849862682511056, 0.7217627475608348, 5.676657401739422e-05, 0.0891375166242694,1.0,-8789.629661261375, -2844.355481126343, 21698.89704872659, -76.93625731784783, 222.36167821702008, 38.18901307385383,1.0,769
13020.350999999999,1.0145858023228518, -1.5527187065618264, -1.635704449630759, -1.5256979859676036, 1.5718352764885388, 2.581811969338771,0.012973228430703806, -0.03575941052622398, -0.686080912061829, 0.7220869150415228, 5.783832691882819e-05, 0.0802273381576096,1.0,-8788.272108976847, -2846.4340166645025, 21699.54128015937, -76.87726116722558, 222.39940283738287, 38.18521249856374,1.0,769
13020.358999999999,1.0146480529919961, -1.5529758613153613, -1.6406205727717706, -1.5205230019970006, 1.5718356852015212, 2.5823619041494426,0.004937523591145128, -0.036254702551093546, -0.686228021605788, 0.722713503213833, 5.569222369677473e-05, 0.07373946662059651,1.0,-8789.123094931952, -2846.017264904257, 21698.91257838129, -76.89359043585154, 222.36302678182955, 38.1857188356945,1.0,769
13020.367,1.0146650996313553, -1.5532390651196923, -1.6454890794114512, -1.5153896883494173, 1.5718360623975445, 2.58287094052718,0.0005190576169214273, -0.03815672858756789, -0.6853937835330813, 0.723772786077783, 4.995689120129935e-05, 0.07022896677586275,1.0,-8789.198956036063, -2845.8492225302243, 21699.011003205316, -76.90270602137426, 222.37131482951145, 38.18150975996724,1.0,769
13020.375,1.0146650110837543, -1.5535196368226893, -1.6503249468780998, -1.510271685095172, 1.5718363841512486, 2.58336440585054,-0.00012731540722577396, -0.04142796068635179, -0.6836399930912602, 0.7252893463776283, 4.076213615327698e-05, 0.06982428001705411,1.0,-8789.387512116118, -2845.9627280614104, 21698.06918339234, -76.89578236582565, 222.34070141090058, 38.16884592596165,1.0,769
13020.383,1.0146641363768392, -1.5538240882983896, -1.6551380525422417, -1.5051525655425513, 1.5718366369895487, 2.583857151330846,-0.00012082306649384148, -0.04494090897501553, -0.6817150017567983, 0.7268777349446738, 3.095113948528725e-05, 0.0699550853458288,1.0,-8789.56124380934, -2847.84869821927, 21698.207824092664, -76.83471839495559, 222.33485241237037, 38.17994814676237,1.0,769
13020.391,1.0146633087496955, -1.5541527755444902, -1.6599290046702446, -1.500031363512738, 1.5718368201679824, 2.584349935858829,-0.00011437701437544923, -0.048468575147001806, -0.679768811177803, 0.7284596349515419, 2.1093739688466473e-05, 0.07008357362716915,1.0,-8788.818231435602, -2847.9712651067157, 21698.109508113048, -76.8348376920637, 222.37672750374009, 38.17825063014402,1.0,769
13020.399,1.0146625276845291, -1.5545057271083635, -1.6646978857233528, -1.494907967998384, 1.571836933612265, 2.5848427588391667,-0.00010797750238806534, -0.052010833279397393, -0.6778013156758353, 0.7300348147693879, 1.1190383759320518e-05, 0.07020973671756052,1.0,-8789.812298913768, -2847.5268360418795, 21698.551315844466, -76.854807184706, 222.3286283980699, 38.18321012045939,1.0,769
13020.407,1.0146617926688755, -1.5548829728614466, -1.669444775358862, -1.4897822694720242, 1.5718369772449816, 2.5853356196763104,-0.00010162478234148919, -0.05556755185294164, -0.6758124128897192, 0.7316030404907633, 1.2415364022260147e-06, 0.07033356652963918,1.0,-8789.916781852415, -2846.6548822415234, 21698.25639554375, -76.88120823686455, 222.34003616036392, 38.18271337191078,1.0,769
13020.414999999999,1.014661103195501, -1.5552845439660778, -1.6741697504750164, -1.4846541598743546, 1.571836950985696, 2.5858285177743716,-9.531910385938531e-05, -0.05913859372131969, -0.6738020038853672, 0.73316407600822, -8.752318825033145e-06, 0.07045505504508982,1.0,-8790.06779279383, -2846.6026648287843, 21698.282669786888, -76.89021124150668, 222.32443219492433, 38.1837173632444,1.0,769
13020.422999999999,1.014660458762307, -1.5557104728426383, -1.6788728852546342, -1.4795235326034488, 1.571836854751056, 2.586321452537001,-8.906071265062527e-05, -0.06272381608286934, -0.6717699932654249, 0.7347176830958763, -1.8790680047140404e-05, 0.07057419433121952,1.0,-8788.604333222094, -2847.490140517796, 21698.60931507954, -76.85871219077936, 222.36069242119868, 38.1745348537537,1.0,769
13020.430999999999,1.0146598588722404, -1.5561607931369972, -1.6835542512075117, -1.474390282504924, 1.5718366884548982, 2.5868144233672883,-8.284985273591177e-05, -0.06632307045656455, -0.6697162892780852, 0.7362636214948675, -2.8873026502023574e-05, 0.07069097655513357,1.0,-8789.34907082687, -2846.9400646536506, 21698.568556328115, -76.86871258425327, 222.33410753310272, 38.18049441993651,1.0,769
13020.439,1.014659303033202, -1.5566355396882212, -1.6882139172116375, -1.4692543058630116, 1.5718364520083592, 2.587307429667645,-7.668676418096992e-05, -0.0699362026583378, -0.6676408039283002, 0.7378016489995383, -3.8998817896378075e-05, 0.0708053940000292,1.0,-8788.920279047148, -2847.625077267019, 21698.779567511392, -76.84901216413172, 222.36018966609424, 38.18319437112643,1.0,769
13020.447,1.0146587907579612, -1.5571347484965248, -1.6928519495532797, -1.4641155003925208, 1.571836145319974, 2.5878004708397087,-7.057168383494979e-05, -0.07356305278175004, -0.6655434530864405, 0.7393315215490787, -4.916749607125929e-05, 0.07091743907760172,1.0,-8789.870306645757, -2846.886456398417, 21698.533255555263, -76.87521213157393, 222.31253422765593, 38.183222823620525,1.0,769
13020.455,1.0146583215640728, -1.5576584566914304, -1.6974684119659624, -1.4589737652316916, 1.5718357682957906, 2.588293546284226,-6.45048454908203e-05, -0.0772034551857479, -0.6634241565969037, 0.7408529933209655, -5.937848234851602e-05, 0.07102710434584393,1.0,-8788.908416367618, -2847.9151027179905, 21698.23576426663, -76.83860318631653, 222.37696086310274, 38.18612948812492,1.0,769
13020.463,1.0146578949737937, -1.558206702500149, -1.7020633656683906, -1.453829000935909, 1.5718353208394724, 2.5887866554009595,-5.84864788885946e-05, -0.0808572384796655, -0.6612828383869488, 0.7423658168279693, -6.963117844445897e-05, 0.07113438252009938,1.0,-8790.124576481106, -2845.9919056505632, 21698.146950678492, -76.91562084231924, 222.29941614463314, 38.18841221611032,1.0,769
13020.471,1.0146575105140037, -1.5587795252161012, -1.706636869401346, -1.4486811094722674, 1.571834802852406, 2.5892797975885813,-5.251681038162589e-05, -0.08452422551682783, -0.6591194265745093, 0.7438697430169868, -7.992496752349274e-05, 0.0712392664946563,1.0,-8789.736506026493, -2847.2897148011907, 21698.75182882471, -76.87536085902883, 222.32347891504816, 38.18951972905495,1.0,769
13020.479,1.0146571677161322, -1.5593769651676102, -1.7111889794636133, -1.4435299942149626, 1.571834214233808, 2.589772972244576,-4.65960617583673e-05, -0.08820423338939573, -0.6569338535751051, 0.7453645213723421, -9.025921159876815e-05, 0.0713417493520606,1.0,-8789.357595486508, -2847.6086922397526, 21698.369243123303, -76.85330570793482, 222.34928500693655, 38.187403863569955,1.0,769
13020.487,1.0146568661160813, -1.5599990636867185, -1.715719749746933, -1.4383755599415178, 1.571833554880834, 2.5902661787651384,-4.072445110549548e-05, -0.09189707342891569, -0.6547260562066471, 0.7468499000218385, -0.00010063325425819316, 0.07144182438269445,1.0,-8789.913054406561, -2847.049776164469, 21698.260266479047, -76.88066527960007, 222.31950564421658, 38.18929033584311,1.0,769
13020.494999999999,1.0146566052541515, -1.5606458630781166, -1.720229231770058, -1.4332177128298005, 1.57183282468869, 2.590759416545073,-3.4902193432694306e-05, -0.0956025512108173, -0.6524959757956269, 0.7483256258442635, -0.0001110464168868823, 0.0715394850961155,1.0,-8789.51214780002, -2847.2968445753104, 21698.25517413699, -76.86233324117475, 222.33777969626794, 38.18322404966668,1.0,769
13020.502999999999,1.0146563846749748, -1.5613174065881514, -1.7247174747119178, -1.4280563604558463, 1.5718320235507368, 2.5912526849777113,-2.9129497040004686e-05, -0.09932046655938084, -0.6502435582797932, 0.7497914445812534, -0.00012149800249376962, 0.07163472524219713,1.0,-8789.896091785266, -2845.8782481993785, 21697.7522435482, -76.90042967713342, 222.3185673152468, 38.18558070830082,1.0,769
13020.510999999999,1.014656203927448, -1.5620137383739099, -1.7291845254439409, -1.422891411792457, 1.5718311513586019, 2.591745983454807,-2.3406566999621295e-05, -0.10305061356274328, -0.6479687543100876, 0.7512471009515199, -0.00013198729297214638, 0.07172753882296246,1.0,-8788.750305288831, -2847.036483112168, 21698.12278237013, -76.86918819688432, 222.35987942598598, 38.19207811933205,1.0,769
13020.519,1.0146560625646606, -1.5627349034723599, -1.7336304285615407, -1.4177227772085716, 1.5718302080022934, 2.5922393113664417,-1.773360387182932e-05, -0.10679278058861234, -0.6456715193510603, 0.7526923387677315, -0.00014251354966039251, 0.07181792010923242,1.0,-8789.5484690346, -2846.26539058067, 21698.7103523575, -76.90115476224841, 222.33045002447568, 38.19426014428143,1.0,769
13020.527,1.0146559601438376, -1.563480947769503, -1.7380552264148381, -1.4125503684693896, 1.5718291933703037, 2.592732668100942,-1.2110801939248822e-05, -0.1105467503034804, -0.6433518137802835, 0.7541269010559979, -0.00015307601474161712, 0.07190586365310332,1.0,-8789.466755642017, -2847.1564081477363, 21698.974541842068, -76.85490834084266, 222.33884505966074, 38.18501903812984,1.0,769
13020.535,1.014655896226273, -1.5642519179695666, -1.7424589591385935, -1.4073740987372476, 1.5718281073497284, 2.5932260530447824,-6.538352412744688e-06, -0.11431229970174044, -0.6410096029831999, 0.7555505301783205, -0.0001636739077642242, 0.07199136431253916,1.0,-8789.439147979376, -2846.4001160852113, 21699.154992859665, -76.88741668283996, 222.33402317755326, 38.194117953321154,1.0,769
13020.543,1.0146558703772717, -1.565047861564171, -1.7468416646814315, -1.4021938825732327, 1.5718269498263773, 2.593719465582497,-1.0164392646613617e-06, -0.11808920013117372, -0.6386448574504524, 0.7569629679568868, -0.00017430642864368448, 0.07207441725472186,1.0,-8790.330924030239, -2845.8770255509435, 21698.408010644955, -76.90238966644193, 222.3015389565171, 38.18277555627188,1.0,769
13020.551,1.0146558821660905, -1.565868826801485, -1.7512033788343455, -1.3970096359395123, 1.571825720684888, 2.594212905096604,4.4547582803324075e-06, -0.12187721733162608, -0.6362575528674849, 0.7583639558016002, -0.00018497275791738853, 0.0721550179873989,1.0,-8789.657007496226, -2847.2684173486814, 21698.438256567653, -76.87328413434545, 222.32934552553047, 38.1863324260799,1.0,769
13020.559,1.0146559311658814, -1.5667148626553473, -1.7555441352585293, -1.3918212762023883, 1.5718244198088394, 2.594706370967505,9.875065857780964e-06, -0.12567611147258947, -0.6338476702066133, 0.7597532348398309, -0.0001956720531573803, 0.07223316235719586,1.0,-8789.999659581683, -2845.2844334476476, 21697.672104715017, -76.91707818843813, 222.30789410005542, 38.188435676363156,1.0,769
13020.567,1.0146560169536363, -1.5675860187943282, -1.7598639655125519, -1.3866287221360576, 1.5718230470808723, 2.5951998625734087,1.5244316623296917e-05, -0.12948563719721365, -0.6314151958134435, 0.761130546048102, -0.00020640345351854268, 0.07230884657664981,1.0,-8788.603004656461, -2847.35581184925, 21698.554044814853, -76.87765643026594, 222.37419097767196, 38.201320454368044,1.0,769
13020.574999999999,1.0146561391101343, -1.568482345550728, -1.7641628990789133, -1.3814318939270631, 1.571821602382804, 2.5956933792902532,2.056234836122951e-05, -0.13330554367353267, -0.6289601214919381, 0.7624956303854894, -0.00021716607514076194, 0.07238206723955262,1.0,-8789.062639760692, -2846.3765353410126, 21698.02896356225, -76.88382312017467, 222.34638262755192, 38.19302321584672,1.0,769
13020.582999999999,1.0146562972198905, -1.5694038938894836, -1.768440963389991, -1.3762307131794298, 1.571820085595743, 2.596186920491612,2.582900527378554e-05, -0.13713557464693726, -0.6264824445851839, 0.7638482289314984, -0.0002279590160915267, 0.07245282132939292,1.0,-8788.996063603627, -2846.8188955364512, 21698.62067753868, -76.88810396096787, 222.35365863047923, 38.19561159789643,1.0,769
13020.590999999999,1.014656490871103, -1.5703507153769873, -1.7726981838533957, -1.3710251029204983, 1.5718184966002167, 2.5966804855486254,3.104413798920936e-05, -0.14097546850085868, -0.6239821680556727, 0.7651880830218235, -0.0002387813516575803, 0.07252110624238854,1.0,-8789.127663226993, -2846.624902228633, 21698.583367501844, -76.88284498289357, 222.35596312349128, 38.19000595261849,1.0,769
13020.599,1.0146567196556098, -1.5713228621497874, -1.7769345838767965, -1.3658149876073997, 1.5718168352762836, 2.597174073829917,3.620760419056554e-05, -0.1448249583199765, -0.6214593005595996, 0.7665149343900312, -0.00024963213763359713, 0.07258691979579959,1.0,-8789.95037535463, -2845.6193935163274, 21698.083556532736, -76.91572593087045, 222.3072878280763, 38.18589861418545,1.0,769
13020.623,1.0146576127808196, -1.5743917834368055, -1.7895190658905618, -1.350156877516162, 1.5718114161302554, 2.5986549716663907,5.138667702026547e-05, -0.15642825644304642, -0.6137553257280173, 0.7704148984359057, -0.0002823454479575822, 0.07276951721108522,1.0,-8788.801915508615, -2848.048982406499, 21698.491988073718, -76.83752382774813, 222.36873805326553, 38.1861155392732,1.0,769
13020.631,1.0146579780879734, -1.5754657630164015, -1.7936723790705837, -1.3449280154176444, 1.5718094642883056, 2.5991486464781066,5.63421862450511e-05, -0.16031335755210285, -0.6111422972488936, 0.7716871691793113, -0.0002933001832445353, 0.07282543256512966,1.0,-8789.612500809015, -2846.237733109676, 21698.566172186856, -76.90843127619817, 222.34162889582404, 38.19287953962282,1.0,769
13020.639,1.014658376540549, -1.5765653360112601, -1.7978049596817804, -1.339694292270572, 1.5718074395155996, 2.5996423413168817,6.124541853604118e-05, -0.16420664319413428, -0.6085068088834173, 0.7729451568326786, -0.00030427834122585503, 0.072878872562837,1.0,-8789.288037864897, -2846.551906431444, 21698.3038970019, -76.87038200692422, 222.36910139696818, 38.182130482652525,1.0,769
13020.646999999999,1.0146588077512608, -1.5776905573135585, -1.8019168196246635, -1.334455641283614, 1.571805341692021, 2.6001360555347035,6.609627518941985e-05, -0.16810781630628793, -0.6058489048328359, 0.7741886085351457, -0.00031527885612981304, 0.07292983788906207,1.0,-8789.533618176856, -2847.134338953706, 21698.808016646224, -76.87972613229059, 222.34049521749802, 38.186774236776984,1.0,769
13020.662999999999,1.014659766914593, -1.580018166110456, -1.8100784159282766, -1.3239632961026935, 1.571800926414004, 2.601123539500277,7.56405003122424e-05, -0.17593261328310889, -0.6004660571065905, 0.7766308998777441, -0.0003373425955509388, 0.07302434991024616,1.0,-8790.247447725224, -2846.640010776264, 21698.446956783453, -76.877976231307, 222.3113646389778, 38.177913315592576,1.0,769
13020.671,1.0146602941091698, -1.5812206649924665, -1.8141281669737204, -1.3187094758393236, 1.5717986087219604, 2.601617307936659,8.033370830974489e-05, -0.1798556199391639, -0.5977412325863725, 0.7778292414764681, -0.00034840359015231683, 0.07306790066779667,1.0,-8789.190895209262, -2847.9597600335555, 21698.28373392312, -76.84024643138807, 222.3592593594011, 38.176488202702416,1.0,769
13020.679,1.0146608525457221, -1.582449034890729, -1.8181572267613904, -1.313450475622144, 1.5717962175041016, 2.6021110931292157,8.497422041430266e-05, -0.1837852798744251, -0.5949942307652154, 0.7790120513419593, -0.00035948248241266493, 0.07310898490136646,1.0,-8789.612355134443, -2847.186473343232, 21698.426801313533, -76.86046835798686, 222.33069376034564, 38.18762714400705,1.0,769
13020.687,1.0146614418532758, -1.583703332102429, -1.8221655981988638, -1.308186236247753, 1.5717937526437455, 2.60260489441422,8.956197672686289e-05, -0.18772127362450444, -0.5922251268158577, 0.7801790851932727, -0.00037057810929246927, 0.07314760607320554,1.0,-8789.699934627915, -2846.6359793527627, 21698.555631040028, -76.89500459608638, 222.35404436417105, 38.18849734411398,1.0,769
13020.695,1.0146620616640123, -1.5849836131058828, -1.8261532824556195, -1.3029167000697157, 1.5717912140253083, 2.603098711124609,9.409692615126455e-05, -0.19166327760193183, -0.589434002198484, 0.7813301009160566, -0.00038168928928002425, 0.07318376823259372,1.0,-8789.710773546169, -2846.965940874844, 21698.239138322846, -76.86226558749576, 222.33519212007866, 38.175684323150506,1.0,769
13020.703,1.0146627042655418, -1.5862753029741015, -1.8300763939367677, -1.2977003451141194, 1.5717886308690503, 2.6035870652040063,9.853498611409448e-05, -0.1955671619927665, -0.5866522671663162, 0.7824523611040518, -0.00039270135948969644, 0.07321708310161813,1.0,-8789.9590356147, -2846.2883419999007, 21698.320166187827, -76.89270028026507, 222.32280331021144, 38.181694127937305,1.0,769
13020.711,1.0146633501576878, -1.5875423983979777, -1.8338325212566389, -1.2926756271857505, 1.5717860767519023, 2.604057023902388,0.00010275197675898755, -0.1993288280467254, -0.5839552193256201, 0.7835170940736961, -0.0004033012574560913, 0.07324691267434907,1.0,-8787.776269666167, -2849.6398153835953, 21700.58989796263, -76.79294210832654, 222.42817504618188, 38.1762434475481,1.0,769
13020.719,1.014663995060869, -1.5887806316402546, -1.8374194611731056, -1.287849019019351, 1.5717835626066383, 2.6045080304080312,0.00010675378012234819, -0.20294299646350752, -0.5813484847947765, 0.7845246315020582, -0.0004134836875529543, 0.07327345777742873,1.0,-8788.799011253563, -2847.9576544456177, 21700.583358277196, -76.82933215221192, 222.37382021659135, 38.18241189362769,1.0,769
13020.726999999999,1.0146646356232323, -1.5899872922328244, -1.840839386892199, -1.283221057897773, 1.5717810961491858, 2.604940082819594,0.00011054595182004126, -0.2064088953465804, -0.578834427029075, 0.7854765657587953, -0.00042324649781459484, 0.0732969801116697,1.0,-8790.095174976916, -2846.509744618682, 21700.38712417726, -76.8843846461539, 222.32788382898195, 38.19067975514213,1.0,769
13020.734999999999,1.0146652686889883, -1.5911597751489719, -1.844094380127343, -1.2787922671539969, 1.5717786847885529, 2.6053531794158595,0.00011413382403866136, -0.20972583412884033, -0.5764152977323228, 0.7863744587546982, -0.00043258780742653027, 0.07331772977004988,1.0,-8789.50213522654, -2847.7313050124003, 21700.75518704283, -76.83597279526228, 222.35279377645406, 38.17730451366978,1.0,769
13020.742999999999,1.0146658912907927, -1.5922955818854723, -1.847186431398514, -1.2745631547899166, 1.571776335624324, 2.6057473186434144,0.00011752249944946337, -0.2128931979179818, -0.5740932373842473, 0.7872198368132826, -0.00044150598506273697, 0.07333594520100747,1.0,-8789.384849383428, -2847.12702689495, 21700.177480211856, -76.85476948492087, 222.35582465166544, 38.184582663118476,1.0,769
13020.751,1.014666500642581, -1.5933923215065153, -1.850117440252788, -1.270534212211878, 1.5717740554443012, 2.606122499104748,0.000120716851093365, -0.21591044192930783, -0.5718702759751783, 0.7880141858367484, -0.0004499996290303287, 0.07335185321303424,1.0,-8789.101250632624, -2846.413265200934, 21700.012350773177, -76.8912798056347, 222.35581627486948, 38.19371501738064,1.0,769
13020.759,1.0146670941328282, -1.5944477116464864, -1.8528892154160985, -1.2667059130761693, 1.5717718507222935, 2.6064787195467756,0.00012372152130526816, -0.21877708602114432, -0.5697483339268783, 0.7887589467641286, -0.0004580675494117494, 0.07336566898959769,1.0,-8788.878831992903, -2848.0578761472734, 21700.11380628562, -76.8303787460944, 222.3773426864741, 38.19565444081633,1.0,769
13020.767,1.0146676693182424, -1.595459579469141, -1.8555034748852837, -1.263078712237827, 1.5717697276160345, 2.6068159788498235,0.00012654092075813108, -0.22149270938183102, -0.5677292231579368, 0.7894555113203942, -0.0004657087500899382, 0.07337759611619833,1.0,-8790.10546200281, -2845.704420474558, 21699.706888045046, -76.91424599194733, 222.32778187063542, 38.18600889724905,1.0,769
13020.775,1.014668223917851, -1.5964258625811816, -1.857961845968874, -1.2596530447962886, 1.5717676919652606, 2.607134276017061,0.0001291792245755403, -0.22405694536988924, -0.5658146482740516, 0.7901052180489767, -0.00047292240789368164, 0.07338782663990705,1.0,-8790.172148660315, -2846.3806406726126, 21699.56832298231, -76.89039209423396, 222.3287769073006, 38.18181227288193,1.0,769
13020.783,1.0146687558074805, -1.5973446098986699, -1.8602658652844593, -1.2564293252316334, 1.5717657492899184, 2.60743361016442,0.00013164037721836132, -0.2264694765432251, -0.5640062078538552, 0.7907093486226782, -0.0004797078577263438, 0.07339654112036824,1.0,-8789.931487071735, -2845.9678862168357, 21699.689741728154, -76.89386059615268, 222.33096886423397, 38.18298758800884,1.0,769
13020.791,1.014669263014613, -1.5982139824650563, -1.8624169787199047, -1.2534079466253587, 1.5717639047885226, 2.607713980510987,0.00013392808848863746, -0.22873002989238259, -0.562305395800126, 0.7912691244259356, -0.00048606457487469085, 0.07340390871202297,1.0,-8789.5547050098, -2846.2919363006577, 21699.94558960601, -76.8951482396316, 222.3470086596846, 38.18717349401473,1.0,769
13020.798999999999,1.014669743713609, -1.5990322542199848, -1.8644165413651033, -1.2505892799598417, 1.571762163336641, 2.60797538636992,0.00013604583624992445, -0.23083837228793522, -0.5607136027366293, 0.7917857034019145, -0.0004919921618462508, 0.07341008724381656,1.0,-8789.414898193343, -2847.348842288361, 21700.2500310995, -76.86780227136117, 222.3497834513248, 38.1954493732452,1.0,769
13020.806999999999,1.0146701962212814, -1.5997978127182675, -1.8662658174204605, -1.2479736734908906, 1.5717605294855144, 2.6082178271398546,0.00013799686757277852, -0.2327943061745018, -0.5592321174244034, 0.792260177151808, -0.0004974903334390147, 0.07341522330803943,1.0,-8788.676116015286, -2847.748851437078, 21700.125987227773, -76.84132939867033, 222.37788562288875, 38.18513607348788,1.0,769
13020.814999999999,1.0146706189928116, -1.6005091597986993, -1.8679659800877992, -1.2455614521880527, 1.5717590074608108, 2.608441302296849,0.0001397841998684116, -0.23459766550717012, -0.557862128176256, 0.7926935682821742, -0.0005025589055389931, 0.07341945235591538,1.0,-8789.32177629946, -2846.4388552987284, 21700.209167913883, -76.88568016199235, 222.35187932224682, 38.18771696904642,1.0,769
13020.823,1.0146710106180026, -1.601164912202587, -1.869518111448878, -1.243352917237571, 1.5717576011614953, 2.608645811386852,0.00014141062648199718, -0.23624831195041768, -0.5566047242513105, 0.7930868279889418, -0.0005071977881904035, 0.07342289878217513,1.0,-8790.659808161441, -2844.1345866174634, 21699.885008852565, -76.95053311794163, 222.293360998555, 38.18798310429173,1.0,769
13020.831,1.0146713698178567, -1.6017638021420186, -1.8709232023362912, -1.2413483456032282, 1.5717563141588116, 2.608831354018739,0.00014287872152820975, -0.23774613135258127, -0.5554608972071898, 0.7934408338672715, -0.0005114069843495301, 0.07342567603530188,1.0,-8788.187832920687, -2848.8084836591543, 21700.521132201182, -76.79714357945099, 222.40190137478788, 38.191901783124564,1.0,769
13020.839,1.0146716954414619, -1.6023046778180792, -1.8721821522010487, -1.2395479896405774, 1.571755149695394, 2.608997929857878,0.00014419084863180007, -0.23909103051380548, -0.5544315421948711, 0.7937563879382752, -0.000515186588929556, 0.07342788670677834,1.0,-8789.40635459317, -2846.3660873251765, 21700.3188596798, -76.88623978108723, 222.3535808193269, 38.19144194648521,1.0,769
13020.847,1.0146719864632072, -1.602786503889238, -1.8732957689807446, -1.2379520767603784, 1.5717541106844548, 2.6091455386202864,0.00014534918782020098, -0.24028293423685776, -0.5535174591865412, 0.7940342148834801, -0.0005185368248107772, 0.07342962261752198,1.0,-8789.739043516758, -2845.619899491623, 21700.27684481171, -76.91921079514319, 222.33671193953342, 38.19464110552471,1.0,769
13020.855,1.014672241980276, -1.6032083618903172, -1.8742647689717753, -1.2365608091374343, 1.571753199709102, 2.6092741800673447,0.00014635575910184335, -0.2413217827410188, -0.5527193541032291, 0.7942749604675209, -0.0005214580834321415, 0.07343096492749387,1.0,-8789.36448999239, -2847.708970622679, 21699.307788786882, -76.84415979329401, 222.348426791747, 38.18686225813221,1.0,769
13020.863,1.0146724612104596, -1.6035694506023903, -1.8750897767087302, -1.2353743634613075, 1.5717524190217294, 2.6093838540011047,0.00014721251262063293, -0.24220752942391477, -0.5520378398649483, 0.794479190127674, -0.0005239510619195987, 0.07343198421288416,1.0,-8789.726401818265, -2845.7012724302513, 21699.625214022362, -76.91994619318916, 222.34420459320535, 38.19116022463783,1.0,769
13020.871,1.0146726434902522, -1.6038690863740364, -1.8757713248536438, -1.2343928907258164, 1.571751770543505, 2.609474560260176,0.00014792150227288214, -0.24294013920333235, -0.5514734373143139, 0.7946473876762015, -0.000526017089319371, 0.07343274055379476,1.0,-8790.2067598413, -2846.5699417943715, 21699.874055961627, -76.8679404843021, 222.3271134791434, 38.193981515784884,1.0,769
13020.878999999999,1.014672788273232, -1.6041067033943683, -1.876309854097454, -1.2336165160545622, 1.571751255863945, 2.609546298716209,0.00014848542266316164, -0.24351958788052777, -0.5510265760456899, 0.7947799539395113, -0.0005276590713134366, 0.07343328369175259,1.0,-8789.415209556144, -2846.6436579249894, 21700.054391605347, -76.8810934372442, 222.3566909886328, 38.19004975731795,1.0,769
13020.886999999999,1.0146728951287372, -1.6042818539182075, -1.8767057130756601, -1.2330453385600997, 1.5717508762405625, 2.6095990692709945,0.00014890950534765534, -0.24394586490746806, -0.5506975951583389, 0.7948772045662963, -0.0005288849316306373, 0.07343365338132182,1.0,-8789.158924279123, -2848.067888181182, 21700.566250492862, -76.83179399569931, 222.3674209295819, 38.187440485959655,1.0,769
13020.894999999999,1.0146729637408125, -1.604394208443745, -1.876959158299793, -1.232679431234808, 1.5717506325985975, 2.609632871854145,0.0001492123045194797, -0.24421899629298296, -0.5504867441966217, 0.794939361558396, -0.0005297271492701649, 0.07343388103196422,1.0,-8789.446767065147, -2847.2106479190406, 21700.750343995358, -76.86904478842277, 222.34153022471116, 38.19126235610241,1.0,769
13020.903,1.0146729939074448, -1.6044435558429884, -1.8770703541059817, -1.2325188408718812, 1.5717505255308177, 2.609647706421387,0.00014966614106045275, -0.24433958009550222, -0.55039419255575, 0.794966378100797, -0.000530678336599348, 0.07343402528465813,1.0,-8789.983698771115, -2846.5246411781063, 21700.26331580589, -76.88973115574035, 222.34725010469919, 38.19355275021371,1.0,769
13020.911,1.014672995449988, -1.6044460668489187, -1.877076010228051, -1.2325106713668692, 1.5717505200691082, 2.6096484610696753,0.0, 0.0, 0.0, 0.0, 0.0, 0.0,1.0,-8789.759823979946, -2846.288231279733, 21700.523234133823, -76.89508851107291, 222.332795300989, 38.19246556339456,1.0,769
13020.919,1.014672995449988, -1.6044460668489187, -1.877076010228051, -1.2325106713668692, 1.5717505200691082, 2.6096484610696753,0.0, 0.0, 0.0, 0.0, 0.0, 0.0,1.0,-8790.598817000226, -2845.0312384736753, 21698.593909771054, -76.92573113032248, 222.2949226524779, 38.1881709557274,1.0,769
13020.927,1.014672995449988, -1.6044460668489187, -1.877076010228051, -1.2325106713668692, 1.5717505200691082, 2.6096484610696753,0.0, 0.0, 0.0, 0.0, 0.0, 0.0,1.0,-8789.100676209895, -2848.5100599549696, 21698.43293838087, -76.8373869500648, 222.3537552321535, 38.19129288048907,1.0,769
13020.935,1.014672995449988, -1.6044460668489187, -1.877076010228051, -1.2325106713668692, 1.5717505200691082, 2.6096484610696753,0.0, 0.0, 0.0, 0.0, 0.0, 0.0,1.0,-8789.12464037071, -2847.712912678824, 21697.824616959835, -76.87060496428467, 222.3672936480786, 38.19266004645286,1.0,769
13020.943,1.014672995449988, -1.6044460668489187, -1.877076010228051, -1.2325106713668692, 1.5717505200691082, 2.6096484610696753,0.0, 0.0, 0.0, 0.0, 0.0, 0.0,1.0,-8789.83794700816, -2847.277724238882, 21697.265133109086, -76.86718383147954, 222.32345077120465, 38.189476268730715,1.0,769
13020.951,1.014672995449988, -1.6044460668489187, -1.877076010228051, -1.2325106713668692, 1.5717505200691082, 2.6096484610696753,0.0, 0.0, 0.0, 0.0, 0.0, 0.0,1.0,-8789.75117204124, -2846.9200878699403, 21697.302727422513, -76.87737729244057, 222.34867163330273, 38.188761589658185,1.0,769
13020.958999999999,1.014672995449988, -1.6044460668489187, -1.877076010228051, -1.2325106713668692, 1.5717505200691082, 2.6096484610696753,0.0, 0.0, 0.0, 0.0, 0.0, 0.0,1.0,-8789.422024534795, -2847.0636285456303, 21697.698966514432, -76.86816330478632, 222.35306625311966, 38.18997000659516,1.0,769
13020.966999999999,1.014672995449988, -1.6044460668489187, -1.877076010228051, -1.2325106713668692, 1.5717505200691082, 2.6096484610696753,0.0, 0.0, 0.0, 0.0, 0.0, 0.0,1.0,-8789.252649032713, -2847.2797360775385, 21698.719364313358, -76.86327445425891, 222.34338598398523, 38.19006805486333,1.0,769
13020.974999999999,1.014672995449988, -1.6044460668489187, -1.877076010228051, -1.2325106713668692, 1.5717505200691082, 2.6096484610696753,0.0, 0.0, 0.0, 0.0, 0.0, 0.0,1.0,-8789.791037269022, -2846.697550044605, 21699.004109630117, -76.87615136975174, 222.36297519589488, 38.19367769276994,1.0,769
13020.983,1.014672995449988, -1.6044460668489187, -1.877076010228051, -1.2325106713668692, 1.5717505200691082, 2.6096484610696753,0.0, 0.0, 0.0, 0.0, 0.0, 0.0,1.0,-8789.662875846845, -2847.3164819538097, 21699.051149646886, -76.8671273345492, 222.35534401211493, 38.181065283349426,1.0,769
13020.991,1.014672995449988, -1.6044460668489187, -1.877076010228051, -1.2325106713668692, 1.5717505200691082, 2.6096484610696753,0.0, 0.0, 0.0, 0.0, 0.0, 0.0,1.0,-8789.72654554484, -2846.8911785630326, 21699.070269240976, -76.87991829810903, 222.3458693457046, 38.18707890181912,1.0,769
13020.999,1.014672995449988, -1.6044460668489187, -1.877076010228051, -1.2325106713668692, 1.5717505200691082, 2.6096484610696753,0.0, 0.0, 0.0, 0.0, 0.0, 0.0,1.0,-8789.271867772413, -2846.6935468546353, 21698.834993499153, -76.87000971878919, 222.3336575486627, 38.183211360036665,1.0,769
13021.007,1.014672995449988, -1.6044460668489187, -1.877076010228051, -1.2325106713668692, 1.5717505200691082, 2.6096484610696753,0.0, 0.0, 0.0, 0.0, 0.0, 0.0,1.0,-8789.101366392248, -2847.047329186893, 21698.311011464662, -76.86374947113225, 222.35124372380585, 38.19005167188888,1.0,769
13021.015,1.014672995449988, -1.6044460668489187, -1.877076010228051, -1.2325106713668692, 1.5717505200691082, 2.6096484610696753,0.0, 0.0, 0.0, 0.0, 0.0, 0.0,1.0,-8789.583911664608, -2847.2960456112187, 21697.894468197108, -76.87343316497143, 222.34190073507642, 38.18098433999211,1.0,769
13021.023,1.014672995449988, -1.6044460668489187, -1.877076010228051, -1.2325106713668692, 1.5717505200691082, 2.6096484610696753,0.0, 0.0, 0.0, 0.0, 0.0, 0.0,1.0,-8789.43771183746, -2846.908100748871, 21697.70739248162, -76.86751474897937, 222.34648395439154, 38.19063031830052,1.0,769
13021.030999999999,1.014672995449988, -1.6044460668489187, -1.877076010228051, -1.2325106713668692, 1.5717505200691082, 2.6096484610696753,0.0, 0.0, 0.0, 0.0, 0.0, 0.0,1.0,-8789.589525281981, -2846.6210488947063, 21697.60787898974, -76.88529779606554, 222.3559058006839, 38.18349056309876,1.0,769
13021.038999999999,1.014672995449988, -1.6044460668489187, -1.877076010228051, -1.2325106713668692, 1.5717505200691082, 2.6096484610696753,0.0, 0.0, 0.0, 0.0, 0.0, 0.0,1.0,-8789.426648832614, -2847.070530568584, 21698.071082634044, -76.86655749028989, 222.33607392138867, 38.1903324638219,1.0,769
13021.046999999999,1.014672995449988, -1.6044460668489187, -1.877076010228051, -1.2325106713668692, 1.5717505200691082, 2.6096484610696753,0.0, 0.0, 0.0, 0.0, 0.0, 0.0,1.0,-8789.717272950773, -2846.6915468969864, 21698.68506393204, -76.8793459208876, 222.33423895698422, 38.187897881314996,1.0,769
13021.055,1.014672995449988, -1.6044460668489187, -1.877076010228051, -1.2325106713668692, 1.5717505200691082, 2.6096484610696753,0.0, 0.0, 0.0, 0.0, 0.0, 0.0,1.0,-8789.524051452532, -2846.8396028113766, 21698.875290664513, -76.87440712783476, 222.34444207634135, 38.195966004385696,1.0,769
13021.063,1.014672995449988, -1.6044460668489187, -1.877076010228051, -1.2325106713668692, 1.5717505200691082, 2.6096484610696753,0.0, 0.0, 0.0, 0.0, 0.0, 0.0,1.0,-8789.877425214452, -2846.5558139230425, 21698.833756623844, -76.87461497599423, 222.3350920704653, 38.183895639704474,1.0,769
13021.071,1.014672995449988, -1.6044460668489187, -1.877076010228051, -1.2325106713668692, 1.5717505200691082, 2.6096484610696753,0.0, 0.0, 0.0, 0.0, 0.0, 0.0,1.0,-8789.368370675054, -2846.7173312270897, 21698.76650383137, -76.8902791776425, 222.35890888733434, 38.18656421507808,1.0,769
13021.079,1.014672995449988, -1.6044460668489187, -1.877076010228051, -1.2325106713668692, 1.5717505200691082, 2.6096484610696753,0.0, 0.0, 0.0, 0.0, 0.0, 0.0,1.0,-8789.5133872436, -2847.0619802817437, 21698.356538473923, -76.86983000393928, 222.34225876125464, 38.1829181903949,1.0,769
13021.087,1.014672995449988, -1.6044460668489187, -1.877076010228051, -1.2325106713668692, 1.5717505200691082, 2.6096484610696753,0.0, 0.0, 0.0, 0.0, 0.0, 0.0,1.0,-8789.173970158261, -2847.204921710085, 21698.301216442433, -76.87422197908595, 222.3471789794698, 38.18704443300919,1.0,769
13021.095,1.014672995449988, -1.6044460668489187, -1.877076010228051, -1.2325106713668692, 1.5717505200691082, 2.6096484610696753,0.0, 0.0, 0.0, 0.0, 0.0, 0.0,1.0,-8789.532293660888, -2846.5590947646115, 21697.712873780372, -76.88529843527218, 222.35045462896414, 38.19654635728625,1.0,769
13021.103,1.014672995449988, -1.6044460668489187, -1.877076010228051, -1.2325106713668692, 1.5717505200691082, 2.6096484610696753,0.0, 0.0, 0.0, 0.0, 0.0, 0.0,1.0,-8789.706546210127, -2846.790358713859, 21697.69060366492, -76.88214830974499, 222.34714167522998, 38.18412288556377,1.0,769
13021.110999999999,1.014672995449988, -1.6044460668489187, -1.877076010228051, -1.2325106713668692, 1.5717505200691082, 2.6096484610696753,0.0, 0.0, 0.0, 0.0, 0.0, 0.0,1.0,-8790.027307962147, -2846.846002905885, 21698.007289621015, -76.87604033546293, 222.3517196329089, 38.195486082059546,1.0,769
13021.118999999999,1.014672995449988, -1.6044460668489187, -1.877076010228051, -1.2325106713668692, 1.5717505200691082, 2.6096484610696753,0.0, 0.0, 0.0, 0.0, 0.0, 0.0,1.0,-8789.71735360046, -2846.989568567552, 21698.326682308223, -76.86722473983048, 222.34403389036453, 38.18716490967219,1.0,769
13021.126999999999,1.014672995449988, -1.6044460668489187, -1.877076010228051, -1.2325106713668692, 1.5717505200691082, 2.6096484610696753,0.0, 0.0, 0.0, 0.0, 0.0, 0.0,1.0,-8789.562922046973, -2846.853706718578, 21698.658949810535, -76.87782279461032, 222.34892215407154, 38.20168563583752,1.0,769
13021.135,1.014672995449988, -1.6044460668489187, -1.877076010228051, -1.2325106713668692, 1.5717505200691082, 2.6096484610696753,0.0, 0.0, 0.0, 0.0, 0.0, 0.0,1.0,-8789.607949580131, -2846.664392653075, 21698.4641611981, -76.87859778843782, 222.35079737097124, 38.18150308218122,1.0,769
13021.143,1.014672995449988, -1.6044460668489187, -1.877076010228051, -1.2325106713668692, 1.5717505200691082, 2.6096484610696753,0.0, 0.0, 0.0, 0.0, 0.0, 0.0,1.0,-8789.726064235758, -2846.7393650722024, 21698.5219231118, -76.87435749417813, 222.34967522315367, 38.19692049372435,1.0,769
13021.151,1.014672995449988, -1.6044460668489187, -1.877076010228051, -1.2325106713668692, 1.5717505200691082, 2.6096484610696753,0.0, 0.0, 0.0, 0.0, 0.0, 0.0,1.0,-8789.49016365868, -2846.9838382572752, 21698.39773122635, -76.8771203877242, 222.34905489776372, 38.17978238670531,1.0,769
13021.159,1.014672995449988, -1.6044460668489187, -1.877076010228051, -1.2325106713668692, 1.5717505200691082, 2.6096484610696753,0.0, 0.0, 0.0, 0.0, 0.0, 0.0,1.0,-8789.592914474242, -2847.1508652003204, 21698.229305897177, -76.8728003283668, 222.35124195850477, 38.192781389146575,1.0,769
13021.167,1.014672995449988, -1.6044460668489187, -1.877076010228051, -1.2325106713668692, 1.5717505200691082, 2.6096484610696753,0.0, 0.0, 0.0, 0.0, 0.0, 0.0,1.0,-8789.595123814108, -2847.0317778289836, 21697.93815338108, -76.86939652263658, 222.34839463885004, 38.18476879085546,1.0,769
13021.175,1.014672995449988, -1.6044460668489187, -1.877076010228051, -1.2325106713668692, 1.5717505200691082, 2.6096484610696753,0.0, 0.0, 0.0, 0.0, 0.0, 0.0,1.0,-8789.305498918086, -2846.937575597445, 21697.87340914839, -76.86682635470075, 222.33648909951006, 38.19056373604866,1.0,769
13021.182999999999,1.014672995449988, -1.6044460668489187, -1.877076010228051, -1.2325106713668692, 1.5717505200691082, 2.6096484610696753,0.0, 0.0, 0.0, 0.0, 0.0, 0.0,1.0,-8789.554754061452, -2847.0942198748135, 21698.014020085157, -76.86882891032928, 222.35188189305478, 38.18323365312523,1.0,769
13021.190999999999,1.014672995449988, -1.6044460668489187, -1.877076010228051, -1.2325106713668692, 1.5717505200691082, 2.6096484610696753,0.0, 0.0, 0.0, 0.0, 0.0, 0.0,1.0,-8789.578045961773, -2847.070096738388, 21698.48348202009, -76.87378192979938, 222.34970231047407, 38.18763491145293,1.0,769
13021.198999999999,1.014672995449988, -1.6044460668489187, -1.877076010228051, -1.2325106713668692, 1.5717505200691082, 2.6096484610696753,0.0, 0.0, 0.0, 0.0, 0.0, 0.0,1.0,-8789.374018538476, -2847.1766690824397, 21698.461157503818, -76.87159498959502, 222.35032058978652, 38.19162879518032,1.0,769
13021.206999999999,1.014672995449988, -1.6044460668489187, -1.877076010228051, -1.2325106713668692, 1.5717505200691082, 2.6096484610696753,0.0, 0.0, 0.0, 0.0, 0.0, 0.0,1.0,-8789.320617815869, -2847.1434235905, 21698.480983853584, -76.87257007324021, 222.3445588997244, 38.184093599125845,1.0,769
13021.215,1.014672995449988, -1.6044460668489187, -1.877076010228051, -1.2325106713668692, 1.5717505200691082, 2.6096484610696753,0.0, 0.0, 0.0, 0.0, 0.0, 0.0,1.0,-8789.637283737844, -2846.965623127414, 21698.495864393208, -76.86831900327329, 222.34643573793488, 38.19311457206726,1.0,769
13021.223,1.014672995449988, -1.6044460668489187, -1.877076010228051, -1.2325106713668692, 1.5717505200691082, 2.6096484610696753,0.0, 0.0, 0.0, 0.0, 0.0, 0.0,1.0,-8789.656211879856, -2847.1991136148563, 21698.298271145566, -76.8789440448069, 222.35326615866109, 38.185702740040284,1.0,769
13021.231,1.014672995449988, -1.6044460668489187, -1.877076010228051, -1.2325106713668692, 1.5717505200691082, 2.6096484610696753,0.0, 0.0, 0.0, 0.0, 0.0, 0.0,1.0,-8789.650687582998, -2847.0985872188076, 21698.16071562028, -76.87507085250232, 222.34915376814303, 38.196538968967076,1.0,769
13021.239,1.014672995449988, -1.6044460668489187, -1.877076010228051, -1.2325106713668692, 1.5717505200691082, 2.6096484610696753,0.0, 0.0, 0.0, 0.0, 0.0, 0.0,1.0,-8789.5676955615, -2847.1829027470303, 21698.33688609496, -76.8698865584636, 222.34642164349327, 38.18543274246534,1.0,769
13021.247,1.014672995449988, -1.6044460668489187, -1.877076010228051, -1.2325106713668692, 1.5717505200691082, 2.6096484610696753,0.0, 0.0, 0.0, 0.0, 0.0, 0.0,1.0,-8789.524499059255, -2846.856001826175, 21697.92009189609, -76.87259665178317, 222.35129742864905, 38.18996665744649,1.0,769
13021.255,1.014672995449988, -1.6044460668489187, -1.877076010228051, -1.2325106713668692, 1.5717505200691082, 2.6096484610696753,0.0, 0.0, 0.0, 0.0, 0.0, 0.0,1.0,-8789.396930035842, -2847.1973457300264, 21698.17501583625, -76.8809971025313, 222.34412360978365, 38.183309697530206,1.0,769
13021.262999999999,1.014672995449988, -1.6044460668489187, -1.877076010228051, -1.2325106713668692, 1.5717505200691082, 2.6096484610696753,0.0, 0.0, 0.0, 0.0, 0.0, 0.0,1.0,-8789.397595332137, -2846.757248728699, 21698.12636975419, -76.87058534704644, 222.34896591106013, 38.18722908000933,1.0,769
13021.270999999999,1.014672995449988, -1.6044460668489187, -1.877076010228051, -1.2325106713668692, 1.5717505200691082, 2.6096484610696753,0.0, 0.0, 0.0, 0.0, 0.0, 0.0,1.0,-8789.649121071778, -2847.0122061337515, 21698.481251386995, -76.87018207355061, 222.34626242902715, 38.183604497314974,1.0,769
13021.278999999999,1.014672995449988, -1.6044460668489187, -1.877076010228051, -1.2325106713668692, 1.5717505200691082, 2.6096484610696753,0.0, 0.0, 0.0, 0.0, 0.0, 0.0,1.0,-8789.494711358324, -2846.8408728225077, 21698.385555700967, -76.87485701648953, 222.34722591853478, 38.19227323635323,1.0,769
13021.287,1.014672995449988, -1.6044460668489187, -1.877076010228051, -1.2325106713668692, 1.5717505200691082, 2.6096484610696753,0.0, 0.0, 0.0, 0.0, 0.0, 0.0,1.0,-8789.539099269581, -2846.8013757885783, 21698.437710505514, -76.87441079682927, 222.3431073110749, 38.18789952018662,1.0,769
13021.295,1.014672995449988, -1.6044460668489187, -1.877076010228051, -1.2325106713668692, 1.5717505200691082, 2.6096484610696753,0.0, 0.0, 0.0, 0.0, 0.0, 0.0,1.0,-8789.537645095805, -2846.869432758589, 21698.51819749522, -76.8795847059512, 222.34645090244726, 38.18810853358315,1.0,769
13021.303,1.014672995449988, -1.6044460668489187, -1.877076010228051, -1.2325106713668692, 1.5717505200691082, 2.6096484610696753,0.0, 0.0, 0.0, 0.0, 0.0, 0.0,1.0,-8789.491987485724, -2846.7995052827528, 21698.2806064256, -76.8719827946912, 222.34615532925523, 38.189347399278034,1.0,769
13021.311,1.014672995449988, -1.6044460668489187, -1.877076010228051, -1.2325106713668692, 1.5717505200691082, 2.6096484610696753,0.0, 0.0, 0.0, 0.0, 0.0, 0.0,1.0,-8789.39409221241, -2846.944652896239, 21698.175401120985, -76.87990701314575, 222.3415800458867, 38.191007980605974,1.0,769
13021.319,1.014672995449988, -1.6044460668489187, -1.877076010228051, -1.2325106713668692, 1.5717505200691082, 2.6096484610696753,0.0, 0.0, 0.0, 0.0, 0.0, 0.0,1.0,-8789.472432260915, -2846.459617156793, 21697.90018288832, -76.86937024301676, 222.34691068792858, 38.18874381739366,1.0,769
13021.327,1.014672995449988, -1.6044460668489187, -1.877076010228051, -1.2325106713668692, 1.5717505200691082, 2.6096484610696753,0.0, 0.0, 0.0, 0.0, 0.0, 0.0,1.0,-8789.517498932131, -2846.8470717456603, 21697.94482868561, -76.87497755678248, 222.34797896336414, 38.18817524049365,1.0,769
13021.335,1.014672995449988, -1.6044460668489187, -1.877076010228051, -1.2325106713668692, 1.5717505200691082, 2.6096484610696753,0.0, 0.0, 0.0, 0.0, 0.0, 0.0,1.0,-8789.29778811232, -2846.785752434317, 21698.020220285573, -76.87115603253773, 222.33602470040995, 38.19046020777941,1.0,769
13021.342999999999,1.014672995449988, -1.6044460668489187, -1.877076010228051, -1.2325106713668692, 1.5717505200691082, 2.6096484610696753,0.0, 0.0, 0.0, 0.0, 0.0, 0.0,1.0,-8789.396498180457, -2846.8362062839697, 21698.221966666475, -76.87908713745875, 222.34250369271683, 38.18580087563586,1.0,769
13021.350999999999,1.014672995449988, -1.6044460668489187, -1.877076010228051, -1.2325106713668692, 1.5717505200691082, 2.6096484610696753,0.0, 0.0, 0.0, 0.0, 0.0, 0.0,1.0,-8789.679502957992, -2846.722160390981, 21698.278675993857, -76.87369914054233, 222.34849186221334, 38.19066711905188,1.0,769
13021.358999999999,1.014672995449988, -1.6044460668489187, -1.877076010228051, -1.2325106713668692, 1.5717505200691082, 2.6096484610696753,0.0, 0.0, 0.0, 0.0, 0.0, 0.0,1.0,-8789.54281646604, -2846.9010150259546, 21698.297890462738, -76.87563149213773, 222.34485743290776, 38.18604708488502,1.0,769
13021.367,1.014672995449988, -1.6044460668489187, -1.877076010228051, -1.2325106713668692, 1.5717505200691082, 2.6096484610696753,0.0, 0.0, 0.0, 0.0, 0.0, 0.0,1.0,-8789.306986724232, -2846.845165287242, 21698.220280186863, -76.87274854069707, 222.34102580774857, 38.1899132780961,1.0,769
13021.375,1.014672995449988, -1.6044460668489187, -1.877076010228051, -1.2325106713668692, 1.5717505200691082, 2.6096484610696753,0.0, 0.0, 0.0, 0.0, 0.0, 0.0,1.0,-8789.372337104458, -2847.055266408601, 21698.237378590504, -76.8795284492391, 222.340578623172, 38.18904004767833,1.0,769
13021.383,1.014672995449988, -1.6044460668489187, -1.877076010228051, -1.2325106713668692, 1.5717505200691082, 2.6096484610696753,0.0, 0.0, 0.0, 0.0, 0.0, 0.0,1.0,-8789.484020953883, -2847.13855542481, 21698.164685257943, -76.87838820599265, 222.34756502854992, 38.185768210337216,1.0,769
13021.391,1.014672995449988, -1.6044460668489187, -1.877076010228051, -1.2325106713668692, 1.5717505200691082, 2.6096484610696753,0.0, 0.0, 0.0, 0.0, 0.0, 0.0,1.0,-8789.521464619771, -2847.0381615612177, 21697.98955523693, -76.8710587689531, 222.34405729118168, 38.192670355406875,1.0,769
13021.399,1.014672995449988, -1.6044460668489187, -1.877076010228051, -1.2325106713668692, 1.5717505200691082, 2.6096484610696753,0.0, 0.0, 0.0, 0.0, 0.0, 0.0,1.0,-8789.374156817927, -2846.6616133801535, 21697.92090105129, -76.86035657713961, 222.3474104317046, 38.18991816639476,1.0,769
13021.407,1.014672995449988, -1.6044460668489187, -1.877076010228051, -1.2325106713668692, 1.5717505200691082, 2.6096484610696753,0.0, 0.0, 0.0, 0.0, 0.0, 0.0,1.0,-8789.630238637095, -2847.079894785261, 21698.068615264852, -76.87260725419546, 222.34729580260154, 38.18920082374319,1.0,769
13021.414999999999,1.014672995449988, -1.6044460668489187, -1.877076010228051, -1.2325106713668692, 1.5717505200691082, 2.6096484610696753,0.0, 0.0, 0.0, 0.0, 0.0, 0.0,1.0,-8789.322081957956, -2846.880012638396, 21698.10831506512, -76.87106021004715, 222.34093674194492, 38.191972428896776,1.0,769
13021.422999999999,1.014672995449988, -1.6044460668489187, -1.877076010228051, -1.2325106713668692, 1.5717505200691082, 2.6096484610696753,0.0, 0.0, 0.0, 0.0, 0.0, 0.0,1.0,-8789.562535567535, -2846.9788323751336, 21698.147000183963, -76.87135266980587, 222.34641565628755, 38.18865564760148,1.0,769
13021.430999999999,1.014672995449988, -1.6044460668489187, -1.877076010228051, -1.2325106713668692, 1.5717505200691082, 2.6096484610696753,0.0, 0.0, 0.0, 0.0, 0.0, 0.0,1.0,-8789.621948966187, -2847.1261472519973, 21698.28992787426, -76.87396327885213, 222.35194238339488, 38.19091989181541,1.0,769
13021.439,1.014672995449988, -1.6044460668489187, -1.877076010228051, -1.2325106713668692, 1.5717505200691082, 2.6096484610696753,0.0, 0.0, 0.0, 0.0, 0.0, 0.0,1.0,-8789.553507467595, -2847.10554710641, 21698.32503578483, -76.872754180785, 222.34831915937463, 38.18776282493067,1.0,769
13021.447,1.014672995449988, -1.6044460668489187, -1.877076010228051, -1.2325106713668692, 1.5717505200691082, 2.6096484610696753,0.0, 0.0, 0.0, 0.0, 0.0, 0.0,1.0,-8789.516448865326, -2846.9062140286414, 21698.298859982195, -76.87073980400189, 222.35062801956508, 38.18883260713517,1.0,769
13021.455,1.014672995449988, -1.6044460668489187, -1.877076010228051, -1.2325106713668692, 1.5717505200691082, 2.6096484610696753,0.0, 0.0, 0.0, 0.0, 0.0, 0.0,1.0,-8789.825688068862, -2847.171059774165, 21698.054625329918, -76.87200778620928, 222.35245155296235, 38.178517909624986,1.0,769
13021.463,1.014672995449988, -1.6044460668489187, -1.877076010228051, -1.2325106713668692, 1.5717505200691082, 2.6096484610696753,0.0, 0.0, 0.0, 0.0, 0.0, 0.0,1.0,-8789.536053048547, -2847.2017231524696, 21698.143172264303, -76.87756676546314, 222.34959312571863, 38.18806166061967,1.0,769
13021.471,1.014672995449988, -1.6044460668489187, -1.877076010228051, -1.2325106713668692, 1.5717505200691082, 2.6096484610696753,0.0, 0.0, 0.0, 0.0, 0.0, 0.0,1.0,-8789.481207838626, -2846.904040206424, 21698.13800746304, -76.86879034766073, 222.3399544892062, 38.18674860447251,1.0,769
13021.479,1.014672995449988, -1.6044460668489187, -1.877076010228051, -1.2325106713668692, 1.5717505200691082, 2.6096484610696753,0.0, 0.0, 0.0, 0.0, 0.0, 0.0,1.0,-8789.341232835823, -2847.2078670380088, 21698.06780384114, -76.87598502895139, 222.34122903365375, 38.19453090900396,1.0,769
13021.487,1.014672995449988, -1.6044460668489187, -1.877076010228051, -1.2325106713668692, 1.5717505200691082, 2.6096484610696753,0.0, 0.0, 0.0, 0.0, 0.0, 0.0,1.0,-8789.694261673772, -2847.107714635723, 21698.130251035658, -76.87756079748644, 222.35354316479516, 38.186897096994784,1.0,769
13021.494999999999,1.014672995449988, -1.6044460668489187, -1.877076010228051, -1.2325106713668692, 1.5717505200691082, 2.6096484610696753,0.0, 0.0, 0.0, 0.0, 0.0, 0.0,1.0,-8789.542304635654, -2847.147633438988, 21698.27785516254, -76.87749199945688, 222.34595827050828, 38.19114295255471,1.0,769
13021.502999999999,1.014672995449988, -1.6044460668489187, -1.877076010228051, -1.2325106713668692, 1.5717505200691082, 2.6096484610696753,0.0, 0.0, 0.0, 0.0, 0.0, 0.0,1.0,-8789.402530961337, -2847.0312627613957, 21698.251664685784, -76.87745372666589, 222.3451187135878, 38.18882395468313,1.0,769
13021.510999999999,1.014672995449988, -1.6044460668489187, -1.877076010228051, -1.2325106713668692, 1.5717505200691082, 2.6096484610696753,0.0, 0.0, 0.0, 0.0, 0.0, 0.0,1.0,-8789.677044420434, -2846.839435633924, 21698.252476351056, -76.87025522720413, 222.34624352953648, 38.192435680507316,1.0,769
13021.519,1.014672995449988, -1.6044460668489187, -1.877076010228051, -1.2325106713668692, 1.5717505200691082, 2.6096484610696753,0.0, 0.0, 0.0, 0.0, 0.0, 0.0,1.0,-8789.847562494291, -2847.0813393317876, 21698.410665614752, -76.88077255289178, 222.3573644720003, 38.189773533091056,1.0,769
13021.527,1.014672995449988, -1.6044460668489187, -1.877076010228051, -1.2325106713668692, 1.5717505200691082, 2.6096484610696753,0.0, 0.0, 0.0, 0.0, 0.0, 0.0,1.0,-8789.589493984307, -2846.945630113877, 21698.32520667237, -76.87892252968584, 222.34486169331626, 38.189692913316975,1.0,769
13021.535,1.014672995449988, -1.6044460668489187, -1.877076010228051, -1.2325106713668692, 1.5717505200691082, 2.6096484610696753,0.0, 0.0, 0.0, 0.0, 0.0, 0.0,1.0,-8789.708257158483, -2846.8990258924578, 21698.263645384322, -76.87797563761276, 222.35070035297292, 38.192885092186515,1.0,769
13021.543,1.014672995449988, -1.6044460668489187, -1.877076010228051, -1.2325106713668692, 1.5717505200691082, 2.6096484610696753,0.0, 0.0, 0.0, 0.0, 0.0, 0.0,1.0,-8789.832937602716, -2846.9940552739545, 21698.125141004253, -76.87954290101902, 222.35262963449424, 38.181068086663004,1.0,769
13021.551,1.014672995449988, -1.6044460668489187, -1.877076010228051, -1.2325106713668692, 1.5717505200691082, 2.6096484610696753,0.0, 0.0, 0.0, 0.0, 0.0, 0.0,1.0,-8789.692517864392, -2846.876699344545, 21698.234427617936, -76.87340930180449, 222.35484057009006, 38.18888928038521,1.0,769
13021.559,1.014672995449988, -1.6044460668489187, -1.877076010228051, -1.2325106713668692, 1.5717505200691082, 2.6096484610696753,0.0, 0.0, 0.0, 0.0, 0.0, 0.0,1.0,-8789.688748100247, -2846.987003044508, 21698.24559308156, -76.87813754424366, 222.34931962448172, 38.17833497797258,1.0,769
13021.567,1.014672995449988, -1.6044460668489187, -1.877076010228051, -1.2325106713668692, 1.5717505200691082, 2.6096484610696753,0.0, 0.0, 0.0, 0.0, 0.0, 0.0,1.0,-8789.207347477924, -2847.025549451031, 21698.274427821474, -76.88083851880637, 222.34063438645018, 38.19302399556915,1.0,769
13021.574999999999,1.014672995449988, -1.6044460668489187, -1.877076010228051, -1.2325106713668692, 1.5717505200691082, 2.6096484610696753,0.0, 0.0, 0.0, 0.0, 0.0, 0.0,1.0,-8789.457107689102, -2846.713184852899, 21698.209224866005, -76.87462559265995, 222.3426805937508, 38.18100704568366,1.0,769
13021.582999999999,1.014672995449988, -1.6044460668489187, -1.877076010228051, -1.2325106713668692, 1.5717505200691082, 2.6096484610696753,0.0, 0.0, 0.0, 0.0, 0.0, 0.0,1.0,-8789.779296218414, -2846.706380928209, 21698.34981681359, -76.87550380581351, 222.35221149853533, 38.19102603125154,1.0,769
13021.590999999999,1.014672995449988, -1.6044460668489187, -1.877076010228051, -1.2325106713668692, 1.5717505200691082, 2.6096484610696753,0.0, 0.0, 0.0, 0.0, 0.0, 0.0,1.0,-8789.41222008372, -2846.96687348232, 21698.246567768354, -76.87795279557068, 222.34624448225009, 38.18970216577614,1.0,769
13021.599,1.014672995449988, -1.6044460668489187, -1.877076010228051, -1.2325106713668692, 1.5717505200691082, 2.6096484610696753,0.0, 0.0, 0.0, 0.0, 0.0, 0.0,1.0,-8789.579988787065, -2846.8856797723747, 21698.295694497712, -76.87487066554016, 222.3423469988747, 38.192442708060184,1.0,769
13021.607,1.014672995449988, -1.6044460668489187, -1.877076010228051, -1.2325106713668692, 1.5717505200691082, 2.6096484610696753,0.0, 0.0, 0.0, 0.0, 0.0, 0.0,1.0,-8789.568858164477, -2847.0377648298845, 21698.137582000967, -76.88185067047621, 222.34497587676805, 38.18621562964134,1.0,769
13021.615,1.014672995449988, -1.6044460668489187, -1.877076010228051, -1.2325106713668692, 1.5717505200691082, 2.6096484610696753,0.0, 0.0, 0.0, 0.0, 0.0, 0.0,1.0,-8789.566555916357, -2847.0284405589273, 21698.09286671196, -76.87932437485955, 222.34505001408678, 38.18774210162394,1.0,769
13021.623,1.014672995449988, -1.6044460668489187, -1.877076010228051, -1.2325106713668692, 1.5717505200691082, 2.6096484610696753,0.0, 0.0, 0.0, 0.0, 0.0, 0.0,1.0,-8789.304901870268, -2847.029573442135, 21698.00354565232, -76.87616707349625, 222.34495800508438, 38.18837698499635,1.0,769
13021.631,1.014672995449988, -1.6044460668489187, -1.877076010228051, -1.2325106713668692, 1.5717505200691082, 2.6096484610696753,0.0, 0.0, 0.0, 0.0, 0.0, 0.0,1.0,-8789.617388720733, -2847.0265046740706, 21698.196469532253, -76.8732331345729, 222.34976529393361, 38.18562436201307,1.0,769
13021.639,1.014672995449988, -1.6044460668489187, -1.877076010228051, -1.2325106713668692, 1.5717505200691082, 2.6096484610696753,0.0, 0.0, 0.0, 0.0, 0.0, 0.0,1.0,-8789.561491914417, -2847.126894673699, 21698.069293657496, -76.87865510371483, 222.3475586915393, 38.194433935667575,1.0,769
13021.646999999999,1.014672995449988, -1.6044460668489187, -1.877076010228051, -1.2325106713668692, 1.5717505200691082, 2.6096484610696753,0.0, 0.0, 0.0, 0.0, 0.0, 0.0,1.0,-8789.461571890675, -2846.9910937618824, 21698.26300805709, -76.8722365475594, 222.34390419049566, 38.18348561780826,1.0,769
13021.654999999999,1.014672995449988, -1.6044460668489187, -1.877076010228051, -1.2325106713668692, 1.5717505200691082, 2.6096484610696753,0.0, 0.0, 0.0, 0.0, 0.0, 0.0,1.0,-8789.463201993012, -2847.0402663542463, 21698.27628609862, -76.87471565448848, 222.34685119400496, 38.19896817141088,1.0,769
13021.662999999999,1.014672995449988, -1.6044460668489187, -1.877076010228051, -1.2325106713668692, 1.5717505200691082, 2.6096484610696753,0.0, 0.0, 0.0, 0.0, 0.0, 0.0,1.0,-8789.729724783112, -2847.0874364830825, 21698.07893024841, -76.8718278156457, 222.3504974285063, 38.17985837487436,1.0,769
13021.671,1.014672995449988, -1.6044460668489187, -1.877076010228051, -1.2325106713668692, 1.5717505200691082, 2.6096484610696753,0.0, 0.0, 0.0, 0.0, 0.0, 0.0,1.0,-8789.690792965037, -2846.998603197386, 21698.057579491193, -76.87050784127615, 222.35323752353708, 38.19179860999725,1.0,769
13021.679,1.014672995449988, -1.6044460668489187, -1.877076010228051, -1.2325106713668692, 1.5717505200691082, 2.6096484610696753,0.0, 0.0, 0.0, 0.0, 0.0, 0.0,1.0,-8789.262394624215, -2846.943184261957, 21697.99712083749, -76.86961092701648, 222.33937689336238, 38.18552763610248,1.0,769
13021.687,1.014672995449988, -1.6044460668489187, -1.877076010228051, -1.2325106713668692, 1.5717505200691082, 2.6096484610696753,0.0, 0.0, 0.0, 0.0, 0.0, 0.0,1.0,-8789.510717769183, -2846.9571705923054, 21697.961566825437, -76.87289065108888, 222.35112089055013, 38.194083533212535,1.0,769
13021.695,1.014672995449988, -1.6044460668489187, -1.877076010228051, -1.2325106713668692, 1.5717505200691082, 2.6096484610696753,0.0, 0.0, 0.0, 0.0, 0.0, 0.0,1.0,-8789.49080053589, -2847.1007391514013, 21698.060169361117, -76.87104586786009, 222.34715728218555, 38.19009688716696,1.0,769
13021.703,1.014672995449988, -1.6044460668489187, -1.877076010228051, -1.2325106713668692, 1.5717505200691082, 2.6096484610696753,0.0, 0.0, 0.0, 0.0, 0.0, 0.0,1.0,-8789.472243506189, -2847.0275523788296, 21698.042426628603, -76.87418882575085, 222.34155019120254, 38.19232179965019,1.0,769
13021.711,1.014672995449988, -1.6044460668489187, -1.877076010228051, -1.2325106713668692, 1.5717505200691082, 2.6096484610696753,0.0, 0.0, 0.0, 0.0, 0.0, 0.0,1.0,-8789.669108857943, -2846.9131248015283, 21698.097483149788, -76.87330754447498, 222.35324204723742, 38.19068742252372,1.0,769
13021.719,1.014672995449988, -1.6044460668489187, -1.877076010228051, -1.2325106713668692, 1.5717505200691082, 2.6096484610696753,0.0, 0.0, 0.0, 0.0, 0.0, 0.0,1.0,-8789.65365229483, -2847.028126170627, 21698.136293645864, -76.8750935216934, 222.34829747032495, 38.19285731117262,1.0,769
13021.726999999999,1.014672995449988, -1.6044460668489187, -1.877076010228051, -1.2325106713668692, 1.5717505200691082, 2.6096484610696753,0.0, 0.0, 0.0, 0.0, 0.0, 0.0,1.0,-8789.654532739913, -2847.0532570670985, 21698.4180289509, -76.87819032247009, 222.353704625259, 38.19175050203705,1.0,769
13021.734999999999,1.014672995449988, -1.6044460668489187, -1.877076010228051, -1.2325106713668692, 1.5717505200691082, 2.6096484610696753,0.0, 0.0, 0.0, 0.0, 0.0, 0.0,1.0,-8789.596866040103, -2846.963818099075, 21698.30791210931, -76.87808418829809, 222.34559709053946, 38.190753125590646,1.0,769
13021.742999999999,1.014672995449988, -1.6044460668489187, -1.877076010228051, -1.2325106713668692, 1.5717505200691082, 2.6096484610696753,0.0, 0.0, 0.0, 0.0, 0.0, 0.0,1.0,-8789.63351850016, -2846.8792924667014, 21698.32042927571, -76.87443003222333, 222.34698061828664, 38.19519819964066,1.0,769
13021.751,1.014672995449988, -1.6044460668489187, -1.877076010228051, -1.2325106713668692, 1.5717505200691082, 2.6096484610696753,0.0, 0.0, 0.0, 0.0, 0.0, 0.0,1.0,-8789.814366712179, -2846.8813719973286, 21698.30059955662, -76.87531478461773, 222.35488661506713, 38.18466660493522,1.0,769
13021.759,1.014672995449988, -1.6044460668489187, -1.877076010228051, -1.2325106713668692, 1.5717505200691082, 2.6096484610696753,0.0, 0.0, 0.0, 0.0, 0.0, 0.0,1.0,-8789.408825178001, -2846.979109863045, 21698.17144641103, -76.87799551270524, 222.3470726772386, 38.19369062166234,1.0,769
13021.767,1.014672995449988, -1.6044460668489187, -1.877076010228051, -1.2325106713668692, 1.5717505200691082, 2.6096484610696753,0.0, 0.0, 0.0, 0.0, 0.0, 0.0,1.0,-8789.54812071258, -2846.8833135938858, 21698.209659644755, -76.87402957156888, 222.34321046464675, 38.18667658152185,1.0,769
13021.775,1.014672995449988, -1.6044460668489187, -1.877076010228051, -1.2325106713668692, 1.5717505200691082, 2.6096484610696753,0.0, 0.0, 0.0, 0.0, 0.0, 0.0,1.0,-8789.3764535116, -2846.8751400278907, 21698.108243201634, -76.87483001824305, 222.3451115358663, 38.199343676347496,1.0,769
