dlisjak-bit/sensor_synchronization/realtime_sync/robot_reference.csv
t,q0,q1,q2,q3,q4,q5,qd0,qd1,qd2,qd3,qd4,qd5,ss,f0,f1,f2,f3,f4,f5,tsf,do
1218.661,-0.5086462749904053, -2.371387741821373, -1.1175187827170046, -0.91020158370568, 1.2659451393013643, -0.009805652190842729,0.6452535253339307, 0.24995960377459886, 4.3896882649828025e-05, -0.6126384396631886, 0.3818929070164041, -0.0001800434882523487,1.0,-8791.05672061335, -2849.540380886684, 21669.726202448466, -76.98511357302834, 222.28347960545665, 38.48482805062861,1.0,769
1218.6689999999999,-0.5083535343770524, -2.371274339375901, -1.1175187628017307, -0.9104795274061779, 1.266118397655555, -0.009805733873529121,0.6452535253339305, 0.24995960377459886, 4.389688264982803e-05, -0.6126384396631886, 0.3818929070164041, -0.00018004348825234872,1.0,-8791.231838361244, -2849.321431806874, 21669.877326001893, -76.98709512088598, 222.28745917393928, 38.485244371693256,1.0,769
1218.685,-0.5074999705772401, -2.3709436841205314, -1.117518704733408, -0.911289946836586, 1.2666235788719853, -0.009805972041315947,0.6452535253339305, 0.2499596037745988, 4.389688264982802e-05, -0.6126384396631885, 0.38189290701640405, -0.0001800434882523487,1.0,-8791.290139939978, -2849.412713309145, 21669.76983270498, -76.98528161964381, 222.29062256067107, 38.48390079241943,1.0,769
1218.701,-0.5062889633466199, -2.370474561712595, -1.1175186223480509, -0.9124397423062103, 1.2673403127658145, -0.009806309945655123,0.6452535253339307, 0.2499596037745989, 4.389688264982803e-05, -0.6126384396631886, 0.3818929070164041, -0.00018004348825234875,1.0,-8791.236148175913, -2849.5413764264913, 21669.734733676516, -76.99013119284817, 222.28846049597934, 38.48716637902399,1.0,769
1218.7089999999998,-0.5055494184447564, -2.370188075326414, -1.1175185720364844, -0.9131419060557286, 1.2677780119667537, -0.009806516299032175,0.6452535253339305, 0.24995960377459878, 4.389688264982802e-05, -0.6126384396631885, 0.381892907016404, -0.0001800434882523487,1.0,-8791.111080033725, -2849.334470469287, 21669.780844488523, -76.98661831884851, 222.2864188238387, 38.489707139176005,1.0,769
1218.7649999999999,-0.49787050011605327, -2.367213400555181, -1.1175180496362742, -0.9204326845768742, 1.2723227751151183, -0.009808658928537106,0.6452535253339307, 0.24995960377459886, 4.3896882649828025e-05, -0.6126384396631885, 0.38189290701640405, -0.00018004348825234872,1.0,-8791.43579247695, -2849.449583029729, 21670.06981237051, -76.98982617229629, 222.28907259552744, 38.48374263208993,1.0,769
1218.773,-0.49641606835257246, -2.3666499798638663, -1.1175179506906385, -0.9218136004048256, 1.2731835796708548, -0.00980906475501886,0.6452535253339304, 0.24995960377459878, 4.389688264982802e-05, -0.6126384396631885, 0.381892907016404, -0.00018004348825234866,1.0,-8791.122298336191, -2849.4179825144593, 21670.03613124453, -76.98884141756005, 222.28398500002783, 38.48951573635259,1.0,769
1218.781,-0.4948722757313897, -2.36605194238441, -1.117517845665744, -0.9232793602425815, 1.274097272395941, -0.009809495515638922,0.6452535253339307, 0.24995960377459886, 4.3896882649828025e-05, -0.6126384396631886, 0.3818929070164041, -0.00018004348825234872,1.0,-8791.00971559049, -2849.685932969469, 21669.74096015515, -76.98978185653536, 222.28650508380332, 38.48589107009215,1.0,769
1218.789,-0.4932391222525059, -2.3654192881168123, -1.1175177345615905, -0.924829964090141, 1.2750638532903769, -0.009809951210397294,0.6452535253339305, 0.24995960377459883, 4.389688264982802e-05, -0.6126384396631885, 0.381892907016404, -0.0001800434882523487,1.0,-8791.365407924364, -2849.4004868465427, 21669.96991872759, -76.98912397642911, 222.28728502578764, 38.48205052607324,1.0,769
1218.797,-0.4915166079159192, -2.3647520170610727, -1.1175176173781782, -0.9264654119475049, 1.2760833223541623, -0.009810431839293976,0.6452535253339305, 0.24995960377459883, 4.389688264982802e-05, -0.6126384396631885, 0.381892907016404, -0.0001800434882523487,1.0,-8791.246581968131, -2849.331945401338, 21669.93876309489, -76.98799170036884, 222.28711214351608, 38.490032948793015,1.0,769
1218.8049999999998,-0.48970473272162973, -2.3640501292171914, -1.117517494115508, -0.9281857038146732, 1.2771556795872976, -0.00981093740232808,0.6452535253339305, 0.24995960377459886, 4.3896882649828025e-05, -0.6126384396631885, 0.38189290701640405, -0.0001800434882523487,1.0,-8791.058813058085, -2849.5012638655135, 21669.899360271644, -76.98766838073877, 222.28595510260442, 38.49101692168057,1.0,769
1218.8129999999999,-0.4878034966696392, -2.3633136245851682, -1.1175173647735788, -0.9299908396916452, 1.2782809249897826, -0.009811467899500492,0.6452535253339305, 0.24995960377459883, 4.3896882649828025e-05, -0.6126384396631886, 0.38189290701640405, -0.0001800434882523487,1.0,-8791.132819204313, -2849.421941532317, 21669.790544474738, -76.98501924113577, 222.2830249689227, 38.486811231358445,1.0,769
1218.821,-0.4858128997599458, -2.362542503165004, -1.1175172293523907, -0.9318808195784216, 1.2794590585616172, -0.009812023330811215,0.6452535253339305, 0.24995960377459883, 4.3896882649828025e-05, -0.6126384396631885, 0.38189290701640405, -0.0001800434882523487,1.0,-8791.28653308178, -2849.456038151743, 21669.92214217226, -76.98776111126332, 222.28474990370313, 38.48489032951667,1.0,769
1218.829,-0.48373294199255135, -2.361736764956697, -1.1175170878519438, -0.9338556434750025, 1.2806900803028014, -0.009812603696260247,0.6452535253339307, 0.24995960377459886, 4.3896882649828025e-05, -0.6126384396631886, 0.38189290701640405, -0.0001800434882523487,1.0,-8791.18611760242, -2849.518870570081, 21669.907586828194, -76.9892620581208, 222.28576000706937, 38.485575803973745,1.0,769
1218.837,-0.48156362336745406, -2.360896409960249, -1.117516940272239, -0.935915311381387, 1.2819739902133354, -0.009813208995847589,0.6452535253339305, 0.2499596037745988, 4.389688264982802e-05, -0.6126384396631885, 0.381892907016404, -0.0001800434882523487,1.0,-8791.155797818297, -2849.634385187982, 21669.867237214035, -76.99122763022027, 222.28638784631812, 38.48557880938222,1.0,769
1218.845,-0.47930494388465483, -2.360021438175659, -1.1175167866132751, -0.9380598232975759, 1.283310788293219, -0.009813839229572352,0.6452535253339305, 0.2499596037745988, 4.389688264982802e-05, -0.6126384396631885, 0.38189290701640405, -0.0001800434882523487,1.0,-8791.326924112613, -2849.321231990595, 21670.140262532263, -76.99010184794275, 222.28964088952927, 38.489098232349846,1.0,769
1218.8529999999998,-0.47695690354415277, -2.3591118496029275, -1.1175166268750525, -0.9402891792235684, 1.2847004745424524, -0.009814494397435425,0.6452535253339307, 0.24995960377459886, 4.389688264982803e-05, -0.6126384396631886, 0.38189290701640405, -0.00018004348825234872,1.0,-8791.039557834933, -2849.8427188129135, 21669.62931815825, -76.99292898538343, 222.2874718083665, 38.48427559989747,1.0,769
1218.8609999999999,-0.47451950234594964, -2.3581676442420543, -1.117516461057571, -0.9426033791593653, 1.2861430489610353, -0.009815174499436807,0.6452535253339305, 0.2499596037745988, 4.389688264982802e-05, -0.6126384396631885, 0.381892907016404, -0.0001800434882523487,1.0,-8791.081514082227, -2849.400214411189, 21670.013175389933, -76.98710213088216, 222.2783628527411, 38.48335774097768,1.0,769
1218.869,-0.4719927402900437, -2.3571888220930393, -1.1175162891608306, -0.9450024231049667, 1.287638511548968, -0.0098158795355765,0.6452535253339305, 0.24995960377459886, 4.3896882649828025e-05, -0.6126384396631886, 0.38189290701640405, -0.0001800434882523487,1.0,-8791.266816239595, -2849.58110720527, 21669.842434348517, -76.99134050248773, 222.28866974767112, 38.48659217398355,1.0,769
1218.877,-0.46937661737643666, -2.3561753831558825, -1.1175161111848322, -0.9474863110603717, 1.2891868623062503, -0.009816609505854501,0.6452535253339305, 0.24995960377459883, 4.389688264982802e-05, -0.6126384396631885, 0.38189290701640405, -0.0001800434882523487,1.0,-8791.326897168385, -2849.7302391661397, 21669.458733837826, -76.98689245397048, 222.2917477684632, 38.486847714839854,1.0,769
1218.885,-0.4666711336051268, -2.3551273274305844, -1.117515927129575, -0.9500550430255821, 1.2907881012328823, -0.009817364410269924,0.6452535253339307, 0.24995960377459886, 4.3896882649828025e-05, -0.6126384396631885, 0.38189290701640405, -0.0001800434882523487,1.0,-8791.506419875854, -2849.5023680137683, 21670.03508170185, -76.9885243365363, 222.28920654527786, 38.48417341404951,1.0,769
1218.893,-0.4638762889761141, -2.354044654917144, -1.1175157369950588, -0.9527086190005951, 1.292442228328864, -0.009818144248824545,0.6452535253339307, 0.24995960377459886, 4.389688264982803e-05, -0.6126384396631885, 0.3818929070164041, -0.00018004348825234872,1.0,-8791.385339311788, -2849.3446407152196, 21670.149325162434, -76.9885418179162, 222.28690568045238, 38.48560845271177,1.0,769
1218.9009999999998,-0.46099208348940035, -2.352927365615562, -1.1175155407812847, -0.9554470389854126, 1.2941492435941955, -0.009818949021516588,0.6452535253339307, 0.24995960377459883, 4.389688264982802e-05, -0.6126384396631885, 0.38189290701640405, -0.0001800434882523487,1.0,-8790.718725923754, -2849.827276012167, 21669.787928409434, -76.9953606619058, 222.282078750118, 38.48370411153522,1.0,769
1218.9089999999999,-0.45801851714498376, -2.3517754595258387, -1.1175153384882517, -0.9582703029800346, 1.2959091470288764, -0.00981977872834694,0.6452535253339307, 0.24995960377459886, 4.389688264982803e-05, -0.6126384396631886, 0.38189290701640405, -0.00018004348825234872,1.0,-8791.012502824178, -2849.844465929279, 21669.73439935754, -76.99418090932329, 222.28319327830127, 38.482504212845214,1.0,769
1218.917,-0.4549555899428661, -2.3505889366479735, -1.1175151301159598, -0.961178410984461, 1.297721938632907, -0.009820633369314713,0.6452535253339305, 0.24995960377459886, 4.3896882649828025e-05, -0.6126384396631886, 0.38189290701640405, -0.0001800434882523487,1.0,-8791.01013102028, -2849.5811851886674, 21669.969625980746, -76.99439120720385, 222.28373740725021, 38.486352994472526,1.0,769
1218.925,-0.4518033018830456, -2.349367796981966, -1.1175149156644082, -0.964171362998691, 1.2995876184062876, -0.009821512944421684,0.6452535253339305, 0.24995960377459883, 4.3896882649828025e-05, -0.6126384396631885, 0.38189290701640405, -0.0001800434882523487,1.0,-8791.491700968967, -2849.7842977225655, 21669.954562952316, -76.9942383351956, 222.28727668781778, 38.48173932957744,1.0,769
1218.933,-0.4485616529655232, -2.3481120405278175, -1.1175146951335995, -0.9672491590227255, 1.3015061863490176, -0.009822417453666077,0.6452535253339305, 0.24995960377459883, 4.3896882649828025e-05, -0.6126384396631885, 0.38189290701640405, -0.0001800434882523487,1.0,-8791.081992761583, -2849.779157527335, 21669.950600411663, -76.99364397942108, 222.2852928042306, 38.4828751220343,1.0,769
1218.941,-0.4452306431902979, -2.346821667285527, -1.117514468523531, -0.9704117990565635, 1.3034776424610974, -0.00982334689704878,0.6452535253339305, 0.2499596037745988, 4.3896882649828025e-05, -0.6126384396631885, 0.38189290701640405, -0.0001800434882523487,1.0,-8791.605256156718, -2849.725922399297, 21670.043733664814, -76.99808352349467, 222.2897537907644, 38.48132526918769,1.0,769
1218.9489999999998,-0.4418102725573716, -2.345496677255095, -1.1175142358342054, -0.973659283100206, 1.3055019867425268, -0.009824301274569791,0.6452535253339307, 0.24995960377459883, 4.3896882649828025e-05, -0.6126384396631886, 0.3818929070164041, -0.0001800434882523487,1.0,-8791.118883216746, -2849.788761008832, 21670.065506088158, -76.99659178001775, 222.29001153247071, 38.48484879976445,1.0,769
1218.9569999999999,-0.43830054106674243, -2.3441370704365214, -1.11751399706562, -0.976991611153653, 1.307579219193306, -0.009825280586229113,0.6452535253339305, 0.24995960377459883, 4.3896882649828025e-05, -0.6126384396631886, 0.381892907016404, -0.00018004348825234872,1.0,-8790.85131573197, -2849.6977410702375, 21669.858281851284, -76.99506765729939, 222.2828182081667, 38.48473787452002,1.0,769
1218.965,-0.4347014487184113, -2.3427428468298057, -1.1175137522177758, -0.9804087832169035, 1.3097093398134347, -0.009826284832025856,0.6452535253339307, 0.24995960377459886, 4.3896882649828025e-05, -0.6126384396631886, 0.3818929070164041, -0.0001800434882523487,1.0,-8790.715111999687, -2849.867314719052, 21669.765322980118, -76.99450226719966, 222.28004611451956, 38.48484507748094,1.0,769
1218.973,-0.43101299551237826, -2.3413140064349482, -1.1175135012906736, -0.9839107992899585, 1.3118923486029133, -0.009827314011960908,0.6452535253339307, 0.24995960377459883, 4.389688264982802e-05, -0.6126384396631885, 0.3818929070164041, -0.00018004348825234872,1.0,-8790.957156795903, -2849.4684292654374, 21669.73847639832, -76.98899928233354, 222.28475495584178, 38.488972190426324,1.0,769
1218.981,-0.42723518144864325, -2.3398505492519495, -1.1175132442843116, -0.987497659372818, 1.3141282455617416, -0.009828368126035159,0.6452535253339307, 0.24995960377459886, 4.389688264982803e-05, -0.6126384396631886, 0.38189290701640405, -0.0001800434882523487,1.0,-8791.034507992057, -2849.916253765621, 21669.632368341583, -76.99251371564819, 222.2833254533216, 38.4891292098375,1.0,769
1218.989,-0.4233680065272063, -2.338352475280809, -1.1175129811986917, -0.991169363465481, 1.3164170306899192, -0.009829447174245942,0.6452535253339305, 0.24995960377459886, 4.3896882649828025e-05, -0.6126384396631886, 0.38189290701640405, -0.00018004348825234872,1.0,-8791.24924943832, -2849.8471971623385, 21669.68117998177, -76.99573376032845, 222.29349343413378, 38.485337354702494,1.0,769
1218.9969999999998,-0.4194114707480665, -2.336819784521526, -1.1175127120338129, -0.9949259115679485, 1.3187587039874469, -0.009830551156595924,0.6452535253339305, 0.24995960377459883, 4.389688264982802e-05, -0.6126384396631886, 0.381892907016404, -0.00018004348825234872,1.0,-8791.260986463443, -2849.6169570019647, 21670.06583233334, -76.99198872290194, 222.28902923007428, 38.48254492252673,1.0,769
1219.0049999999999,-0.41536557411122565, -2.335252476974102, -1.117512436789676, -0.9987673036802196, 1.321153265454324, -0.009831680073084215,0.6452535253339305, 0.24995960377459883, 4.3896882649828025e-05, -0.6126384396631885, 0.38189290701640405, -0.00018004348825234872,1.0,-8791.412982136853, -2849.529661835739, 21669.942608727568, -76.99009278963345, 222.2825459853192, 38.485197075004606,1.0,769
1219.013,-0.4112303166166811, -2.3336505526385363, -1.1175121554662804, -1.0026935398022951, 1.3236007150905509, -0.009832833923709927,0.6452535253339307, 0.24995960377459883, 4.3896882649828025e-05, -0.6126384396631885, 0.38189290701640405, -0.00018004348825234872,1.0,-8791.133132996429, -2849.6380432856313, 21669.911017092643, -76.9957775704107, 222.28831234597772, 38.484139054289756,1.0,769
1219.021,-0.40700569826443544, -2.3320140115148287, -1.1175118680636258, -1.0067046199341751, 1.3261010528961275, -0.00983401270847395,0.6452535253339307, 0.24995960377459883, 4.3896882649828025e-05, -0.6126384396631885, 0.38189290701640405, -0.00018004348825234872,1.0,-8791.158903599317, -2849.3525792874525, 21670.139829830157, -76.98567544091057, 222.28371102835257, 38.48832507939346,1.0,769
1219.029,-0.40269171905448786, -2.3303428536029798, -1.1175115745817124, -1.0108005440758587, 1.3286542788710536, -0.009835216427376281,0.6452535253339305, 0.24995960377459883, 4.3896882649828025e-05, -0.6126384396631886, 0.38189290701640405, -0.00018004348825234872,1.0,-8791.577866936774, -2849.5782030344317, 21670.189944655413, -76.98880923614209, 222.28736729713006, 38.47796547419762,1.0,769
1219.037,-0.39828837898683833, -2.3286370789029887, -1.11751127502054, -1.0149813122273468, 1.3312603930153295, -0.009836445080416922,0.6452535253339307, 0.24995960377459886, 4.389688264982803e-05, -0.6126384396631886, 0.3818929070164041, -0.00018004348825234872,1.0,-8790.83353935578, -2849.934925861986, 21669.901602379683, -76.99866031608232, 222.28723180936964, 38.48749944524411,1.0,769
1219.0449999999998,-0.39379567806148597, -2.326896687414856, -1.1175109693801097, -1.0192469243886393, 1.3339193953289552, -0.009837698667594985,0.6452535253339307, 0.24995960377459883, 4.3896882649828025e-05, -0.6126384396631886, 0.38189290701640405, -0.00018004348825234872,1.0,-8790.889142506645, -2849.4641690627304, 21669.949809873666, -76.98600893466042, 222.28113034345398, 38.48504201752232,1.0,769
1219.0529999999999,-0.38921361627843165, -2.3251216791385816, -1.1175106576604206, -1.0235973805597354, 1.3366312858119305, -0.009838977188912246,0.6452535253339307, 0.24995960377459886, 4.3896882649828025e-05, -0.6126384396631886, 0.3818929070164041, -0.00018004348825234872,1.0,-8791.191018088983, -2849.5399153985663, 21669.854238523963, -76.99057130777604, 222.2905054762224, 38.483037188621864,1.0,769
1219.061,-0.3845421936376754, -2.3233120540741656, -1.1175103398614734, -1.028032680740636, 1.3393960644642553, -0.009840280644366928,0.6452535253339305, 0.24995960377459883, 4.389688264982802e-05, -0.6126384396631885, 0.381892907016404, -0.0001800434882523487,1.0,-8791.169938806814, -2850.10728540139, 21669.76858200826, -77.00047147732326, 222.29167367499298, 38.48350938708123,1.0,769
1219.069,-0.3797814101392172, -2.3214678122216075, -1.1175100159832665, -1.03255282493134, 1.34221373128593, -0.00984160903395992,0.6452535253339305, 0.24995960377459883, 4.3896882649828025e-05, -0.6126384396631886, 0.38189290701640405, -0.00018004348825234872,1.0,-8791.083276149266, -2850.0241719825726, 21669.898847435317, -76.9986414774082, 222.2851408271252, 38.484246945113654,1.0,769
1219.077,-0.37493126578305613, -2.319588953580908, -1.1175096860258016, -1.0371578131318486, 1.3450842862769543, -0.00984296235769122,0.6452535253339305, 0.24995960377459883, 4.3896882649828025e-05, -0.6126384396631886, 0.3818929070164041, -0.00018004348825234872,1.0,-8791.190837008613, -2849.8133141294466, 21670.036883611298, -76.99360645147175, 222.2899827156569, 38.48474597405672,1.0,769
1219.085,-0.36999176056919403, -2.3176754781520668, -1.1175093499890778, -1.0418476453421617, 1.3480077294373283, -0.009844340615559943,0.6452535253339307, 0.24995960377459883, 4.3896882649828025e-05, -0.6126384396631886, 0.38189290701640405, -0.00018004348825234872,1.0,-8791.246734646193, -2849.796091730743, 21670.009366935246, -76.99448995738408, 222.28921035747624, 38.48546033803592,1.0,769
1219.0929999999998,-0.3649628944976291, -2.3157273859350838, -1.1175090078730943, -1.0466223215622792, 1.350984060767052, -0.009845743807567864,0.6452535253339305, 0.24995960377459883, 4.389688264982802e-05, -0.6126384396631885, 0.38189290701640405, -0.0001800434882523487,1.0,-8790.767377208844, -2849.739836556839, 21669.820145194426, -76.99243123055348, 222.28383512073827, 38.48608726340137,1.0,769
1219.1009999999999,-0.3598446675683622, -2.3137446769299594, -1.1175086596778536, -1.0514818417922003, 1.3540132802661253, -0.009847171933713206,0.6452535253339305, 0.24995960377459886, 4.3896882649828025e-05, -0.6126384396631885, 0.3818929070164041, -0.00018004348825234872,1.0,-8791.102819880816, -2849.9323400679014, 21669.806574926373, -76.99467780552769, 222.28331589476164, 38.487043207054654,1.0,769
1219.109,-0.35463707978139336, -2.311727351136693, -1.1175083054033532, -1.0564262060319258, 1.3570953879345482, -0.009848624993996857,0.6452535253339305, 0.2499596037745988, 4.389688264982802e-05, -0.6126384396631885, 0.381892907016404, -0.00018004348825234866,1.0,-8791.346342763653, -2849.9650765610168, 21669.866158018274, -76.99879742569524, 222.29070115483546, 38.4884466609783,1.0,769
1219.117,-0.3493401311367226, -2.3096754085552846, -1.1175079450495948, -1.061455414281455, 1.360230383772321, -0.009850102988418818,0.6452535253339305, 0.2499596037745988, 4.389688264982802e-05, -0.6126384396631885, 0.38189290701640405, -0.0001800434882523487,1.0,-8791.102399244739, -2849.801929223442, 21669.84348848542, -76.99272745527716, 222.28263000113049, 38.48729731525333,1.0,769
1219.125,-0.34395382163434896, -2.307588849185735, -1.1175075786165785, -1.0665694665407877, 1.3634182677794433, -0.009851605916978201,0.6452535253339305, 0.24995960377459883, 4.3896882649828025e-05, -0.6126384396631885, 0.38189290701640405, -0.0001800434882523487,1.0,-8791.205360920809, -2850.051715111422, 21669.657097036645, -76.99541388925837, 222.28404813365353, 38.48060564265137,1.0,769
1219.133,-0.3384781512742743, -2.3054676730280437, -1.1175072061043023, -1.0717683628099257, 1.3666590399559153, -0.009853133779676782,0.6452535253339307, 0.24995960377459883, 4.389688264982803e-05, -0.6126384396631886, 0.38189290701640405, -0.00018004348825234872,1.0,-8791.207848734795, -2849.954065576272, 21669.74042507251, -76.99636656502963, 222.28620611936213, 38.48430448043891,1.0,769
1219.1409999999998,-0.33291312005649676, -2.30331188008221, -1.1175068275127673, -1.0770521030888673, 1.369952700301737, -0.009854686576512783,0.6452535253339305, 0.24995960377459883, 4.389688264982802e-05, -0.6126384396631885, 0.38189290701640405, -0.0001800434882523487,1.0,-8791.52781583096, -2850.0175477809607, 21669.896777222908, -76.9983655446492, 222.28816793586617, 38.482011355070284,1.0,769
1219.149,-0.3272587279810173, -2.301121470348235, -1.1175064428419743, -1.0824206873776134, 1.3732992488169085, -0.009856264307487095,0.6452535253339305, 0.2499596037745988, 4.3896882649828025e-05, -0.6126384396631886, 0.381892907016404, -0.0001800434882523487,1.0,-8790.985707613361, -2849.894840409778, 21669.74109922358, -76.99444172139243, 222.28741516612513, 38.48480314146491,1.0,769
1219.157,-0.3215149750478359, -2.2988964438261186, -1.1175060520919224, -1.087874115676163, 1.3766986855014296, -0.009857866972599716,0.6452535253339307, 0.24995960377459886, 4.3896882649828025e-05, -0.6126384396631886, 0.38189290701640405, -0.00018004348825234872,1.0,-8790.800490820428, -2849.6870703756176, 21669.84241213031, -76.98856106643035, 222.28052281496917, 38.48751687186419,1.0,769
1219.165,-0.31568186125695163, -2.29663680051586, -1.1175056552626117, -1.0934123879845181, 1.3801510103553003, -0.009859494571849758,0.6452535253339307, 0.24995960377459886, 4.389688264982803e-05, -0.6126384396631885, 0.3818929070164041, -0.00018004348825234872,1.0,-8791.245298274825, -2850.1547986298474, 21669.637210293247, -76.99749718062085, 222.27963284276046, 38.48225721173702,1.0,769
1219.173,-0.3097593866083663, -2.2943425404174604, -1.117505252354043, -1.0990355043026758, 1.3836562233785208, -0.009861147105238999,0.6452535253339305, 0.24995960377459883, 4.3896882649828025e-05, -0.6126384396631885, 0.381892907016404, -0.0001800434882523487,1.0,-8790.627103056408, -2849.37249135224, 21669.969546526536, -76.98692457828861, 222.28100713876591, 38.487815806610115,1.0,769
1219.181,-0.3037475511020782, -2.2920136635309185, -1.1175048433662145, -1.1047434646306389, 1.387214324571091, -0.00986282457276566,0.6452535253339307, 0.24995960377459883, 4.3896882649828025e-05, -0.6126384396631885, 0.38189290701640405, -0.0001800434882523487,1.0,-8790.80789178978, -2849.632097616126, 21669.97645387628, -76.99057599706015, 222.27945370939665, 38.48586318829393,1.0,769
1219.1889999999999,-0.2976463547380881, -2.289650169856235, -1.117504428299128, -1.1105362689684046, 1.3908253139330107, -0.009864526974430632,0.6452535253339307, 0.24995960377459883, 4.3896882649828025e-05, -0.6126384396631886, 0.38189290701640405, -0.00018004348825234872,1.0,-8791.26225641233, -2849.980734230083, 21669.731673605136, -76.99568538289529, 222.283851234726, 38.487509422870545,1.0,769
1219.197,-0.29145579751639605, -2.28725205939341, -1.1175040071527835, -1.1164139173159757, 1.3944891914642803, -0.009866254310233913,0.6452535253339305, 0.24995960377459883, 4.3896882649828025e-05, -0.6126384396631885, 0.381892907016404, -0.0001800434882523487,1.0,-8791.287003103305, -2849.7220018568314, 21669.98957575407, -76.99051975610752, 222.2908944903706, 38.48774016891048,1.0,769
1219.205,-0.28517587943700207, -2.284819332142443, -1.1175035799271793, -1.1223764096733504, 1.3982059571648995, -0.009868006580175503,0.6452535253339305, 0.2499596037745988, 4.3896882649828025e-05, -0.6126384396631885, 0.38189290701640405, -0.0001800434882523487,1.0,-8791.379557488912, -2849.8954728131685, 21669.824225617802, -76.99583114140009, 222.28685809346325, 38.480924410020634,1.0,769
1219.213,-0.27880660049990524, -2.2823519881033345, -1.117503146622317, -1.1284237460405295, 1.4019756110348682, -0.009869783784254516,0.6452535253339305, 0.24995960377459886, 4.3896882649828025e-05, -0.6126384396631886, 0.38189290701640405, -0.00018004348825234872,1.0,-8791.46456743226, -2850.0263846124353, 21669.885747028864, -76.99551650888091, 222.28909417180324, 38.48538438880942,1.0,769
1219.221,-0.2723479607051065, -2.2798500272760833, -1.117502707238196, -1.1345559264175131, 1.4057981530741868, -0.009871585922471837,0.6452535253339307, 0.24995960377459883, 4.3896882649828025e-05, -0.6126384396631886, 0.3818929070164041, -0.00018004348825234872,1.0,-8790.639863603881, -2849.769114880928, 21669.966642669155, -76.99625724596487, 222.28317814106578, 38.48742702185433,1.0,769
1219.229,-0.26579996005260575, -2.277313449660692, -1.117502261774816, -1.1407729508043003, 1.409673583282855, -0.009873412994827468,0.6452535253339305, 0.24995960377459883, 4.3896882649828025e-05, -0.6126384396631886, 0.38189290701640405, -0.0001800434882523487,1.0,-8791.432075138104, -2850.3571243383612, 21669.766215897926, -77.00022534133848, 222.28650094362388, 38.48828204785184,1.0,769
1219.2369999999999,-0.2591625985424031, -2.2747422552571575, -1.1175018102321772, -1.147074819200892, 1.4136019016608727, -0.00987526500132141,0.6452535253339305, 0.24995960377459883, 4.3896882649828025e-05, -0.6126384396631885, 0.38189290701640405, -0.0001800434882523487,1.0,-8790.70006978452, -2850.1357575819484, 21669.883292657214, -76.99676004419965, 222.28309681247993, 38.48456849501534,1.0,769
1219.245,-0.2524358761744985, -2.2721364440654828, -1.1175013526102804, -1.1534615316072871, 1.4175831082082404, -0.00987714194195366,0.6452535253339307, 0.24995960377459886, 4.3896882649828025e-05, -0.6126384396631885, 0.38189290701640405, -0.00018004348825234872,1.0,-8791.224909079112, -2850.1386759851566, 21670.067252632085, -76.99936722158324, 222.2904782866783, 38.48613695425743,1.0,769
1219.253,-0.2456197929488919, -2.2694960160856654, -1.1175008889091247, -1.1599330880234868, 1.4216172029249576, -0.009879043816723332,0.6452535253339305, 0.2499596037745988, 4.3896882649828025e-05, -0.6126384396631885, 0.38189290701640405, -0.0001800434882523487,1.0,-8790.617130225473, -2849.7442861094787, 21670.005488000897, -76.99405328338645, 222.27552753211177, 38.48777854215075,1.0,769
1219.261,-0.2387543652634525, -2.266836472950109, -1.1175004218510436, -1.1664514947267302, 1.4256805021302528, -0.009880959459955818,0.6452535253339307, 0.2499596037745989, 4.3896882649828025e-05, -0.6126384396631885, 0.38189290701640394, -0.0001800434882523487,1.0,-8791.511016507215, -2849.8647919633286, 21670.027429547434, -76.99600477113353, 222.28365304237292, 38.48525089114102,1.0,769
1219.269,-0.23196851883289238, -2.2642077581605538, -1.11749996020691, -1.1728943427016576, 1.4296967012181885, -0.009882852897828087,0.6452535253339305, 0.24995960377459883, 4.3896882649828025e-05, -0.6126384396631885, 0.38189290701640394, -0.0001800434882523487,1.0,-8791.70154976119, -2850.254054112438, 21669.52939687034, -76.99901516666193, 222.2878684025285, 38.476321339064555,1.0,769
1219.277,-0.2252720332600342, -2.2616136601591403, -1.1174995046420353, -1.1792523466667806, 1.4336600121367746, -0.009884721401562047,0.6452535253339307, 0.2499596037745989, 4.389688264982803e-05, -0.6126384396631886, 0.381892907016404, -0.00018004348825234872,1.0,-8791.451354505234, -2849.5291381276747, 21669.963671731286, -76.98697241957615, 222.29103614047472, 38.48631521661923,1.0,769
1219.2849999999999,-0.21866490854487797, -2.2590541789458687, -1.1174990551564195, -1.185525506622099, 1.437570434886011, -0.009886564971158585,0.6452535253339307, 0.24995960377459886, 4.3896882649828025e-05, -0.6126384396631886, 0.38189290701640394, -0.0001800434882523487,1.0,-8791.251031930886, -2849.9344741948034, 21669.785275080365, -76.99427848831644, 222.2863807201461, 38.48621871275347,1.0,769
1219.293,-0.21214714468742457, -2.256529314520737, -1.1174986117500625, -1.191713822567614, 1.4414279694658976, -0.009888383606615925,0.6452535253339305, 0.24995960377459886, 4.3896882649828025e-05, -0.6126384396631885, 0.38189290701640394, -0.00018004348825234866,1.0,-8791.393273979014, -2850.5000063553616, 21669.75330028552, -77.00746525766175, 222.2864658622007, 38.48488424939458,1.0,769
1219.301,-0.20571874168767224, -2.254039066883749, -1.1174981744229635, -1.1978172945033254, 1.4452326158764348, -0.009890177307935843,0.6452535253339307, 0.24995960377459886, 4.389688264982803e-05, -0.6126384396631886, 0.38189290701640394, -0.00018004348825234872,1.0,-8791.08081734878, -2849.7874625001195, 21669.67923395476, -76.99412042486622, 222.28836026042887, 38.47998893193716,1.0,769
1219.309,-0.19937969954562274, -2.2515834360349025, -1.1174977431751234, -1.2038359224292314, 1.4489843741176225, -0.009891946075117453,0.6452535253339305, 0.24995960377459883, 4.3896882649828025e-05, -0.6126384396631885, 0.38189290701640394, -0.0001800434882523487,1.0,-8790.868137193449, -2849.870785517387, 21669.751498534104, -76.99638295197573, 222.28272258669836, 38.48723376640598,1.0,769
1219.317,-0.19313001826127518, -2.249162421974197, -1.1174973180065422, -1.2097697063453339, 1.4526832441894602, -0.009893689908160752,0.6452535253339307, 0.24995960377459883, 4.389688264982803e-05, -0.6126384396631885, 0.38189290701640394, -0.0001800434882523487,1.0,-8790.671677671278, -2849.79650046768, 21669.654105940805, -76.99417893058379, 222.2782844067251, 38.48933311800022,1.0,769
1219.325,-0.18696969783463047, -2.2467760247016333, -1.1174968989172198, -1.2156186462516319, 1.456329226091948, -0.00989540880706663,0.6452535253339305, 0.24995960377459883, 4.389688264982803e-05, -0.6126384396631885, 0.38189290701640394, -0.00018004348825234866,1.0,-8791.313913313115, -2849.6821729496105, 21669.86430856903, -76.99026668738563, 222.2900131934237, 38.48537518488598,1.0,769
1219.3329999999999,-0.1808987382656868, -2.244424244217212, -1.1174964859071554, -1.2213827421481263, 1.4599223198250866, -0.00989710277183331,0.6452535253339305, 0.24995960377459886, 4.389688264982802e-05, -0.6126384396631884, 0.3818929070164039, -0.0001800434882523487,1.0,-8791.21774725191, -2850.2864907594276, 21669.781891970873, -77.00166277163504, 222.28228686318494, 38.489876835013234,1.0,769
1219.341,-0.174917139554446, -2.242107080520931, -1.1174960789763508, -1.2270619940348162, 1.4634625253888751, -0.00989877180246257,0.6452535253339307, 0.24995960377459886, 4.3896882649828025e-05, -0.6126384396631885, 0.38189290701640394, -0.00018004348825234872,1.0,-8791.077139780082, -2850.2050390229406, 21669.906230656856, -77.00551280005456, 222.29039314452478, 38.486623832961925,1.0,769
1219.349,-0.16902490170090712, -2.2398245336127935, -1.1174956781248042, -1.2326564019117026, 1.466949842783314, -0.009900415898953518,0.6452535253339307, 0.24995960377459886, 4.3896882649828025e-05, -0.6126384396631885, 0.381892907016404, -0.0001800434882523487,1.0,-8791.239371263347, -2850.217694339274, 21669.573104792926, -77.00140732627, 222.28726999687206, 38.48567702836294,1.0,769
1219.357,-0.1632220247050702, -2.237576603492797, -1.1174952833525156, -1.2381659657787836, 1.4703842720084035, -0.009902035061306158,0.6452535253339308, 0.2499596037745989, 4.389688264982803e-05, -0.6126384396631886, 0.381892907016404, -0.00018004348825234872,1.0,-8791.19573354517, -2850.441948726808, 21669.760158354402, -77.00381287130088, 222.29168215522026, 38.48981469509445,1.0,769
1219.365,-0.1575085085669352, -2.235363290160942, -1.1174948946594867, -1.243590685636062, 1.4737658130641433, -0.009903629289521376,0.6452535253339307, 0.24995960377459883, 4.389688264982802e-05, -0.6126384396631885, 0.3818929070164039, -0.00018004348825234864,1.0,-8791.517077773247, -2849.985415661201, 21669.64691248022, -76.99663710079733, 222.28996785792566, 38.49221848596838,1.0,769
1219.373,-0.15188435328650218, -2.2331845936172288, -1.1174945120457158, -1.2489305614835349, 1.4770944659505332, -0.009905198583597397,0.6452535253339305, 0.24995960377459883, 4.389688264982803e-05, -0.6126384396631885, 0.38189290701640394, -0.00018004348825234872,1.0,-8790.916261454176, -2850.0841053911245, 21669.77187568199, -76.99732733565247, 222.28064817624562, 38.48422366699373,1.0,769
1219.3809999999999,-0.146349558863772, -2.2310405138616574, -1.1174941355112038, -1.2541855933212043, 1.4803702306675735, -0.009906742943535995,0.6452535253339307, 0.24995960377459892, 4.389688264982804e-05, -0.6126384396631886, 0.38189290701640394, -0.00018004348825234872,1.0,-8791.01508909838, -2850.0505976120785, 21669.774772570032, -77.0002174634115, 222.2829321828006, 38.48931187579282,1.0,769
1219.389,-0.14090412529874285, -2.2289310508942277, -1.1174937650559507, -1.25935578114907, 1.4835931072152642, -0.009908262369336285,0.6452535253339307, 0.24995960377459886, 4.389688264982804e-05, -0.6126384396631886, 0.3818929070164039, -0.00018004348825234872,1.0,-8791.551723332808, -2849.922124712015, 21669.801770868693, -76.9945464305998, 222.28979063995303, 38.48195909087306,1.0,769
1219.397,-0.13554805259141656, -2.22685620471494, -1.1174934006799564, -1.2644411249671306, 1.486763095593605, -0.009909756860998264,0.6452535253339307, 0.24995960377459886, 4.3896882649828025e-05, -0.6126384396631885, 0.381892907016404, -0.0001800434882523487,1.0,-8790.988105779265, -2850.4165966339824, 21669.86302376073, -77.0062195024588, 222.282915696487, 38.484849730588934,1.0,769
1219.405,-0.1302813407417922, -2.224815975323793, -1.1174930423832201, -1.2694416247753875, 1.4898801958025962, -0.009911226418522823,0.6452535253339307, 0.24995960377459883, 4.389688264982802e-05, -0.6126384396631885, 0.38189290701640394, -0.00018004348825234866,1.0,-8791.354336617147, -2850.158612567423, 21669.934217676073, -77.00186969245891, 222.292522390673, 38.48933090923475,1.0,769
1219.413,-0.1251039897498707, -2.2228103627207894, -1.1174926901657427, -1.27435728057384, 1.4929444078422378, -0.009912671041908183,0.6452535253339308, 0.24995960377459886, 4.3896882649828025e-05, -0.6126384396631886, 0.38189290701640394, -0.00018004348825234872,1.0,-8791.481829333328, -2850.2955037258353, 21669.88695584274, -77.00158636114509, 222.29285724523868, 38.486851965098936,1.0,769
1219.421,-0.12001599961565024, -2.220839366905926, -1.1174923440275242, -1.2791880923624888, 1.4959557317125298, -0.009914090731156122,0.6452535253339305, 0.2499596037745989, 4.389688264982803e-05, -0.6126384396631886, 0.38189290701640394, -0.00018004348825234872,1.0,-8791.353324879465, -2850.561538087206, 21669.61226982355, -77.00691664941652, 222.29034312410892, 38.48713222001035,1.0,769
1219.4289999999999,-0.11501737033913262, -2.218902987879204, -1.1174920039685645, -1.283934060141334, 1.498914167413472, -0.009915485486265752,0.6452535253339307, 0.2499596037745989, 4.389688264982803e-05, -0.6126384396631885, 0.3818929070164039, -0.0001800434882523487,1.0,-8791.168262376072, -2850.3031282188385, 21669.806521858583, -76.99989218596886, 222.28547455060323, 38.48290017789762,1.0,769
1219.437,-0.11010810192031695, -2.217001225640625, -1.1174916699888628, -1.288595183910374, 1.5018197149450645, -0.009916855307237071,0.6452535253339307, 0.2499596037745989, 4.389688264982803e-05, -0.6126384396631885, 0.381892907016404, -0.0001800434882523487,1.0,-8791.282083095302, -2850.2984786902243, 21669.884654858844, -77.00224246808017, 222.2902134157814, 38.485170826039734,1.0,769
1219.445,-0.10528819435920322, -2.2151340801901878, -1.11749134208842, -1.2931714636696103, 1.5046723743073076, -0.009918200194070081,0.6452535253339308, 0.24995960377459886, 4.389688264982804e-05, -0.6126384396631886, 0.381892907016404, -0.00018004348825234875,1.0,-8791.37772564611, -2850.1677548170437, 21669.886575409182, -76.9995844439662, 222.2859428364062, 38.48571747857821,1.0,769
1219.453,-0.10055764765579145, -2.2133015515278913, -1.1174910202672361, -1.2976628994190422, 1.5074721455002007, -0.00991952014676567,0.6452535253339307, 0.24995960377459886, 4.389688264982801e-05, -0.6126384396631885, 0.3818929070164039, -0.0001800434882523487,1.0,-8791.603235324845, -2850.2523003925608, 21669.887410529496, -76.99853991591633, 222.28988427146282, 38.483029710540706,1.0,769
1219.461,-0.09591646181008162, -2.2115036396537366, -1.117490704525311, -1.3020694911586705, 1.510219028523744, -0.009920815165322061,0.6452535253339308, 0.24995960377459883, 4.389688264982802e-05, -0.6126384396631886, 0.3818929070164039, -0.0001800434882523487,1.0,-8790.786187889944, -2850.289130816629, 21669.824391397495, -77.00529709341876, 222.2868380848126, 38.490113196236734,1.0,769
1219.469,-0.09136463682207463, -2.2097403445677246, -1.117490394862644, -1.3063912388884944, 1.512913023377938, -0.00992208524974103,0.6452535253339308, 0.24995960377459894, 4.389688264982803e-05, -0.6126384396631886, 0.38189290701640394, -0.00018004348825234872,1.0,-8791.333013026802, -2850.1077525753954, 21669.76819219456, -76.99998515283005, 222.28741626720307, 38.48617011045505,1.0,769
1219.4769999999999,-0.08690217269176959, -2.2080116662698535, -1.1174900912792358, -1.3106281426085138, 1.5155541300627822, -0.00992333040002169,0.6452535253339307, 0.24995960377459886, 4.3896882649828025e-05, -0.6126384396631885, 0.381892907016404, -0.00018004348825234866,1.0,-8791.375075510954, -2850.2599561079332, 21669.72404794068, -77.00377762087211, 222.29423673912527, 38.4864188887334,1.0,769
1219.485,-0.08252906941916649, -2.206317604760124, -1.1174897937750865, -1.3147802023187296, 1.5181423485782766, -0.009924550616164929,0.6452535253339307, 0.24995960377459886, 4.3896882649828025e-05, -0.6126384396631885, 0.38189290701640394, -0.00018004348825234872,1.0,-8791.043999121182, -2850.2104217741344, 21669.84059251766, -77.00231385742592, 222.288912083365, 38.48567342088066,1.0,769
1219.493,-0.07824532700426534, -2.2046581600385364, -1.117489502350196, -1.318847418019141, 1.5206776789244214, -0.00992574589816897,0.6452535253339307, 0.24995960377459886, 4.3896882649828025e-05, -0.6126384396631885, 0.3818929070164039, -0.0001800434882523487,1.0,-8791.138000893454, -2850.238398043033, 21669.64381026883, -76.99782394185365, 222.29495202556285, 38.48518226039539,1.0,769
1219.501,-0.07405094544706614, -2.2030333321050906, -1.1174892170045636, -1.3228297897097478, 1.5231601211012167, -0.009926916246035589,0.6452535253339307, 0.2499596037745988, 4.3896882649828025e-05, -0.6126384396631885, 0.3818929070164038, -0.00018004348825234864,1.0,-8791.132701440332, -2850.157108158679, 21669.748380123772, -76.9980324518277, 222.28815839801672, 38.48937972239793,1.0,769
1219.509,-0.06994592474756978, -2.2014431209597873, -1.117488937738191, -1.3267273173905512, 1.525589675108662, -0.009928061659763898,0.6452535253339307, 0.24995960377459894, 4.389688264982804e-05, -0.6126384396631885, 0.3818929070164039, -0.0001800434882523487,1.0,-8791.097979184007, -2850.1823147392433, 21669.695351619746, -76.99830647937617, 222.28203534031206, 38.488733448063954,1.0,769
1219.517,-0.06593026490577447, -2.199887526602625, -1.1174886645510762, -1.33054000106155, 1.5279663409467577, -0.009929182139353898,0.6452535253339307, 0.24995960377459892, 4.389688264982803e-05, -0.6126384396631886, 0.3818929070164039, -0.00018004348825234877,1.0,-8790.971566463499, -2849.963796467465, 21669.763926058033, -76.99834698202909, 222.2890889878064, 38.485125488357454,1.0,769
1219.5249999999999,-0.062003965921682, -2.1983665490336044, -1.1174883974432195, -1.3342678407227453, 1.530290118615504, -0.009930277684805588,0.6452535253339307, 0.2499596037745989, 4.389688264982802e-05, -0.6126384396631885, 0.38189290701640394, -0.00018004348825234872,1.0,-8790.805454933017, -2849.9740486055543, 21669.912047763464, -76.99501546062851, 222.28161510794286, 38.48708122863522,1.0,769
1219.533,-0.05816702779529148, -2.1968801882527256, -1.1174881364146225, -1.337910836374136, 1.5325610081149004, -0.00993134829611897,0.6452535253339307, 0.24995960377459886, 4.3896882649828025e-05, -0.6126384396631886, 0.38189290701640394, -0.0001800434882523487,1.0,-8791.220125498956, -2850.2323468060285, 21670.046589025274, -77.00268990976045, 222.2859491461212, 38.49449952384228,1.0,769
1219.541,-0.054419450526603796, -2.1954284442599876, -1.1174878814652836, -1.3414689880157233, 1.534779009444947, -0.009932393973294928,0.6452535253339307, 0.24995960377459886, 4.3896882649828025e-05, -0.6126384396631886, 0.3818929070164039, -0.00018004348825234866,1.0,-8791.220680520628, -2850.303258435054, 21669.874107966996, -77.00278332175591, 222.29047610243896, 38.487339412690716,1.0,769
1219.549,-0.05076123411561717, -2.1940113170553923, -1.1174876325952035, -1.3449422956475052, 1.536944122605644, -0.009933414716332578,0.6452535253339309, 0.2499596037745989, 4.389688264982804e-05, -0.6126384396631885, 0.3818929070164039, -0.0001800434882523487,1.0,-8791.198645753399, -2850.0650997134508, 21669.83165911567, -76.99501200717887, 222.29147599174797, 38.485898979326606,1.0,769
1219.557,-0.04719237856233249, -2.192628806638938, -1.1174873898043822, -1.3483307592694835, 1.5390563475969916, -0.009934410525231918,0.6452535253339307, 0.24995960377459894, 4.3896882649828045e-05, -0.6126384396631886, 0.3818929070164039, -0.00018004348825234877,1.0,-8791.44135946493, -2850.1905913358287, 21669.96379976861, -77.00268706263705, 222.29180357087546, 38.48508023429494,1.0,769
1219.565,-0.04371288386675065, -2.191280913010626, -1.1174871530928199, -1.3516343788816574, 1.541115684418989, -0.009935381399992949,0.6452535253339307, 0.24995960377459886, 4.3896882649828045e-05, -0.6126384396631886, 0.381892907016404, -0.00018004348825234872,1.0,-8791.462205688982, -2850.021064422028, 21669.975152978903, -76.99677134301783, 222.2922972097549, 38.487494998985284,1.0,769
1219.5729999999999,-0.04032275002887076, -2.189967636170456, -1.1174869224605155, -1.3548531544840277, 1.5431221330716371, -0.009936327340616558,0.6452535253339305, 0.24995960377459892, 4.389688264982803e-05, -0.6126384396631885, 0.3818929070164039, -0.00018004348825234866,1.0,-8791.314629196522, -2850.2514853715884, 21669.932232576684, -77.00164709572223, 222.29275962775876, 38.48995815563049,1.0,769
1219.581,-0.03702202612005756, -2.1886889940174346, -1.117486697878462, -1.3579869610147606, 1.5450756515751984, -0.009937248318727221,0.6452848623484795, 0.2499727657230986, 4.392880322668362e-05, -0.6125959270802515, 0.3818995399338137, -0.0001800387115940024,1.0,-8791.235901563427, -2849.9708440164814, 21669.96451703294, -76.99735756183858, 222.284031989146, 38.48420849911582,1.0,769
1219.589,-0.033811327752571785, -2.187445209828537, -1.1174864789457333, -1.3610341397578871, 1.5469756984815004, -0.009938143961572443,0.6454658454739642, 0.2500487821987816, 4.411319274049516e-05, -0.6123503132510547, 0.3819378331074956, -0.0001800111082003928,1.0,-8791.477933626898, -2849.776482488757, 21670.07107398136, -76.99590714007007, 222.2930054227091, 38.486449596823576,1.0,769
1219.597,-0.030691492341291315, -2.1862365823861696, -1.1174862649730315, -1.363992085224405, 1.5488214797000481, -0.009939013696772747,0.6458276129371778, 0.25020073799371234, 4.448195388534467e-05, -0.611858907427912, 0.3820143035458733, -0.00017995584792446023,1.0,-8791.578562421912, -2850.147622152851, 21669.91761334581, -77.00154700902559, 222.29560302929627, 38.48635766701659,1.0,769
1219.605,-0.0276631292469407, -2.1850633207310786, -1.1174860552148296, -1.36685830968264, 1.5506123198306843, -0.00993985699710187,0.6463950826153906, 0.25043911343220165, 4.5060890852753943e-05, -0.6110868809406103, 0.38213405657294086, -0.00017986894089848715,1.0,-8791.040993952078, -2850.5604391808365, 21669.778967178805, -77.00648703811993, 222.28781198616662, 38.48475406700226,1.0,769
1219.613,-0.02472661830181533, -2.1839255438211165, -1.1174858488759671, -1.369630460803231, 1.5523476657143638, -0.009940673383940002,0.6471961879149732, 0.25077566714025085, 4.587922154684843e-05, -0.6099944844368692, 0.3823026989988921, -0.00017974578236157904,1.0,-8791.483793258665, -2850.391034426254, 21669.785661386282, -77.0027258096712, 222.29112186655016, 38.488479784633256,1.0,769
1219.6209999999999,-0.0218821167082206, -2.182823283256589, -1.1174856451136668, -1.372306318856202, 1.5540270829680278, -0.009941462426048986,0.6482622766495755, 0.25122360842513386, 4.6970125051803506e-05, -0.608536164305223, 0.38252636709135884, -0.00017958102778868016,1.0,-8791.091433145473, -2850.5187558685802, 21669.789423107068, -77.00601775991436, 222.28405503212133, 38.48425987649054,1.0,769
1219.629,-0.0191295659369084, -2.181756486005601, -1.1174854430395467, -1.374883793908043, 1.5556502525194769, -0.009942223738344858,0.6496285586552801, 0.2517977918156253, 4.8371387990691206e-05, -0.6066594935101902, 0.3828117451664332, -0.00017936843823844153,1.0,-8791.180800119962, -2850.30246323792, 21669.925082425925, -77.00721632097344, 222.28407536280457, 38.48689815579729,1.0,769
1219.637,-0.016468698625514477, -2.180725017129406, -1.1174852417216314, -1.3773609230187764, 1.5572169671422433, -0.009942956980680151,0.6513346048171019, 0.25251493547435166, 5.012616963543032e-05, -0.6043038716418326, 0.38316606851225227, -0.00017910068773478719,1.0,-8791.273816835337, -2850.02095406214, 21670.011376188577, -77.00128089532487, 222.2868060561741, 38.48588105195043,1.0,769
1219.645,-0.013899045477000271, -2.1797286625077534, -1.1174850401863718, -1.379735867439038, 1.5587271279904658, -0.00994366185661466,0.6534248978864734, 0.25339386444375983, 5.228390951929726e-05, -0.6013989369831825, 0.3835971013808644, -0.00017876912201947965,1.0,-8791.295150741604, -2850.523692685417, 21669.72580830395, -77.00566089736569, 222.29010756811982, 38.48846992759289,1.0,769
1219.653,-0.011419942158089391, -2.1787671315642383, -1.1174848374206512, -1.3820069098071475, 1.560180741133761, -0.009944338112195084,0.6559494313273286, 0.25445577824343585, 5.4901405705703355e-05, -0.5978626181031765, 0.3841130764592777, -0.00017836345473125142,1.0,-8791.31210608116, -2850.152132221876, 21669.860375597553, -77.00021057138244, 222.28697597027968, 38.48731640213913,1.0,769
1219.661,-0.009030536197702332, -2.177840059991648, -1.1174846323738077, -1.3841724513461848, 1.5615779140920985, -0.009944985534730222,0.6589643453271091, 0.2557245397648479, 5.8044096605767414e-05, -0.5935987330722888, 0.38472257593920695, -0.00017787138271547337,1.0,-8791.069735090294, -2849.9381118290803, 21670.188924630354, -77.00348473072273, 222.28445786078976, 38.482049942134665,1.0,769
1219.6689999999999,-0.006729793885400959, -2.17694701247731, -1.11748442395964, -1.3862310090610634, 1.5629188523706734, -0.009945603951564408,0.6625325773058313, 0.25722697802429223, 6.178758388318488e-05, -0.5884940199726689, 0.3854343251400455, -0.00017727809640174407,1.0,-8791.235139746708, -2850.374416155306, 21669.62891736681, -77.00091498715, 222.28740739152323, 38.48370775498026,1.0,769
1219.677,-0.004516507169821438, -2.176087485428442, -1.117484211058425, -1.3881812129356037, 1.564203855994779, -0.009946193228859812,0.6667244850267466, 0.25899319005594446, 6.62194376385867e-05, -0.5824144520796987, 0.38625685627406714, -0.00017656565356908094,1.0,-8791.027170120198, -2850.3729906753906, 21669.77735619377, -77.00355623384905, 222.2837151155589, 38.49168252770272,1.0,769
1219.685,-0.0023893005571169468, -2.1752609096974966, -1.1174839925189346, -1.3900218031296108, 1.5654333160446816, -0.009946753270365427,0.6716183695100425, 0.26105681535967307, 7.144132598341005e-05, -0.5752006544251799, 0.3871979804455996, -0.0001757121748250891,1.0,-8790.929175683625, -2850.266374427836, 21669.778670013562, -77.00285067751153, 222.28203272869905, 38.49050213658927,1.0,769
1219.693,-0.0003466380093906096, -2.1744666533075128, -1.1174837671604436, -1.391751627175947, 1.5666077111904915, -0.009947284016198488,0.677300775792399, 0.26345523721649555, 7.757150606147038e-05, -0.5666621959209189, 0.3882639775643371, -0.00017469080618390004,1.0,-8791.403277614665, -2850.2375692452288, 21669.914442841073, -77.00335761517621, 222.28842471663967, 38.48646166086829,1.0,769
1219.701,0.0016131701568621454, -2.173704024177461, -1.1174835337747435, -1.3933696371776048, 1.5677276042270383, -0.009947785441618784,0.6838663720353965, 0.2662296347497491, 8.474769672819808e-05, -0.5565704856767881, 0.38945837258969557, -0.00017346837774476955,1.0,-8791.007374781344, -2850.208519947514, 21669.810828843314, -77.00024233474153, 222.28332723334682, 38.485908675829336,1.0,769
1219.7089999999998,0.003491960372315618, -2.1729722728475958, -1.1174832911281651, -1.3948748870047831, 1.568793638608743, -0.009948257555803863,0.6914170862099346, 0.2694247615772621, 9.313031417969186e-05, -0.5446499613987427, 0.39078010701138605, -0.00017200366755328774,1.0,-8790.85870325693, -2850.0615018261224, 21669.81860279083, -76.99871147565531, 222.28127384717675, 38.48808165061507,1.0,769
1219.7169999999999,0.005291708916377882, -2.1722705952047967, -1.1174830379635807, -1.396266529491962, 1.5698065349844927, -0.009948700400627786,0.7000599918228798, 0.273088251899779, 0.00010290597307222248, -0.5305672395407649, 0.39222082973283323, -0.00017024515728291122,1.0,-8791.046271988103, -2850.102488376506, 21669.720740187495, -76.99987043818962, 222.283623315473, 38.48327286382593,1.0,769
1219.725,0.0070145250187509806, -2.1715981352079243, -1.1174827730024264, -1.3975438136349743, 1.5707670877325113, -0.00994911404943366,0.7099031475346665, 0.2772691394068198, 0.00011429100701534147, -0.5139179380861361, 0.39376091354623055, -0.0001681281450231615,1.0,-8790.889091737932, -2850.017239172802, 21669.887317085235, -76.9965331540908, 222.2802226872488, 38.49145406239654,1.0,769
1219.733,0.00866264396099306, -2.170953987613162, -1.1174824949467101, -1.3987060817880845, 1.5716761614952353, -0.00994949860581329,0.7210481672870955, 0.28201510029046806, 0.00012753449424250313, -0.49421105591956954, 0.39536364550640685, -0.00016557106942650582,1.0,-8790.979126546665, -2850.3326815635746, 21669.825792132455, -77.00387515418208, 222.28466008676213, 38.49090222241182,1.0,769
1219.741,0.010238420178080118, -2.1703372006993664, -1.11748220248103, -1.3997527668610585, 1.572534687714186, -0.009949854202382369,0.7335776795867712, 0.28736767772238886, 0.00014291980855202831, -0.4708512338125355, 0.3969668432084363, -0.00016247091933031536,1.0,-8790.92637642294, -2850.2641434858097, 21669.53912514181, -76.99982446634215, 222.28173644309283, 38.48646061611876,1.0,769
1219.749,0.011744320359967912, -2.169746778993419, -1.1174818942745866, -1.4006833895162414, 1.5733436611648421, -0.009950180999553027,0.7475349947198421, 0.2933543950359757, 0.0001607629370873683, -0.44312017466892667, 0.3984709404134531, -0.0001586976960479278,1.0,-8791.162626193109, -2850.102983357465, 21669.903567413934, -76.99976068130485, 222.2857864602521, 38.48781782579178,1.0,769
1219.7569999999998,0.013182916553153581, -2.1691816859955653, -1.1174815689831936, -1.4014975553656308, 1.5741041364915151, -0.009950479184317018,0.7628922818175636, 0.2999762307765935, 0.00018140456721078753, -0.41016037390473836, 0.39972245163339454, -0.00015408814289603672,1.0,-8790.878712831503, -2850.163362801585, 21669.850849706534, -76.99945269731867, 222.2829350073004, 38.48571081618297,1.0,769
1219.7649999999999,0.014556879262237588, -2.168640846904773, -1.1174812252512965, -1.4021949521679486, 1.5748172247422196, -0.009950748969016487,0.7795026320568906, 0.30718850947855025, 0.00020519111258891, -0.37096772387497756, 0.40049188501899324, -0.00014843950123916082,1.0,-8791.01431456666, -2850.333605562073, 21669.608447089697, -77.00283857461179, 222.28373764735733, 38.48213301511558,1.0,769
1219.773,0.015868970551485367, -2.168123151344073, -1.1174808617139833, -1.402775347025722, 1.5754840899035494, -0.009950990590119169,0.7970313433698111, 0.31487316481978156, 0.00023243747568034255, -0.3244052672496016, 0.4004460966126717, -0.00014150511668220241,1.0,-8791.095419911388, -2850.321133430968, 21669.890962367866, -77.0055355980204, 222.28216095022776, 38.486163107814264,1.0,769
1219.781,0.017122037146389296, -2.1676274560859117, -1.117480476998999, -1.4032385835823495, 1.5761059454355486, -0.009951204307001582,0.8148644359336122, 0.32280128412772296, 0.000263362093293341, -0.26925881391118944, 0.3991176344134832, -0.00013299556916817956,1.0,-8791.016971969226, -2850.0031915627833, 21670.171095425303, -76.99601472251723, 222.28096373606644, 38.485157646939456,1.0,769
1219.789,0.018319003535230242, -2.167152587777495, -1.1174800697287601, -1.4035845792191823, 1.5766840508065865, -0.009951390400716242,0.8320012190457495, 0.33058823576342805, 0.0002979848054490986, -0.20436497170704862, 0.39587907799820715, -0.00012259173433597104,1.0,-8790.783105253919, -2850.182849990124, 21669.67956027158, -76.99993204073255, 222.28396334498586, 38.49210332479299,1.0,769
1219.797,0.019462865070639587, -2.1666973456661403, -1.1174796385223686, -1.4038133222525957, 1.5772197080282293, -0.009951549172774854,0.8469573522405007, 0.33765147476003277, 0.00033598503174751734, -0.12884716458853285, 0.38993974954380345, -0.00010997911279624923,1.0,-8791.29520684341, -2850.3700097052288, 21669.774473014102, -77.00499235769863, 222.29136156232312, 38.486410768386094,1.0,769
1219.8049999999998,0.020556681071160862, -2.1662605043246224, -1.1174791819976226, -1.4039248691310613, 1.577714258190115, -0.00995168094391996,0.85773738448066, 0.34319437822278837, 0.00037653889879395364, -0.04248014696165123, 0.38039385424136485, -9.49132447578384e-05,1.0,-8790.955061114055, -2850.152975106519, 21669.965526597676, -77.00209199703033, 222.2842047443482, 38.490593256951826,1.0,769
1219.8129999999999,0.021603567922811567, -2.165840816376522, -1.1174786987730343, -1.4039193416322275, 1.5781690779948254, -0.009951786052905476,0.8619699189280853, 0.3462539862832449, 0.0004181938632238848, 0.053855199205765966, 0.3663542991426759, -7.731850461600741e-05,1.0,-8790.935147303837, -2850.0656162419227, 21669.861058215705, -76.99830798079793, 222.28317197051587, 38.49091267425848,1.0,769
1219.821,0.02260669218064501, -2.165437015221575, -1.1174781874698407, -1.4037969240599875, 1.57858557629276, -0.009951864855267445,0.8572950541189452, 0.34585072445848053, 0.0004588844253662226, 0.15777818484088868, 0.34718625706277334, -5.740103887718396e-05,1.0,-8791.082961048452, -2850.1776153011306, 21669.893784988522, -77.00083396225469, 222.2859989361914, 38.48790493314155,1.0,769
1219.829,0.02356926367031202, -2.1650478177610175, -1.117477646714021, -1.4035578604415573, 1.5789651906170092, -0.009951917722104575,0.8419939689167851, 0.34123981792653435, 0.0004961941585814453, 0.2653423142049581, 0.3227921185169614, -3.5724947550001494e-05,1.0,-8790.952233063275, -2850.2503394016685, 21669.867184149487, -76.99936840889927, 222.28474289530737, 38.48815734319754,1.0,769
1219.837,0.024494528589622838, -2.164671927122936, -1.1174770751383054, -1.4032024517245496, 1.5793093837182273, -0.00995194503885255,0.8156504701839655, 0.3321835520135308, 0.000527866496255427, 0.37153713445244924, 0.293816740786358, -1.318546441081239e-05,1.0,-8790.615610069279, -2850.2502184036366, 21669.893499924456, -77.00434774870413, 222.27509073898608, 38.48749512488391,1.0,769
1219.845,0.025385762610108775, -2.1643080353876174, -1.117476471384192, -1.4027310529740484, 1.579619640099506, -0.009951947204061007,0.7794815572341407, 0.3190983053245471, 0.0005523800935890412, 0.4713156178468944, 0.2616219727716995, 9.149745496515833e-06,1.0,-8790.854505225832, -2849.8681701170044, 21669.872465506283, -76.99455709021817, 222.28164432779522, 38.48864902314642,1.0,769
1219.8529999999998,0.026246263978584095, -2.1639548263128923, -1.1174758341039617, -1.4021440705696797, 1.5798974625512474, -0.009951924628166964,0.7360868748808139, 0.30297002562904507, 0.0005692968980944174, 0.5607177926056335, 0.22799234249946013, 3.027621450458498e-05,1.0,-8790.61488723506, -2850.01489794794, 21669.883224678186, -76.9964770428825, 222.2798802291689, 38.49107197138798,1.0,769
1219.8609999999999,0.027079346618707742, -2.1636109780594897, -1.1174751619626893, -1.4014419594026943, 1.5801443686860377, -0.009951877732276238,0.6887293022541582, 0.28507550818118477, 0.0005792121958795029, 0.6375513359137349, 0.1947096787373189, 4.945294857553939e-05,1.0,-8790.754302243946, -2850.1540547950335, 21669.891408816555, -76.99748102648209, 222.2801936862062, 38.48640046358125,1.0,769
1219.869,0.027888333232545234, -2.1632751659163745, -1.1174744536402592, -1.4006252200730307, 1.5803618874735204, -0.009951806946935093,0.6405389734114859, 0.26666349573357595, 0.0005833930661890984, 0.7014015984956332, 0.16320495234737065, 6.628500666424253e-05,1.0,-8790.913792455187, -2850.1466389028155, 21669.76589391843, -77.00035133065691, 222.28705660848874, 38.487197159312956,1.0,769
1219.877,0.028676548402130284, -2.1629460650261088, -1.1174737078333763, -1.3996943960864012, 1.580551555775269, -0.009951712710907223,0.593983965647459, 0.24873583228880783, 0.0005833403422656182, 0.7531588611335818, 0.13440579373172068, 8.068871927192842e-05,1.0,-8791.057449159822, -2850.09524834467, 21669.854586628055, -77.00055922166686, 222.2860739761839, 38.487483787440425,1.0,769
1219.885,0.029447311691026767, -2.162622353110189, -1.1174729232575835, -1.3986500710513585, 1.5807149148796609, -0.009951595469951613,0.5506989648673997, 0.23197021478037672, 0.0005804601083033574, 0.7944123567951629, 0.10876181027777584, 9.279568444083687e-05,1.0,-8790.662150245174, -2849.9732891606727, 21670.012272104537, -76.9996321264631, 222.2787790198206, 38.489903470255854,1.0,769
1219.893,0.030203930745890367, -2.1623027131944017, -1.117472098649273, -1.3974928658763721, 1.5808535070367502, -0.009951455675597742,0.5115684029596376, 0.21674655416487087, 0.0005758990855024852, 0.8269582710661375, 0.08636188990483676, 0.00010285228778978777,1.0,-8791.078921982818, -2850.117126598624, 21669.847462039754, -77.00010167734501, 222.28632027811773, 38.48332752236513,1.0,769
1219.9009999999998,0.030949694398030414, -2.161985836334164, -1.1174712327677039, -1.3962234359669035, 1.5809688719931416, -0.00995129378392079,0.47691653880236434, 0.20321890665266842, 0.000570507959927242, 0.8524989340155039, 0.06706653909172419, 0.00011114415059217639,1.0,-8790.964098890972, -2850.506214288577, 21670.03762296774, -77.00826161475268, 222.28632825295966, 38.49096682670461,1.0,769
1219.9089999999999,0.03168786576497171, -2.1616704243398797, -1.1174703243970079, -1.39484246842248, 1.581062543526863, -0.009951110254318607,0.44670232098228707, 0.1913916200520315, 0.0005648738670034488, 0.8725044527835154, 0.050615522135331804, 0.00011795048490734749,1.0,-8790.601349684957, -2850.083703171994, 21670.105443782602, -76.99975033020061, 222.2777175640942, 38.492852065627034,1.0,769
1219.917,0.0324216753520163, -2.161355192502281, -1.1174693723482125, -1.3933506792337704, 1.581136045982239, -0.00995090554828959,0.42067431830085417, 0.1811809343887405, 0.0005593770565913171, 0.8881775089273029, 0.0367011091317302, 0.00012352179903568693,1.0,-8790.851995509378, -2850.231773322881, 21670.013535552942, -76.99945776887276, 222.28501631388843, 38.488292244121254,1.0,769
1219.925,0.03315431415380514, -2.1610388723177802, -1.1174683754612484, -1.3917488104796565, 1.5811908908047645, -0.009950680128204326,0.3984778378602147, 0.17245816355992552, 0.000554247297340312, 0.9004708098237117, 0.025011829573908514, 0.0001280723019604254,1.0,-8790.795816077449, -2850.21159155468, 21670.021007801424, -77.00043198428045, 222.28341752101795, 38.48576103564258,1.0,769
1219.933,0.033888926755880164, -2.1607202142138178, -1.1174673326069655, -1.3900376275243094, 1.5812285730759772, -0.00995043445608701,0.3797221409582417, 0.16507717347910644, 0.0005496103966419914, 0.910125031758607, 0.015255477410656925, 0.0001317801873404389,1.0,-8790.926261944984, -2850.4308233326346, 21669.949139712364, -77.00909412865457, 222.28619759857418, 38.48865773608608,1.0,769
1219.941,0.034628604436245755, -2.160397990274207, -1.1174662426891473, -1.3882179162142663, 1.5812505680483315, -0.009950168992387987,0.3640192111506688, 0.15889050723452175, 0.0005455230899961337, 0.9177102527757776, 0.007169156857109091, 0.00013479145472670442,1.0,-8790.441439716948, -2849.9132303162905, 21670.071462758133, -76.99677257186787, 222.27312633174944, 38.488399402578835,1.0,769
1219.9489999999998,0.035376378266930714, -2.1600709969644853, -1.1174651046465245, -1.3862904800754992, 1.581258327680072, -0.009949884194761616,0.3510040351133968, 0.15375804364308115, 0.0005419977876371472, 0.923663383671469, 0.0005219401069935316, 0.00013722485645604627,1.0,-8790.902548313237, -2850.263112933256, 21669.622116944476, -76.99733941009572, 222.28661345816738, 38.484459600743236,1.0,769
1219.9569999999999,0.03613521221554997, -2.159738057857261, -1.1174639174547858, -1.3842561375104934, 1.5812532771701058, -0.009949580516841472,0.34034363616197894, 0.14955105688972598, 0.0005390195091459329, 0.9283191825751904, -0.004886313327088692, 0.00013917678442565222,1.0,-8790.856391568439, -2850.0154052569533, 21670.045472011585, -76.9994845467134, 222.28249798559585, 38.49013840477565,1.0,769
1219.965,0.03690799624686655, -2.1593980263575645, -1.1174626801285967, -1.3821157189953226, 1.5812368114928765, -0.009949258407017325,0.33173965047442283, 0.14615359641296574, 0.0005365571842000294, 0.9319347987197791, -0.009227881473106055, 0.00014072560091139098,1.0,-8790.78505533954, -2850.0452508067174, 21670.001296483682, -76.99577025292109, 222.2819255529527, 38.4895730756549,1.0,769
1219.973,0.03769753942435308, -2.159049788428188, -1.1174613917236087, -1.3798700642767194, 1.5812102919332376, -0.00994891830721123,0.3249274323854863, 0.14346239615200831, 0.0005345710447606568, 0.9347087025903132, -0.012650690250326826, 0.00014193527102006134,1.0,-8790.55100924285, -2849.988200237124, 21669.90351110264, -76.99792279406037, 222.2768715601497, 38.48855865176523,1.0,769
1219.981,0.03850656301175376, -2.1586922653150458, -1.117460051338477, -1.3775200195691522, 1.5811750426213251, -0.009948560651651839,0.3196734698762158, 0.14138604230311622, 0.0005330173710244658, 0.9367950797366105, -0.015281811555649925, 0.00014285831774336704,1.0,-8791.13531680853, -2849.9305080248005, 21670.215306322087, -76.9968424825004, 222.2887966096086, 38.49195682876723,1.0,769
1219.989,0.03933769357464609, -2.15832441627251, -1.1174586581168704, -1.3750664347519015, 1.5811323470674314, -0.009948185865654047,0.31577213044401065, 0.13984382274193236, 0.000531851474929695, 0.9383146952826978, -0.01723067099999108, 0.00014353818458875543,1.0,-8790.674692989658, -2850.594107695223, 21669.833212466805, -77.00723250792151, 222.27950925885057, 38.4886972880407,1.0,769
1219.9969999999998,0.040193456082002754, -2.1579452412887683, -1.1174572112494898, -1.3725101605661294, 1.581083444696878, -0.009947794364391527,0.31304229508973336, 0.13876449355634896, 0.0005310295239499391, 0.9393630697354834, -0.018591861084284917, 0.0001440111065111722,1.0,-8790.667660124755, -2850.35098047845, 21669.936763141613, -77.00415344322604, 222.27998465321343, 38.49002303988601,1.0,769
1220.0049999999999,0.041076267007753256, -2.157553783811167, -1.1174557099760758, -1.3698520458119594, 1.5810295273848893, -0.009947386551676374,0.31132416539674224, 0.1380850862995262, 0.0005305096095517546, 0.94001662948325, -0.019447545127848114, 0.00014430758436947567,1.0,-8790.721106746998, -2849.9672704701024, 21670.399016049123, -77.00044906911009, 222.27810994233516, 38.48939530056546,1.0,769
1220.013,0.04198842743234579, -2.157149133471558, -1.1174541535874285, -1.3670929345455463, 1.5809717359914655, -0.009946962818730753,0.3104763723206422, 0.13774981470044625, 0.0005302523287102937, 0.9403373397477625, -0.019869479669812416, 0.00014445354486706678,1.0,-8791.010840340425, -2849.889105306903, 21670.014803086073, -76.99744073579811, 222.28865806910778, 38.49298023173833,1.0,769
1220.021,0.042932116144309, -2.1567304288116516, -1.1174525414274186, -1.3642336632761527, 1.5809111568962562, -0.00994652354296921,0.3103734286420682, 0.13770910305367734, 0.0005302210552563866, 0.9403762020762901, -0.01992070007255033, 0.00014447125320970718,1.0,-8790.586011190717, -2850.2074239349467, 21669.810947525355, -77.0009374475508, 222.27741979878937, 38.48497746998589,1.0,769
1220.029,0.04390938274181397, -2.1562968600083616, -1.1174508728949988, -1.3612750581632227, 1.580848818533433, -0.009946069086768539,0.3109035212463676, 0.13791873878252184, 0.0005303820167446164, 0.9401759013048748, -0.019656917971464623, 0.00014438003217872813,1.0,-8790.650275469097, -2850.3409074237034, 21669.674917105956, -77.00249869415376, 222.2811881808592, 38.48842510387718,1.0,769
1220.037,0.04492214073423552, -2.155847671599153, -1.117449147446223, -1.35821793221346, 1.5807856879265638, -0.009945599796247429,0.31196661709915646, 0.13833914169637784, 0.0005307042520749929, 0.9397728136254624, -0.019127676836736794, 0.00014419682986447277,1.0,-8790.744049462242, -2849.8524357482947, 21670.24648575426, -76.99764940183172, 222.28169538159187, 38.490721987937974,1.0,769
1220.0449999999998,0.045972160643714496, -2.155382165207392, -1.1174473645962566, -1.3550630824778933, 1.5807226672234853, -0.009945116000043441,0.31347284766465544, 0.1389347380349916, 0.0005311594984238535, 0.939198532839271, -0.018377306890378992, 0.00014393666902360342,1.0,-8790.864034860273, -2849.9425095902707, 21670.21723753523, -76.99822925486842, 222.28643482114984, 38.487621359230815,1.0,769
1220.0529999999999,0.04706106310671948, -2.1548997022676906, -1.1174455239213898, -1.351811287248962, 1.5806605902311763, -0.009944618008085548,0.3153411345235049, 0.13967342602422872, 0.0005317220385104669, 0.9384810315721196, -0.01744571484326276, 0.00014361300368451738,1.0,-8790.824187158634, -2849.8355740224315, 21669.983464423407, -76.99535090508093, 222.2820952827787, 38.4843910162034,1.0,769
1220.061,0.04819031197560818, -2.15439970675126, -1.1174436250610533, -1.3484633032575823, 1.5806002189506314, -0.009944106110372886,0.3174980206046963, 0.1405261199123802, 0.0005323685277478982, 0.9376455445349446, -0.016369038299893567, 0.00014323800290169534,1.0,-8790.59710425304, -2849.715776796789, 21670.17946099023, -76.99672384070061, 222.27639003296298, 38.48781320517443,1.0,769
1220.069,0.049361207420189734, -2.1538816678912536, -1.1174416677198309, -1.3450198628702248, 1.5805422401117335, -0.00994358057575262,0.3198766747804633, 0.14146636048296632, 0.000533077813343588, 0.9367152390432445, -0.015180189621798578, 0.0001428227771300758,1.0,-8790.84767446622, -2849.486064457108, 21670.065953544712, -76.98686379282574, 222.28412355804284, 38.48428562813126,1.0,769
1220.077,0.05057487902928612, -2.153345142908119, -1.1174396516694731, -1.3414816712859885, 1.5804872617081283, -0.009943041650691598,0.32241604149635816, 0.1424699813842234, 0.0005338307525654708, 0.9357117218716481, -0.013909309671992267, 0.00014237755927351163,1.0,-8790.79399212132, -2850.090760914274, 21670.040104964144, -77.00097419526423, 222.2795842238574, 38.48737394354501,1.0,769
1220.085,0.051832278912294194, -2.15278975973494, -1.1174375767509126, -1.3378494037336743, 1.580435809532096, -0.009942489558055989,0.32506011104644983, 0.14351482202466997, 0.0005346100342730051, 0.9346554195710022, -0.012584148178920283, 0.00014191184982654935,1.0,-8790.41190033409, -2849.7821266650435, 21670.076449152868, -76.99692838538655, 222.27292168590992, 38.488425333527374,1.0,769
1220.0929999999998,0.05313417480074731, -2.1522152197427946, -1.1174354428762765, -1.3341237026688635, 1.5803883237094263, -0.009941924495884713,0.32775728977291296, 0.1445804791291128, 0.0005354000058339273, 0.9335658604859909, -0.01123038439541702, 0.0001414345334935928,1.0,-8791.019720678085, -2849.9764661286417, 21670.16941125651, -77.00215866701598, 222.2851887947732, 38.48509817442377,1.0,769
1220.1009999999999,0.05448114314987723, -2.1516213004660942, -1.117433250030901, -1.3303051749709844, 1.58034515523429, -0.00994134663616908,0.33045985275109235, 0.14564809027070735, 0.0005361865063128735, 0.9324618800585687, -0.009871899202784105, 0.0001409539730920678,1.0,-8790.884044936902, -2849.9711893979184, 21670.0965192241, -77.0022449655666, 222.2796239042761, 38.4869925714398,1.0,769
1220.109,0.05587356224017581, -2.151007858327935, -1.117430998275342, -1.3263943891403942, 1.5803065625041133, -0.009940756123627104,0.3331234643846185, 0.14670014377147456, 0.0005369567060664884, 0.931361765987962, -0.0085310077368691, 0.00014047808531768996,1.0,-8790.729598549557, -2849.8083617982757, 21670.001511867824, -76.9964912058879, 222.27816243006686, 38.48250338843735,1.0,769
1220.117,0.05731160527895679, -2.1503748313654443, -1.1174286877473953, -1.3223918724954506, 1.5802727078544507, -0.009940153074476932,0.3357067547952892, 0.14772031029581104, 0.0005376989524386651, 0.9302833560064272, -0.007228659913674518, 0.0001400144019873781,1.0,-8790.846315636745, -2850.115391092373, 21669.976084182894, -77.00215669590992, 222.2811492057549, 38.488372319584585,1.0,769
1220.125,0.05879523350191776, -2.149722241955134, -1.117426318664105, -1.318298108369584, 1.5802436540938587, -0.009939537575219148,0.33817094198544956, 0.14869329225904118, 0.0005384026210051688, 0.9292440981044077, -0.005984614838592206, 0.00013957011961578849,1.0,-8790.727184917432, -2850.1770573124204, 21669.849894080493, -76.99720396302646, 222.28031347072812, 38.48524055577846,1.0,769
1220.133,0.060324189274701706, -2.1490501995382427, -1.117423891323777, -1.314113533308376, 1.5802193610387687, -0.009938909681407537,0.34047949152087675, 0.14960468785049374, 0.0005390579716941556, 0.9282610807680519, -0.004817593938373194, 0.00013915213957713224,1.0,-8790.638370754852, -2849.8552233810096, 21669.8848568025, -76.99451219482646, 222.27968057043637, 38.4865369418381,1.0,769
1220.1409999999998,0.06189798919445891, -2.148358903346086, -1.117421406107999, -1.309838534266631, 1.5801996820483597, -0.009938269416427836,0.3425978069750488, 0.15044086704368773, 0.0005396560090592322, 0.9273510390072234, -0.0037454167108076667, 0.00013876710061863203,1.0,-8790.460423610324, -2849.837087950262, 21670.12044844847, -76.99524917119152, 222.27592928238528, 38.48709685737006,1.0,769
1220.149,0.0635159171914087, -2.147648645125404, -1.1174188634836462, -1.3054734458054513, 1.5801843605594326, -0.009937616770272939,0.3444929456344467, 0.15118885745063176, 0.0005401883459734303, 0.9265303405292489, -0.0027851222045443143, 0.0001384214050981473,1.0,-8790.735738082856, -2849.953072630331, 21669.845247389003, -76.99588624048965, 222.28103593452607, 38.48501024903172,1.0,769
1220.157,0.06517701763040148, -2.146919811863709, -1.1174162640049001, -1.3010185472893117, 1.5801730266212832, -0.009936951698318985,0.34613335502850345, 0.15183623828737777, 0.0005406470700264657, 0.9258149552617717, -0.0019530786884178913, 0.000138121239995099,1.0,-8790.948416223408, -2849.933189334517, 21669.77211428645, -76.99700681215361, 222.28575037216063, 38.489134123068226,1.0,769
1220.165,0.06688008841248008, -2.146172888514638, -1.1174136083152622, -1.296474060083133, 1.580165193430575, -0.009936274120101452,0.3474886267525703, 0.15237104106720883, 0.0005410246119325654, 0.9252204104802091, -0.0012650834195174106, 0.00013787259347475926,1.0,-8790.668355058153, -2850.0860529623933, 21669.942849489187, -77.00299690985241, 222.2801517275397, 38.491338104929014,1.0,769
1220.173,0.06862367407644182, -2.145408460723294, -1.1174108971495649, -1.2918401447493597, 1.5801602538662127, -0.009935583918094792,0.3485292648295222, 0.1527816559381622, 0.0005413136152862995, 0.9247617330021846, -0.0007364539501165476, 0.00013768126755877276,1.0,-8790.532781427251, -2849.690385327185, 21669.792980377024, -76.99337753167202, 222.27951786380697, 38.491671386548575,1.0,769
1220.181,0.07040605890040028, -2.144627217551599, -1.1174081313359876, -1.2871168982450278, 1.5801574770242162, -0.009934880936481427,0.3492264665338906, 0.1530567428438791, 0.0005415068070373798, 0.9244533792367634, -0.00038211200713918366, 0.00013755288725980286,1.0,-8790.497534707287, -2849.819444258398, 21669.972822543063, -76.9928628327173, 222.27326253604429, 38.4923736027834,1.0,769
1220.1889999999999,0.07222526000334689, -2.143829954203638, -1.1174053117980716, -1.2823043511188468, 1.5801560047525918, -0.009934164979934046,0.3495519142074904, 0.15318514692109303, 0.0005415968680934129, 0.9243091532941519, -0.00021666061841288273, 0.00013749290636792778,1.0,-8790.994855936948, -2849.6574810249294, 21669.947782219468, -76.99472605896392, 222.28784228857205, 38.485807185297205,1.0,769
1220.197,0.0740791520642855, -2.143017522077109, -1.1174024394986128, -1.2774024704062068, 1.5801549064213838, -0.009933435826801507,0.34957296125189247, 0.15319345085861483, 0.0005416026898242152, 0.9242998197119405, -0.00020595965758331175, 0.00013748902615463325,1.0,-8790.927329327247, -2849.998073873606, 21669.83702420367, -76.99463059698351, 222.28452331093513, 38.4892761869834,1.0,769
1220.205,0.07596685438861975, -2.1421902737904492, -1.1173995148311766, -1.2724112293451029, 1.580153794234323, -0.009932693382782354,0.34957296125189247, 0.15319345085861488, 0.0005416026898242152, 0.9242998197119405, -0.0002059596575833118, 0.00013748902615463325,1.0,-8790.697055586, -2849.7243305624306, 21669.816421284537, -76.99248775418965, 222.28262552264187, 38.48697269643799,1.0,769
1220.213,0.07788835325708475, -2.1413482148353538, -1.1173965378018549, -1.2673306274262979, 1.5801526621351822, -0.009931937646391553,0.3495729612518924, 0.15319345085861485, 0.0005416026898242152, 0.9242998197119404, -0.00020595965758331178, 0.00013748902615463325,1.0,-8790.9431346437, -2849.725855345612, 21670.09357326446, -76.99763175249208, 222.2849634217842, 38.490079802113115,1.0,769
1220.221,0.07984364866968051, -2.140491345211826, -1.1173935084106486, -1.26216066464979, 1.580151510123962, -0.009931168617628217,0.3495729612518924, 0.15319345085861485, 0.0005416026898242151, 0.9242998197119404, -0.00020595965758331175, 0.00013748902615463325,1.0,-8790.915830133014, -2849.737473553133, 21669.99806560208, -76.99242261242833, 222.28228724214853, 38.48966974721918,1.0,769
1220.229,0.081832740626407, -2.1396196649198647, -1.1173904266575567, -1.2569013410155803, 1.580150338200662, -0.009930386296492344,0.3495729612518924, 0.15319345085861483, 0.0005416026898242151, 0.9242998197119403, -0.00020595965758331172, 0.00013748902615463323,1.0,-8790.979978747873, -2849.704718231641, 21669.973540383126, -76.99491118276597, 222.2868199763492, 38.48795509007692,1.0,769
1220.2369999999999,0.08385562912726424, -2.1387331739594684, -1.1173872925425803, -1.2515526565236685, 1.5801491463652826, -0.009929590682983935,0.34957296125189236, 0.15319345085861483, 0.0005416026898242151, 0.9242998197119403, -0.0002059596575833117, 0.00013748902615463323,1.0,-8790.613542540184, -2849.626216595271, 21669.923485209463, -76.99173026920215, 222.2758214317356, 38.488186121190495,1.0,769
1220.245,0.08591231417225224, -2.137831872330639, -1.1173841060657184, -1.246114611174054, 1.5801479346178233, -0.009928781777103879,0.3495729612518924, 0.15319345085861483, 0.0005416026898242151, 0.9242998197119404, -0.00020595965758331175, 0.00013748902615463325,1.0,-8790.780497665077, -2849.9466298409534, 21669.940790823533, -76.99613756243684, 222.27915863632882, 38.48802891657297,1.0,769
1220.253,0.08800279576137096, -2.136915760033377, -1.1173808672269718, -1.2405872049667384, 1.5801467029582843, -0.009927959578851286,0.34957296125189236, 0.15319345085861483, 0.0005416026898242152, 0.9242998197119404, -0.00020595965758331175, 0.00013748902615463325,1.0,-8790.690317560622, -2849.6079061895252, 21669.94922823215, -76.99160483616666, 222.28214184014888, 38.487824432971365,1.0,769
1220.261,0.09012707389462045, -2.1359848370676797, -1.1173775760263398, -1.23497043790172, 1.5801454513866657, -0.009927124088226158,0.34957296125189236, 0.15319345085861483, 0.0005416026898242151, 0.9242998197119404, -0.00020595965758331175, 0.00013748902615463325,1.0,-8790.76730359878, -2849.8160064633676, 21670.023329422136, -76.99491768889149, 222.27913396502987, 38.49209982917694,1.0,769
1220.269,0.09228514857200068, -2.1350391034335487, -1.1173742324638232, -1.2292643099789995, 1.5801441799029674, -0.009926275305229382,0.3495729612518924, 0.15319345085861483, 0.0005416026898242152, 0.9242998197119404, -0.00020595965758331175, 0.00013748902615463325,1.0,-8790.621783659148, -2849.7648666527475, 21669.807083456628, -76.99541339256422, 222.2825166586195, 38.48322816721952,1.0,769
1220.277,0.09447701979351165, -2.1340785591309857, -1.117370836539422, -1.2234688211985771, 1.5801428885071895, -0.00992541322986007,0.34957296125189247, 0.15319345085861485, 0.0005416026898242152, 0.9242998197119405, -0.0002059596575833118, 0.00013748902615463328,1.0,-8791.029464684103, -2849.7000404710416, 21669.907484569478, -76.99467796250303, 222.28498738809856, 38.48535480467808,1.0,769
1220.2849999999999,0.09670268755915337, -2.133103204159987, -1.1173673882531343, -1.2175839715604528, 1.580141577199332, -0.009924537862118221,0.34957296125189236, 0.15319345085861483, 0.0005416026898242151, 0.9242998197119404, -0.00020595965758331175, 0.00013748902615463325,1.0,-8790.86630127086, -2849.454696309176, 21670.139398171545, -76.99024135082124, 222.28141828584813, 38.4909901938741,1.0,769
1220.293,0.09896215186892585, -2.132113038520556, -1.117363887604963, -1.2116097610646266, 1.5801402459793945, -0.009923649202004725,0.3495729612518924, 0.15319345085861485, 0.0005416026898242151, 0.9242998197119404, -0.00020595965758331175, 0.00013748902615463325,1.0,-8790.69778078792, -2849.7060910127466, 21669.874889730687, -76.99461544357743, 222.2771330388207, 38.48778352995765,1.0,769
1220.301,0.10125541272282906, -2.1311080622126912, -1.1173603345949061, -1.2055461897110975, 1.5801388948473776, -0.009922747249517805,0.34957296125189247, 0.15319345085861485, 0.0005416026898242152, 0.9242998197119404, -0.00020595965758331175, 0.00013748902615463325,1.0,-8790.54200753084, -2849.603260465561, 21669.830066458762, -76.99025090287222, 222.2799564654274, 38.490091814084224,1.0,769
1220.309,0.10358247012086302, -2.1300882752363925, -1.1173567292229638, -1.1993932574998665, 1.5801375238032809, -0.009921832004659237,0.3495729612518924, 0.15319345085861483, 0.0005416026898242151, 0.9242998197119404, -0.00020595965758331175, 0.00013748902615463325,1.0,-8790.740935522868, -2849.5323468529305, 21669.874999812884, -76.99030855072647, 222.2798414727789, 38.488878797304295,1.0,769
1220.317,0.10594332406302771, -2.12905367759166, -1.1173530714891369, -1.1931509644309335, 1.5801361328471046, -0.00992090346742902,0.3495729612518924, 0.15319345085861485, 0.0005416026898242152, 0.9242998197119405, -0.00020595965758331178, 0.00013748902615463325,1.0,-8790.84755276799, -2849.5092793833337, 21669.86541008122, -76.98916558581618, 222.28333887922253, 38.49284183265408,1.0,769
1220.325,0.10833797454932316, -2.1280042692784935, -1.1173493613934253, -1.1868193105042986, 1.5801347219788486, -0.00991996163782538,0.3495729612518924, 0.15319345085861483, 0.0005416026898242151, 0.9242998197119404, -0.00020595965758331175, 0.00013748902615463325,1.0,-8790.952228176473, -2849.525911269654, 21669.891508808538, -76.98833800997625, 222.28687466188427, 38.490314016841666,1.0,769
1220.3329999999999,0.11076642157974936, -2.126940050296893, -1.1173455989358283, -1.1803982957199617, 1.5801332911985129, -0.009919006515850093,0.34957296125189236, 0.15319345085861483, 0.0005416026898242151, 0.9242998197119404, -0.00020595965758331175, 0.00013748902615463325,1.0,-8790.913141482912, -2849.7849454103407, 21669.861308955024, -76.99515978767889, 222.2875944341825, 38.4891324723545,1.0,769
1220.341,0.11322866515430631, -2.12586102064686, -1.1173417841163458, -1.173887920077922, 1.5801318405060976, -0.009918038101503157,0.3495729612518924, 0.15319345085861485, 0.0005416026898242151, 0.9242998197119404, -0.00020595965758331175, 0.00013748902615463325,1.0,-8790.720381703046, -2849.94978406092, 21669.738775469683, -76.99945278625106, 222.2807123494335, 38.48593696588236,1.0,769
1220.349,0.11572470527299401, -2.1247671803283925, -1.1173379169349786, -1.1672881835781812, 1.5801303699016025, -0.009917056394782797,0.34957296125189247, 0.15319345085861485, 0.0005416026898242152, 0.9242998197119404, -0.00020595965758331175, 0.00013748902615463325,1.0,-8790.612205341185, -2849.442611561525, 21669.788023088324, -76.98775970364179, 222.27732948081535, 38.48944857485978,1.0,769
1220.357,0.11825454193581245, -2.1236585293414914, -1.117333997391727, -1.1605990862207367, 1.5801288793850279, -0.00991606139569079,0.3495729612518924, 0.15319345085861485, 0.0005416026898242151, 0.9242998197119405, -0.00020595965758331178, 0.00013748902615463325,1.0,-8790.749271003031, -2849.3329791384112, 21669.816706359154, -76.98810162351566, 222.28301602250338, 38.48603458829271,1.0,769
1220.365,0.12081817514276164, -2.1225350676861563, -1.1173300254865897, -1.153820628005592, 1.5801273689563735, -0.009915053104226246,0.34957296125189247, 0.15319345085861485, 0.0005416026898242152, 0.9242998197119405, -0.00020595965758331178, 0.00013748902615463328,1.0,-8790.78955187433, -2849.4176962736447, 21669.91578308411, -76.98996992356732, 222.28299959223494, 38.48572052062846,1.0,769
1220.373,0.12341560489384157, -2.1213967953623882, -1.1173260012195678, -1.1469528089327437, 1.5801258386156394, -0.009914031520389166,0.34957296125189247, 0.15319345085861485, 0.0005416026898242152, 0.9242998197119404, -0.00020595965758331175, 0.00013748902615463325,1.0,-8790.676738786344, -2849.610889778679, 21669.861229608483, -76.99293235322077, 222.2828378124234, 38.48410649987582,1.0,769
1220.3809999999999,0.12604683118905222, -2.1202437123701863, -1.1173219245906605, -1.1399956290021942, 1.5801242883628257, -0.009912996644180438,0.34957296125189236, 0.15319345085861483, 0.0005416026898242151, 0.9242998197119404, -0.00020595965758331175, 0.00013748902615463325,1.0,-8791.013238028963, -2849.371790450765, 21670.077810329876, -76.9874779620408, 222.28617991237167, 38.487991966355025,1.0,769
1220.389,0.12871185402839364, -2.1190758187095504, -1.1173177955998685, -1.132949088213942, 1.5801227181979323, -0.009911948475599175,0.3495729612518924, 0.15319345085861485, 0.0005416026898242151, 0.9242998197119404, -0.00020595965758331175, 0.00013748902615463325,1.0,-8790.724967277847, -2849.53366270524, 21669.883755826664, -76.98991052943092, 222.28161024614656, 38.48737709338914,1.0,769
1220.397,0.13141067341186582, -2.1178931143804816, -1.1173136142471911, -1.1258131865679877, 1.580121128120959, -0.009910887014645375,0.3495729612518924, 0.15319345085861485, 0.0005416026898242152, 0.9242998197119404, -0.00020595965758331178, 0.00013748902615463328,1.0,-8790.98547487969, -2849.4770713504377, 21669.825471973723, -76.9882994098617, 222.2861354210753, 38.48996539986919,1.0,769
1220.405,0.13414328933946873, -2.116695599382979, -1.1173093805326282, -1.1185879240643315, 1.5801195181319063, -0.009909812261319928,0.3495729612518924, 0.15319345085861483, 0.0005416026898242151, 0.9242998197119404, -0.00020595965758331175, 0.00013748902615463325,1.0,-8790.61374629234, -2849.5189448092415, 21669.847289755056, -76.99125439249576, 222.2794160790013, 38.48773369997184,1.0,769
1220.413,0.1369097018112024, -2.1154832737170413, -1.1173050944561815, -1.1112733007029734, 1.580117888230774, -0.009908724215621056,0.3495729612518924, 0.15319345085861485, 0.0005416026898242152, 0.9242998197119404, -0.00020595965758331175, 0.00013748902615463325,1.0,-8790.903193000493, -2849.6339079814297, 21669.676385079125, -76.99061412389702, 222.28370055425864, 38.48862337701033,1.0,769
1220.421,0.13970991082706682, -2.1142561373826716, -1.1173007560178485, -1.1038693164839133, 1.5801162384175618, -0.009907622877550537,0.3495729612518924, 0.15319345085861483, 0.0005416026898242151, 0.9242998197119403, -0.00020595965758331175, 0.00013748902615463325,1.0,-8790.696086176958, -2849.4830476212974, 21669.863363673732, -76.98718530739635, 222.27650162851683, 38.487529327966996,1.0,769
1220.4289999999999,0.14254391638706196, -2.113014190379867, -1.1172963652176318, -1.0963759714071504, 1.58011456869227, -0.00990650824710837,0.3495729612518924, 0.15319345085861483, 0.0005416026898242151, 0.9242998197119403, -0.00020595965758331172, 0.00013748902615463323,1.0,-8791.040177531584, -2849.2910404330933, 21669.79421298109, -76.98673403232488, 222.287701249912, 38.48704040531882,1.0,769
1220.437,0.14541171849118786, -2.111757432708629, -1.1172919220555286, -1.0887932654726864, 1.5801128790548986, -0.009905380324293667,0.34957296125189247, 0.15319345085861485, 0.0005416026898242152, 0.9242998197119404, -0.00020595965758331178, 0.00013748902615463325,1.0,-8790.90531807374, -2849.629426360816, 21669.766288078958, -76.9894545290787, 222.28397997169924, 38.48692269032716,1.0,769
1220.445,0.1483133171394445, -2.1104858643689575, -1.1172874265315418, -1.0811211986805187, 1.5801111695054475, -0.009904239109106427,0.3495729612518924, 0.15319345085861485, 0.0005416026898242151, 0.9242998197119405, -0.00020595965758331175, 0.00013748902615463325,1.0,-8790.82662033177, -2849.4902818616038, 21669.479892934312, -76.98905618867187, 222.2856750674199, 38.48683814233772,1.0,769
1220.453,0.1512487123318319, -2.109199485360852, -1.1172828786456686, -1.0733597710306508, 1.5801094400439166, -0.009903084601546652,0.34957296125189236, 0.15319345085861483, 0.0005416026898242152, 0.9242998197119404, -0.00020595965758331175, 0.00013748902615463325,1.0,-8790.916048490268, -2849.215701562701, 21669.798322869497, -76.98602197502512, 222.28680050191656, 38.48861952227256,1.0,769
1220.461,0.15421790406835006, -2.107898295684313, -1.1172782783979116, -1.0655089825230792, 1.5801076906703062, -0.009901916801614341,0.34957296125189247, 0.15319345085861485, 0.0005416026898242152, 0.9242998197119405, -0.00020595965758331178, 0.00013748902615463325,1.0,-8790.873180840032, -2849.452890972543, 21669.918326781662, -76.99240136340606, 222.28506404787595, 38.485868449885174,1.0,769
1220.469,0.15722089234899894, -2.106582295339341, -1.1172736257882683, -1.0575688331578066, 1.580105921384616, -0.009900735709310382,0.3495729612518924, 0.15319345085861485, 0.0005416026898242152, 0.9242998197119405, -0.00020595965758331178, 0.00013748902615463328,1.0,-8790.986280788118, -2849.299105057684, 21669.687974404034, -76.98533665197832, 222.2869436430687, 38.48629012453094,1.0,769
1220.4769999999999,0.1602576771737786, -2.105251484325935, -1.1172689208167412, -1.049539322934831, 1.580104132186846, -0.009899541324633887,0.3495729612518924, 0.15319345085861485, 0.0005416026898242151, 0.9242998197119404, -0.00020595965758331178, 0.00013748902615463325,1.0,-8790.774474869699, -2849.5122982817456, 21669.67802459866, -76.98993261087372, 222.28245314282736, 38.48994176725839,1.0,769
1220.485,0.16332825854268895, -2.103905862644094, -1.1172641634833287, -1.0414204518541545, 1.5801023230769966, -0.009898333647585744,0.34957296125189247, 0.15319345085861485, 0.0005416026898242152, 0.9242998197119405, -0.0002059596575833118, 0.00013748902615463328,1.0,-8790.808618024064, -2849.504555356595, 21669.833142898326, -76.99320188457565, 222.28303907887567, 38.486664479011836,1.0,769
1220.493,0.1664326364557301, -2.102545430293821, -1.1172593537880307, -1.0332122199157752, 1.5801004940550676, -0.009897112678164177,0.3495729612518924, 0.15319345085861483, 0.0005416026898242152, 0.9242998197119403, -0.00020595965758331175, 0.00013748902615463325,1.0,-8790.533231325087, -2849.2022344707093, 21669.84441478816, -76.98671966669667, 222.2801826738002, 38.493942302565756,1.0,769
1220.501,0.16957081091290196, -2.1011701872751143, -1.117254491730848, -1.024914627119693, 1.5800986451210586, -0.009895878416370962,0.34957296125189247, 0.15319345085861485, 0.0005416026898242152, 0.9242998197119404, -0.00020595965758331178, 0.00013748902615463328,1.0,-8790.805034531319, -2849.4838763015823, 21669.608656317887, -76.98919375950732, 222.28089101967015, 38.486767428243866,1.0,769
1220.509,0.17273659893106855, -2.0997828431583008, -1.1172495868912407, -1.0165440217846626, 1.5800967799178292, -0.009894633294008415,0.3495729612518924, 0.15319345085861485, 0.0005416026898242152, 0.9242998197119404, -0.00020595965758331178, 0.00013748902615463325,1.0,-8791.02765363753, -2849.0821172002115, 21669.544522809236, -76.97928398495802, 222.28688806405734, 38.481585071000836,1.0,769
1220.517,0.17590502494332602, -2.098394342992642, -1.1172446779645187, -1.0081664413750895, 1.5800949131603597, -0.009893387134106923,0.3495729612518924, 0.15319345085861485, 0.0005416026898242152, 0.9242998197119404, -0.00020595965758331178, 0.00013748902615463325,1.0,-8790.891286862348, -2849.090695606442, 21669.619829928328, -76.98281446998703, 222.28038049981768, 38.485983784726955,1.0,769
1220.5249999999999,0.1790718172039084, -2.0970065587864113, -1.117239771569011, -0.9997931807400589, 1.5800930473654557, -0.009892141616769656,0.34957296125189247, 0.15319345085861483, 0.0005416026898242153, 0.9242998197119404, -0.00020595965758331175, 0.00013748902615463328,1.0,-8791.157218625298, -2849.3556001307797, 21669.74202251408, -76.98969300129622, 222.29052808549648, 38.48855746444778,1.0,769
1220.533,0.18221283636088595, -2.095630069134158, -1.1172349051044597, -0.9914880663224306, 1.580091196755421, -0.009890906236139863,0.34957296125189247, 0.15319345085861483, 0.0005416026898242152, 0.9242998197119405, -0.00020595965758331178, 0.00013748902615463328,1.0,-8791.024421603308, -2849.4606685866247, 21669.35955535664, -76.98758468078282, 222.28878844036888, 38.48533269369497,1.0,769
1220.541,0.18532005897373283, -2.09426839015034, -1.117230091001793, -0.9832723127625043, 1.5800893660574657, -0.009889684147881717,0.3495729612518924, 0.15319345085861483, 0.0005416026898242152, 0.9242998197119404, -0.00020595965758331172, 0.00013748902615463325,1.0,-8790.807520205297, -2849.077148493927, 21669.655483850038, -76.97961784652765, 222.2826622640958, 38.48430817857462,1.0,769
1220.549,0.18839348504244888, -2.0929215218349553, -1.1172253292610108, -0.9751459200602799, 1.58008755527159, -0.009888475351996995,0.34957296125189247, 0.15319345085861485, 0.0005416026898242153, 0.9242998197119405, -0.00020595965758331178, 0.0001374890261546333,1.0,-8790.727170479353, -2849.2477845112144, 21669.605949867648, -76.98591751804128, 222.28231642465846, 38.488172121597614,1.0,769
1220.557,0.19143311456703427, -2.0915894641880035, -1.1172206198821142, -0.9671088882157584, 1.5800857643977941, -0.00988727984848392,0.3495729612518924, 0.15319345085861483, 0.0005416026898242152, 0.9242998197119404, -0.00020595965758331175, 0.00013748902615463325,1.0,-8791.179600136657, -2849.3105659584126, 21669.53851443351, -76.98793522355837, 222.28795274596348, 38.490956483196385,1.0,769
1220.565,0.1944389475474888, -2.0902722172094865, -1.117215962865103, -0.9591612172289388, 1.580083993436078, -0.009886097637343383,0.3495729612518924, 0.15319345085861483, 0.0005416026898242153, 0.9242998197119404, -0.00020595965758331178, 0.00013748902615463328,1.0,-8790.975360996646, -2849.2986032994304, 21669.737452874873, -76.9866615853206, 222.28656585113595, 38.48694761271301,1.0,769
1220.5729999999999,0.19741098398381274, -2.0889697808994026, -1.1172113582099756, -0.9513029070998211, 1.5800822423864413, -0.009884928718574493,0.3495729612518924, 0.15319345085861483, 0.0005416026898242152, 0.9242998197119403, -0.00020595965758331175, 0.00013748902615463325,1.0,-8791.214761464349, -2849.018803031915, 21669.599271516643, -76.9805320476496, 222.28933415622447, 38.485454045975615,1.0,769
1220.581,0.2003492238760058, -2.0876821552577525, -1.1172068059167346, -0.9435339578284054, 1.5800805112488845, -0.009883773092179027,0.3495729612518924, 0.15319345085861483, 0.0005416026898242152, 0.9242998197119404, -0.00020595965758331175, 0.00013748902615463325,1.0,-8790.965100728783, -2849.1999847234792, 21669.451492177555, -76.98323730430113, 222.28509205133378, 38.487341663103535,1.0,769
1220.589,0.2032536672240682, -2.0864093402845363, -1.1172023059853782, -0.9358543694146917, 1.5800788000234074, -0.009882630758155209,0.34957296125189236, 0.15319345085861477, 0.0005416026898242151, 0.9242998197119403, -0.00020595965758331172, 0.00013748902615463323,1.0,-8790.979190239379, -2849.178350665122, 21669.539344039462, -76.98314503079868, 222.27967141397107, 38.48701887984441,1.0,769
1220.597,0.20612431402799974, -2.085151335979753, -1.1171978584159064, -0.9282641418586799, 1.5800771087100098, -0.009881501716503038,0.34957296125189247, 0.15319345085861483, 0.0005416026898242153, 0.9242998197119404, -0.00020595965758331178, 0.00013748902615463328,1.0,-8791.155326075932, -2849.0032325432494, 21669.663767004226, -76.98121220854944, 222.28870176443854, 38.485522085858946,1.0,769
1220.605,0.20896116428780057, -2.083908142343404, -1.11719346320832, -0.92076327516037, 1.580075437308692, -0.009880385967224292,0.34957296125189247, 0.15319345085861483, 0.0005416026898242153, 0.9242998197119404, -0.00020595965758331175, 0.00013748902615463328,1.0,-8790.707131081877, -2849.0309305846868, 21669.507667781927, -76.98457743209377, 222.28118570540818, 38.4890212137922,1.0,769
1220.613,0.21176421800347073, -2.0826797593754893, -1.1171891203626183, -0.913351769319763, 1.5800737858194538, -0.009879283510317194,0.3495729612518924, 0.15319345085861483, 0.0005416026898242153, 0.9242998197119404, -0.00020595965758331175, 0.00013748902615463328,1.0,-8791.207174779773, -2849.266273801846, 21669.529019359168, -76.98622512586113, 222.2890657473987, 38.486966729788776,1.0,769
1220.6209999999999,0.21453347517501004, -2.081466187076007, -1.117184829878802, -0.906029624336858, 1.5800721542422953, -0.009878194345782632,0.3495729612518924, 0.15319345085861483, 0.0005416026898242152, 0.9242998197119405, -0.00020595965758331175, 0.00013748902615463328,1.0,-8791.084387223336, -2848.798176530355, 21669.60569080664, -76.97629293117856, 222.2873548801968, 38.48496430188658,1.0,769
1220.629,0.2172689358024187, -2.0802674254449585, -1.1171805917568705, -0.8987968402116548, 1.5800705425772164, -0.009877118473619717,0.34957296125189236, 0.15319345085861483, 0.0005416026898242152, 0.9242998197119404, -0.00020595965758331172, 0.00013748902615463325,1.0,-8790.7486549809, -2849.053460794774, 21669.226437722657, -76.9803602286423, 222.27904337454385, 38.48621861904695,1.0,769
1220.637,0.21997059988569656, -2.0790834744823448, -1.1171764059968243, -0.8916534169441537, 1.5800689508242174, -0.009876055893830227,0.3495729612518924, 0.1531934508586148, 0.0005416026898242152, 0.9242998197119404, -0.00020595965758331172, 0.00013748902615463325,1.0,-8790.995538636975, -2849.0191373175085, 21669.137466478962, -76.97810526179455, 222.28518757533595, 38.48307219882429,1.0,769
1220.645,0.22263846742484375, -2.077914334188164, -1.1171722725986628, -0.8845993545343553, 1.5800673789832977, -0.009875006606412384,0.34957296125189247, 0.15319345085861485, 0.0005416026898242153, 0.9242998197119404, -0.00020595965758331178, 0.00013748902615463328,1.0,-8791.074336714219, -2848.7338652736607, 21669.440320638765, -76.97640526821064, 222.29139251039663, 38.48387615130167,1.0,769
1220.653,0.22527253841986009, -2.0767600045624173, -1.1171681915623868, -0.877634652982259, 1.580065827054458, -0.00987397061136619,0.34957296125189247, 0.15319345085861483, 0.0005416026898242153, 0.9242998197119404, -0.00020595965758331178, 0.00013748902615463328,1.0,-8790.933487639091, -2849.015926219683, 21669.402148298293, -76.97736502976406, 222.28096884886583, 38.48495605402263,1.0,769
1220.661,0.2278728128707458, -2.0756204856051035, -1.1171641628879954, -0.8707593122878636, 1.5800642950376977, -0.009872947908693419,0.34957296125189247, 0.15319345085861485, 0.0005416026898242152, 0.9242998197119405, -0.0002059596575833118, 0.00013748902615463328,1.0,-8790.572040097111, -2848.79820755072, 21669.18298152917, -76.9773410314472, 222.27878051753868, 38.48726188789067,1.0,769
1220.6689999999999,0.2304392907775006, -2.0744957773162245, -1.1171601865754885, -0.8639733324511711, 1.5800627829330174, -0.009871938498392296,0.34957296125189247, 0.15319345085861483, 0.0005416026898242152, 0.9242998197119405, -0.00020595965758331178, 0.00013748902615463328,1.0,-8791.115500539976, -2848.933256750558, 21669.171354513874, -76.977485735377, 222.29021536908317, 38.490136170529865,1.0,769
1220.677,0.23297197214012483, -2.0733858796957785, -1.1171562626248672, -0.8572767134721815, 1.5800612907404166, -0.00987094238046371,0.34957296125189236, 0.1531934508586148, 0.0005416026898242152, 0.9242998197119404, -0.00020595965758331175, 0.00013748902615463323,1.0,-8791.02882993736, -2848.5905328481176, 21669.28793390682, -76.97220930548434, 222.28222240671255, 38.48576443828006,1.0,769
1220.685,0.23547085695861816, -2.0722907927437664, -1.1171523910361314, -0.8506694553508929, 1.5800598184598955, -0.009869959554906771,0.34957296125189236, 0.15319345085861483, 0.0005416026898242152, 0.9242998197119405, -0.00020595965758331172, 0.00013748902615463325,1.0,-8790.943432121485, -2848.944247452473, 21669.306798571222, -76.97892730441347, 222.2839436193721, 38.48587998626863,1.0,769
1220.693,0.23793594523298076, -2.0712105164601873, -1.1171485718092802, -0.8441515580873062, 1.580058366091454, -0.009868990021722368,0.3495729612518924, 0.15319345085861483, 0.0005416026898242153, 0.9242998197119404, -0.00020595965758331175, 0.0001374890261546333,1.0,-8790.831574101252, -2848.621423246871, 21669.45197185355, -76.97326410813051, 222.28245700208595, 38.487390792209396,1.0,769
1220.701,0.24036723696321274, -2.070145050845043, -1.1171448049443145, -0.8377230216814224, 1.5800569336350923, -0.009868033780910501,0.34957296125189247, 0.15319345085861483, 0.0005416026898242153, 0.9242998197119404, -0.00020595965758331175, 0.00013748902615463328,1.0,-8790.971276786539, -2848.857657998542, 21669.021439710472, -76.97737370638526, 222.28330661349952, 38.485485558635304,1.0,769
1220.7089999999998,0.24276473214931382, -2.0690943958983326, -1.1171410904412333, -0.8313838461332406, 1.58005552109081, -0.00986709083247117,0.34957296125189236, 0.1531934508586148, 0.0005416026898242152, 0.9242998197119404, -0.00020595965758331175, 0.00013748902615463328,1.0,-8790.792140172081, -2848.7310372889697, 21669.021431129004, -76.97345577692323, 222.27944178911042, 38.48570318365597,1.0,769
1220.7169999999999,0.2451284307912843, -2.0680585516200543, -1.1171374283000368, -0.8251340314427607, 1.5800541284586078, -0.009866161176403487,0.34957296125189236, 0.15319345085861483, 0.0005416026898242152, 0.9242998197119404, -0.00020595965758331172, 0.00013748902615463325,1.0,-8790.719560948804, -2848.9177480635526, 21669.173299052592, -76.97939242369353, 222.28135512524682, 38.489516685812845,1.0,769
1220.725,0.24745833288912392, -2.0670375180102107, -1.1171338185207258, -0.8189735776099827, 1.5800527557384851, -0.00986524481270834,0.34957296125189236, 0.1531934508586148, 0.0005416026898242152, 0.9242998197119405, -0.00020595965758331175, 0.00013748902615463328,1.0,-8790.917647201964, -2848.8986093916265, 21668.876682901187, -76.97736368905859, 222.28676273783014, 38.484435378246786,1.0,769
1220.733,0.24975443844283296, -2.0660312950688002, -1.1171302611033003, -0.8129024846349076, 1.580051402930442, -0.00986434174138573,0.34957296125189247, 0.15319345085861483, 0.0005416026898242152, 0.9242998197119404, -0.00020595965758331175, 0.00013748902615463325,1.0,-8790.866662726236, -2848.780840680439, 21669.211104956015, -76.97480127780725, 222.28601764126796, 38.48463479929174,1.0,769
