dlisjak-bit/sensor_synchronization/realtime_sync/robot_reference.csv
t,q0,q1,q2,q3,q4,q5,qd0,qd1,qd2,qd3,qd4,qd5,ss,f0,f1,f2,f3,f4,f5,tsf,do
16765.342,-0.5154541174383196, -2.1610328113883153, -1.142607548712201, -1.4092976718471224, 1.5689123868846204, 1.2250781059145666,0.0, 0.0, 0.0, 0.0, 0.0, 0.0,1.0,-8732.273641222733, -2828.1293981362387, 21510.380777825445, -76.72409388389161, 220.63346574570187, 38.17791830431116,1.0,769
16765.35,-0.5154541174383196, -2.1610328113883153, -1.142607548712201, -1.4092976718471224, 1.5689123868846204, 1.2250781059145666,0.0, 0.0, 0.0, 0.0, 0.0, 0.0,1.0,-8732.391394987635, -2828.0478703121053, 21510.803221864116, -76.72390438893612, 220.63153800166162, 38.177142354657576,1.0,769
16765.358,-0.5154541174383196, -2.1610328113883153, -1.142607548712201, -1.4092976718471224, 1.5689123868846204, 1.2250781059145666,0.0, 0.0, 0.0, 0.0, 0.0, 0.0,1.0,-8732.346500264888, -2828.211056523277, 21511.038105709526, -76.7280838450157, 220.64174985485386, 38.17689663054034,1.0,769
16765.365999999998,-0.5154541174383196, -2.1610328113883153, -1.142607548712201, -1.4092976718471224, 1.5689123868846204, 1.2250781059145666,0.0, 0.0, 0.0, 0.0, 0.0, 0.0,1.0,-8732.19978599637, -2828.116259471274, 21510.98304172326, -76.71899407383066, 220.63377463940157, 38.17184036792895,1.0,769
16765.374,-0.5154541174383196, -2.1610328113883153, -1.142607548712201, -1.4092976718471224, 1.5689123868846204, 1.2250781059145666,0.0, 0.0, 0.0, 0.0, 0.0, 0.0,1.0,-8732.33752146525, -2828.1096110292847, 21511.338802528087, -76.71546043024529, 220.6286542091961, 38.17316861228218,1.0,769
16765.381999999998,-0.5154541174383196, -2.1610328113883153, -1.142607548712201, -1.4092976718471224, 1.5689123868846204, 1.2250781059145666,0.0, 0.0, 0.0, 0.0, 0.0, 0.0,1.0,-8732.36733318601, -2828.20849070048, 21511.240571160997, -76.71739670735832, 220.63632887696895, 38.17944188717692,1.0,769
16765.39,-0.5154541174383196, -2.1610328113883153, -1.142607548712201, -1.4092976718471224, 1.5689123868846204, 1.2250781059145666,0.0, 0.0, 0.0, 0.0, 0.0, 0.0,1.0,-8732.159572259285, -2827.9981768843954, 21511.117923680908, -76.72196892081462, 220.63564497955485, 38.17640860570049,1.0,769
16765.398,-0.5154541174383196, -2.1610328113883153, -1.142607548712201, -1.4092976718471224, 1.5689123868846204, 1.2250781059145666,0.0, 0.0, 0.0, 0.0, 0.0, 0.0,1.0,-8732.4728118114, -2827.8928834530807, 21510.85589630645, -76.71645879965104, 220.6463067106701, 38.18007781341001,1.0,769
16765.406,-0.5154541174383196, -2.1610328113883153, -1.142607548712201, -1.4092976718471224, 1.5689123868846204, 1.2250781059145666,0.0, 0.0, 0.0, 0.0, 0.0, 0.0,1.0,-8732.247024475437, -2828.151558767303, 21510.47549493997, -76.71954181414526, 220.63783970106027, 38.17678984025224,1.0,769
16765.414,-0.5154541174383196, -2.1610328113883153, -1.142607548712201, -1.4092976718471224, 1.5689123868846204, 1.2250781059145666,0.0, 0.0, 0.0, 0.0, 0.0, 0.0,1.0,-8732.427119969909, -2828.048707615676, 21510.305484766854, -76.72589776677566, 220.63115362048495, 38.17615217836621,1.0,769
16765.422,-0.5154541174383196, -2.1610328113883153, -1.142607548712201, -1.4092976718471224, 1.5689123868846204, 1.2250781059145666,0.0, 0.0, 0.0, 0.0, 0.0, 0.0,1.0,-8732.378373788484, -2828.0715850269144, 21510.420857875804, -76.73432932230449, 220.63969416584416, 38.178487139550754,1.0,769
16765.43,-0.5154541174383196, -2.1610328113883153, -1.142607548712201, -1.4092976718471224, 1.5689123868846204, 1.2250781059145666,0.0, 0.0, 0.0, 0.0, 0.0, 0.0,1.0,-8732.232388721752, -2828.217973867573, 21510.52812315326, -76.72293779291692, 220.64025717548913, 38.17577140420272,1.0,769
16765.438,-0.5154541174383196, -2.1610328113883153, -1.142607548712201, -1.4092976718471224, 1.5689123868846204, 1.2250781059145666,0.0, 0.0, 0.0, 0.0, 0.0, 0.0,1.0,-8732.558931815403, -2828.282006836812, 21510.772370582756, -76.72217736067662, 220.6412177503109, 38.1749357873158,1.0,769
16765.446,-0.5154541174383196, -2.1610328113883153, -1.142607548712201, -1.4092976718471224, 1.5689123868846204, 1.2250781059145666,0.0, 0.0, 0.0, 0.0, 0.0, 0.0,1.0,-8732.404170148206, -2828.104601320063, 21510.842535415373, -76.72608015960199, 220.62995850998294, 38.17609827942945,1.0,769
16765.453999999998,-0.5154541174383196, -2.1610328113883153, -1.142607548712201, -1.4092976718471224, 1.5689123868846204, 1.2250781059145666,0.0, 0.0, 0.0, 0.0, 0.0, 0.0,1.0,-8732.43687302877, -2827.8806965692484, 21511.134290946335, -76.72104742675583, 220.6372324566022, 38.17711181112378,1.0,769
16765.462,-0.5154541174383196, -2.1610328113883153, -1.142607548712201, -1.4092976718471224, 1.5689123868846204, 1.2250781059145666,0.0, 0.0, 0.0, 0.0, 0.0, 0.0,1.0,-8732.495732439424, -2828.0642509202617, 21511.2813107173, -76.71737315239858, 220.64806443738922, 38.18001595784213,1.0,769
16765.469999999998,-0.5154541174383196, -2.1610328113883153, -1.142607548712201, -1.4092976718471224, 1.5689123868846204, 1.2250781059145666,0.0, 0.0, 0.0, 0.0, 0.0, 0.0,1.0,-8732.417277708788, -2828.083494921795, 21511.08247812778, -76.716469269046, 220.63664631586607, 38.17609857496552,1.0,769
16765.478,-0.5154541174383196, -2.1610328113883153, -1.142607548712201, -1.4092976718471224, 1.5689123868846204, 1.2250781059145666,0.0, 0.0, 0.0, 0.0, 0.0, 0.0,1.0,-8732.502726904087, -2827.8875598274744, 21511.190360470086, -76.71976194310983, 220.63210722848493, 38.1776570591484,1.0,769
16765.486,-0.5154541174383196, -2.1610328113883153, -1.142607548712201, -1.4092976718471224, 1.5689123868846204, 1.2250781059145666,0.0, 0.0, 0.0, 0.0, 0.0, 0.0,1.0,-8732.367502559855, -2828.09285012893, 21510.938576433928, -76.72638131836806, 220.6400243854369, 38.17281095554961,1.0,769
16765.494,-0.5154541174383196, -2.1610328113883153, -1.142607548712201, -1.4092976718471224, 1.5689123868846204, 1.2250781059145666,0.0, 0.0, 0.0, 0.0, 0.0, 0.0,1.0,-8732.138381446855, -2828.147160769543, 21510.812030207224, -76.71652497438697, 220.63962243550293, 38.183940417468875,1.0,769
16765.502,-0.5154541174383196, -2.1610328113883153, -1.142607548712201, -1.4092976718471224, 1.5689123868846204, 1.2250781059145666,0.0, 0.0, 0.0, 0.0, 0.0, 0.0,1.0,-8732.453244151431, -2827.9253875015556, 21510.49968087972, -76.72018209589774, 220.63208326069685, 38.17647518702546,1.0,769
16765.51,-0.5154541174383196, -2.1610328113883153, -1.142607548712201, -1.4092976718471224, 1.5689123868846204, 1.2250781059145666,0.0, 0.0, 0.0, 0.0, 0.0, 0.0,1.0,-8732.323035289122, -2827.7228476184173, 21510.24345527475, -76.72647472653617, 220.6345306280723, 38.17595396506323,1.0,769
16765.518,-0.5154541174383196, -2.1610328113883153, -1.142607548712201, -1.4092976718471224, 1.5689123868846204, 1.2250781059145666,0.0, 0.0, 0.0, 0.0, 0.0, 0.0,1.0,-8732.088413576059, -2828.067076764054, 21510.65278601323, -76.72869152213701, 220.64540307774604, 38.179056014821896,1.0,769
16765.525999999998,-0.5154541174383196, -2.1610328113883153, -1.142607548712201, -1.4092976718471224, 1.5689123868846204, 1.2250781059145666,0.0, 0.0, 0.0, 0.0, 0.0, 0.0,1.0,-8732.163614330946, -2828.2069549541175, 21510.61861561021, -76.72000564596098, 220.63603880968503, 38.1790499450307,1.0,769
16765.534,-0.5154541174383196, -2.1610328113883153, -1.142607548712201, -1.4092976718471224, 1.5689123868846204, 1.2250781059145666,0.0, 0.0, 0.0, 0.0, 0.0, 0.0,1.0,-8732.60240775998, -2828.069785464184, 21510.68724403407, -76.72292917033445, 220.63764623571188, 38.17658176270709,1.0,769
16765.541999999998,-0.5154541174383196, -2.1610328113883153, -1.142607548712201, -1.4092976718471224, 1.5689123868846204, 1.2250781059145666,0.0, 0.0, 0.0, 0.0, 0.0, 0.0,1.0,-8732.54409562591, -2827.9272645263027, 21510.87275256041, -76.72398035214033, 220.6383830973174, 38.18003186983978,1.0,769
16765.55,-0.5154541174383196, -2.1610328113883153, -1.142607548712201, -1.4092976718471224, 1.5689123868846204, 1.2250781059145666,0.0, 0.0, 0.0, 0.0, 0.0, 0.0,1.0,-8732.258043816695, -2828.0499961659752, 21511.017380203764, -76.71811384982081, 220.63817183042283, 38.17830850632703,1.0,769
16765.558,-0.5154541174383196, -2.1610328113883153, -1.142607548712201, -1.4092976718471224, 1.5689123868846204, 1.2250781059145666,0.0, 0.0, 0.0, 0.0, 0.0, 0.0,1.0,-8732.427197096193, -2828.0353760860353, 21511.057508966973, -76.7116947564156, 220.64357552979385, 38.17678116574396,1.0,769
16765.566,-0.5154541174383196, -2.1610328113883153, -1.142607548712201, -1.4092976718471224, 1.5689123868846204, 1.2250781059145666,0.0, 0.0, 0.0, 0.0, 0.0, 0.0,1.0,-8732.305803931413, -2828.0232297417115, 21511.077028137446, -76.72564266343701, 220.63931765137363, 38.180119008817655,1.0,769
16765.574,-0.5154541174383196, -2.1610328113883153, -1.142607548712201, -1.4092976718471224, 1.5689123868846204, 1.2250781059145666,0.0, 0.0, 0.0, 0.0, 0.0, 0.0,1.0,-8732.181787736048, -2827.9664059446604, 21510.943738175894, -76.72318010886329, 220.63124185766122, 38.18095498301892,1.0,769
16765.582,-0.5154541174383196, -2.1610328113883153, -1.142607548712201, -1.4092976718471224, 1.5689123868846204, 1.2250781059145666,0.0, 0.0, 0.0, 0.0, 0.0, 0.0,1.0,-8732.567405007538, -2828.1796036761352, 21510.864006487653, -76.71662694081365, 220.64071764462727, 38.17590699112981,1.0,769
16765.59,-0.5154541174383196, -2.1610328113883153, -1.142607548712201, -1.4092976718471224, 1.5689123868846204, 1.2250781059145666,0.0, 0.0, 0.0, 0.0, 0.0, 0.0,1.0,-8732.31369071487, -2828.269792201505, 21510.64988163751, -76.72200689561444, 220.64024918136295, 38.17789329231246,1.0,769
16765.597999999998,-0.5154541174383196, -2.1610328113883153, -1.142607548712201, -1.4092976718471224, 1.5689123868846204, 1.2250781059145666,0.0, 0.0, 0.0, 0.0, 0.0, 0.0,1.0,-8732.741421190078, -2827.9242392816777, 21510.574480955987, -76.72494707693775, 220.64799457510668, 38.180267177599205,1.0,769
16765.606,-0.5154541174383196, -2.1610328113883153, -1.142607548712201, -1.4092976718471224, 1.5689123868846204, 1.2250781059145666,0.0, 0.0, 0.0, 0.0, 0.0, 0.0,1.0,-8732.250692804982, -2827.9736206651396, 21510.57831318702, -76.72553984594083, 220.62975386746314, 38.17208730350285,1.0,769
16765.613999999998,-0.5154541174383196, -2.1610328113883153, -1.142607548712201, -1.4092976718471224, 1.5689123868846204, 1.2250781059145666,0.0, 0.0, 0.0, 0.0, 0.0, 0.0,1.0,-8732.199931038822, -2828.2441472802, 21510.4578381075, -76.72458153838747, 220.62880370380338, 38.17209539996858,1.0,769
16765.622,-0.5154541174383196, -2.1610328113883153, -1.142607548712201, -1.4092976718471224, 1.5689123868846204, 1.2250781059145666,0.0, 0.0, 0.0, 0.0, 0.0, 0.0,1.0,-8732.220079345892, -2827.8361127564167, 21510.66454048524, -76.71810212826267, 220.63547776282365, 38.17941646294318,1.0,769
16765.63,-0.5154541174383196, -2.1610328113883153, -1.142607548712201, -1.4092976718471224, 1.5689123868846204, 1.2250781059145666,0.0, 0.0, 0.0, 0.0, 0.0, 0.0,1.0,-8732.480979536154, -2828.098454877573, 21510.839195392775, -76.72727183702207, 220.64205770621487, 38.17975777577715,1.0,769
16765.638,-0.5154541174383196, -2.1610328113883153, -1.142607548712201, -1.4092976718471224, 1.5689123868846204, 1.2250781059145666,0.0, 0.0, 0.0, 0.0, 0.0, 0.0,1.0,-8732.627654866434, -2828.063185399952, 21510.794554146843, -76.72021101487434, 220.64390050218577, 38.17696590286201,1.0,769
16765.646,-0.5154541174383196, -2.1610328113883153, -1.142607548712201, -1.4092976718471224, 1.5689123868846204, 1.2250781059145666,0.0, 0.0, 0.0, 0.0, 0.0, 0.0,1.0,-8732.404656620938, -2828.2181752673223, 21511.051168680664, -76.71527169312, 220.6349047773914, 38.18041866289212,1.0,769
16765.654,-0.5154541174383196, -2.1610328113883153, -1.142607548712201, -1.4092976718471224, 1.5689123868846204, 1.2250781059145666,0.0, 0.0, 0.0, 0.0, 0.0, 0.0,1.0,-8732.278113675578, -2828.1215406151314, 21511.088750486873, -76.72101109695762, 220.63941097590833, 38.181178442223,1.0,769
16765.662,-0.5154541174383196, -2.1610328113883153, -1.142607548712201, -1.4092976718471224, 1.5689123868846204, 1.2250781059145666,0.0, 0.0, 0.0, 0.0, 0.0, 0.0,1.0,-8732.144296049251, -2828.2145258088203, 21510.996176102344, -76.72321101834288, 220.63672541532088, 38.180938903623485,1.0,769
16765.67,-0.5154541174383196, -2.1610328113883153, -1.142607548712201, -1.4092976718471224, 1.5689123868846204, 1.2250781059145666,0.0, 0.0, 0.0, 0.0, 0.0, 0.0,1.0,-8732.705604750046, -2828.2213054372723, 21510.837300528296, -76.72115342296345, 220.64791633127953, 38.17806410618263,1.0,769
16765.678,-0.5154541174383196, -2.1610328113883153, -1.142607548712201, -1.4092976718471224, 1.5689123868846204, 1.2250781059145666,0.0, 0.0, 0.0, 0.0, 0.0, 0.0,1.0,-8732.172509125645, -2828.086118339732, 21510.64667881986, -76.72336761197667, 220.63449249971194, 38.17864407954298,1.0,769
16765.685999999998,-0.5154541174383196, -2.1610328113883153, -1.142607548712201, -1.4092976718471224, 1.5689123868846204, 1.2250781059145666,0.0, 0.0, 0.0, 0.0, 0.0, 0.0,1.0,-8732.192626248787, -2828.019206948985, 21510.72674007751, -76.7226884186409, 220.63839308501156, 38.17850694481365,1.0,769
16765.694,-0.5154541174383196, -2.1610328113883153, -1.142607548712201, -1.4092976718471224, 1.5689123868846204, 1.2250781059145666,0.0, 0.0, 0.0, 0.0, 0.0, 0.0,1.0,-8732.207886758428, -2828.1629081737774, 21510.579112918265, -76.7277865696534, 220.63187661477616, 38.17665562842714,1.0,769
16765.701999999997,-0.5154541174383196, -2.1610328113883153, -1.142607548712201, -1.4092976718471224, 1.5689123868846204, 1.2250781059145666,0.0, 0.0, 0.0, 0.0, 0.0, 0.0,1.0,-8732.482187515634, -2828.0246645737134, 21510.61249680729, -76.7192128644898, 220.63406141454294, 38.1739797667409,1.0,769
16765.71,-0.5154541174383196, -2.1610328113883153, -1.142607548712201, -1.4092976718471224, 1.5689123868846204, 1.2250781059145666,0.0, 0.0, 0.0, 0.0, 0.0, 0.0,1.0,-8732.385585828519, -2828.086274440676, 21510.68477439617, -76.72496678315835, 220.63788222483907, 38.18021813992934,1.0,769
16765.718,-0.5154541174383196, -2.1610328113883153, -1.142607548712201, -1.4092976718471224, 1.5689123868846204, 1.2250781059145666,0.0, 0.0, 0.0, 0.0, 0.0, 0.0,1.0,-8732.426558427393, -2828.0628250714735, 21510.824101825434, -76.72358456335758, 220.64089094220793, 38.17780853665593,1.0,769
16765.726,-0.5154541174383196, -2.1610328113883153, -1.142607548712201, -1.4092976718471224, 1.5689123868846204, 1.2250781059145666,0.0, 0.0, 0.0, 0.0, 0.0, 0.0,1.0,-8732.2418192468, -2827.982777183698, 21510.789034012985, -76.71599597523132, 220.63362268259579, 38.1831457653127,1.0,769
16765.734,-0.5154541174383196, -2.1610328113883153, -1.142607548712201, -1.4092976718471224, 1.5689123868846204, 1.2250781059145666,0.0, 0.0, 0.0, 0.0, 0.0, 0.0,1.0,-8732.712029711867, -2828.3369341491652, 21510.895746028847, -76.7254809640047, 220.6410544802074, 38.17606443493764,1.0,769
16765.742,-0.5154541174383196, -2.1610328113883153, -1.142607548712201, -1.4092976718471224, 1.5689123868846204, 1.2250781059145666,0.0, 0.0, 0.0, 0.0, 0.0, 0.0,1.0,-8732.21404692719, -2828.2161692859563, 21510.959603851144, -76.72404737380415, 220.63216333509138, 38.17772358211036,1.0,769
16765.75,-0.5154541174383196, -2.1610328113883153, -1.142607548712201, -1.4092976718471224, 1.5689123868846204, 1.2250781059145666,0.0, 0.0, 0.0, 0.0, 0.0, 0.0,1.0,-8732.252925323965, -2827.9701879873674, 21510.833362959605, -76.71854315647346, 220.63798700202778, 38.18043522468949,1.0,769
16765.757999999998,-0.5154541174383196, -2.1610328113883153, -1.142607548712201, -1.4092976718471224, 1.5689123868846204, 1.2250781059145666,0.0, 0.0, 0.0, 0.0, 0.0, 0.0,1.0,-8732.186156253183, -2828.038632371712, 21510.782331736154, -76.71491330275543, 220.63484050205898, 38.180911425192534,1.0,769
16765.766,-0.5154541174383196, -2.1610328113883153, -1.142607548712201, -1.4092976718471224, 1.5689123868846204, 1.2250781059145666,0.0, 0.0, 0.0, 0.0, 0.0, 0.0,1.0,-8732.356110682056, -2828.156214678266, 21510.70545809968, -76.72246850936281, 220.63809505590814, 38.17879180540024,1.0,769
16765.773999999998,-0.5154541174383196, -2.1610328113883153, -1.142607548712201, -1.4092976718471224, 1.5689123868846204, 1.2250781059145666,0.0, 0.0, 0.0, 0.0, 0.0, 0.0,1.0,-8732.292549304755, -2828.0263704195695, 21510.723410840394, -76.72329502193449, 220.63356751178844, 38.177592777865016,1.0,769
16765.782,-0.5154541174383196, -2.1610328113883153, -1.142607548712201, -1.4092976718471224, 1.5689123868846204, 1.2250781059145666,0.0, 0.0, 0.0, 0.0, 0.0, 0.0,1.0,-8732.102673051084, -2828.059223748479, 21510.56074933882, -76.72137146072444, 220.63837735104113, 38.1786520053015,1.0,769
16765.79,-0.5154541174383196, -2.1610328113883153, -1.142607548712201, -1.4092976718471224, 1.5689123868846204, 1.2250781059145666,0.0, 0.0, 0.0, 0.0, 0.0, 0.0,1.0,-8732.458268284445, -2827.8851511088924, 21510.591471964715, -76.71443178693735, 220.64114259733776, 38.1778271301329,1.0,769
16765.798,-0.5154541174383196, -2.1610328113883153, -1.142607548712201, -1.4092976718471224, 1.5689123868846204, 1.2250781059145666,0.0, 0.0, 0.0, 0.0, 0.0, 0.0,1.0,-8732.23133759753, -2827.913023015074, 21510.64598539734, -76.72277870069709, 220.63528074496105, 38.17943606951286,1.0,769
16765.806,-0.5154541174383196, -2.1610328113883153, -1.142607548712201, -1.4092976718471224, 1.5689123868846204, 1.2250781059145666,0.0, 0.0, 0.0, 0.0, 0.0, 0.0,1.0,-8732.339901703454, -2828.090722806568, 21510.723178301723, -76.72470062707984, 220.6367483885844, 38.177074572429746,1.0,769
16765.814,-0.5154541174383196, -2.1610328113883153, -1.142607548712201, -1.4092976718471224, 1.5689123868846204, 1.2250781059145666,0.0, 0.0, 0.0, 0.0, 0.0, 0.0,1.0,-8732.367744952291, -2828.1888042862165, 21510.84245862734, -76.71849113857593, 220.63808145724795, 38.17768578437202,1.0,769
16765.822,-0.5154541174383196, -2.1610328113883153, -1.142607548712201, -1.4092976718471224, 1.5689123868846204, 1.2250781059145666,0.0, 0.0, 0.0, 0.0, 0.0, 0.0,1.0,-8732.387907050803, -2828.1342877068273, 21510.921431153147, -76.72287910866686, 220.63365413590668, 38.17897777513761,1.0,769
16765.829999999998,-0.5154541174383196, -2.1610328113883153, -1.142607548712201, -1.4092976718471224, 1.5689123868846204, 1.2250781059145666,0.0, 0.0, 0.0, 0.0, 0.0, 0.0,1.0,-8732.537601407375, -2828.023267223404, 21510.92013545092, -76.72114264866451, 220.64126387497294, 38.17662760346482,1.0,769
16765.838,-0.515451131077409, -2.1610308985967617, -1.1426111112951682, -1.4092960246387412, 1.5689124043196574, 1.2250821818096471,0.44719412481428594, 0.28643193851757476, -0.533480788059442, 0.24666205206058628, 0.002610818430662453, 0.6103469700100989,1.0,-8732.303876849028, -2828.068804650804, 21511.08453886253, -76.72063288853789, 220.63785328448682, 38.18030947418461,1.0,769
16765.845999999998,-0.5153986191119779, -2.1609972642012742, -1.142673755509719, -1.4092670602395412, 1.568912710896152, 1.2251538520691865,0.4471941248142859, 0.2864319385175748, -0.533480788059442, 0.2466620520605863, 0.002610818430662453, 0.6103469700100989,1.0,-8732.575137627206, -2829.156826606826, 21510.64254361753, -76.69348790354388, 220.62107088592472, 38.16725911820893,1.0,769
16765.854,-0.5152806334856352, -2.160921693325461, -1.142814506609584, -1.4092019820663442, 1.5689133997223925, 1.2253148831864282,0.4471941248142859, 0.2864319385175748, -0.5334807880594421, 0.2466620520605863, 0.002610818430662453, 0.610346970010099,1.0,-8731.669674739658, -2829.998236961109, 21510.708970042822, -76.66767063131434, 220.65310954510102, 38.10788748446092,1.0,769
16765.862,-0.5150971741983819, -2.160804185969324, -1.1430333645947632, -1.409100790119151, 1.568914470798379, 1.225565275161372,0.44719412481428594, 0.28643193851757476, -0.533480788059442, 0.2466620520605863, 0.0026108184306624536, 0.6103469700100989,1.0,-8732.168055649567, -2828.6590317854752, 21511.12198103817, -76.7150532741849, 220.63152083612806, 38.0460543489215,1.0,769
16765.87,-0.5148482412502169, -2.1606447421328614, -1.1433303294652566, -1.40896348439796, 1.5689159241241117, 1.2259050279940176,0.4471941248142859, 0.2864319385175748, -0.5334807880594421, 0.2466620520605863, 0.0026108184306624536, 0.6103469700100989,1.0,-8731.78151011641, -2829.5843565831065, 21511.29964680902, -76.66777926330008, 220.667410010122, 37.97565531559903,1.0,769
16765.878,-0.5145338346411403, -2.1604433618160748, -1.143705401221065, -1.4087900649027727, 1.5689177596995905, 1.2263341416843656,0.4471941248142859, 0.28643193851757476, -0.533480788059442, 0.2466620520605863, 0.002610818430662453, 0.6103469700100989,1.0,-8731.83313533875, -2829.7984395524163, 21510.78565113719, -76.65311022099974, 220.64272998249646, 37.888642579611684,1.0,769
16765.886,-0.5141539543711522, -2.1602000450189625, -1.1441585798621876, -1.4085805316335875, 1.568919977524815, 1.2268526162324156,0.447194124814286, 0.28643193851757476, -0.5334807880594421, 0.2466620520605863, 0.0026108184306624536, 0.6103469700100989,1.0,-8732.082163897901, -2829.0171430673645, 21510.802908420425, -76.65500281440501, 220.63750024657776, 37.9103161431552,1.0,769
16765.894,-0.5137086004402533, -2.1599147917415245, -1.1446898653886244, -1.4083348845904062, 1.5689225775997857, 1.2274604516381677,0.44719412481428594, 0.2864319385175748, -0.5334807880594421, 0.24666205206058633, 0.0026108184306624536, 0.610346970010099,1.0,-8732.39105630467, -2828.3793880593403, 21510.694340716458, -76.6828785796672, 220.62335118599628, 37.91242080890825,1.0,769
16765.902,-0.5131977728484429, -2.1595876019837625, -1.1452992578003762, -1.408053123773227, 1.5689255599245024, 1.228157647901622,0.44719412481428594, 0.2864319385175748, -0.5334807880594421, 0.24666205206058633, 0.0026108184306624536, 0.610346970010099,1.0,-8732.529703797944, -2829.0062293501505, 21510.68779552053, -76.6673363950041, 220.6306068472008, 37.91636424015027,1.0,769
16765.91,-0.51262147159572, -2.159218475745676, -1.1459867570974422, -1.4077352491820516, 1.568928924498965, 1.2289442050227783,0.44719412481428583, 0.28643193851757476, -0.533480788059442, 0.24666205206058628, 0.002610818430662453, 0.6103469700100989,1.0,-8731.840961277068, -2829.2768456734457, 21510.43182672677, -76.65888343802192, 220.6562583539776, 37.91649744567911,1.0,769
16765.917999999998,-0.5119796966820864, -2.1588074130272643, -1.1467523632798224, -1.4073812608168783, 1.568932671323174, 1.2298201230016368,0.44719412481428594, 0.28643193851757476, -0.5334807880594421, 0.2466620520605863, 0.0026108184306624536, 0.6103469700100989,1.0,-8732.236807534495, -2828.82371691535, 21510.192238502932, -76.66233193669908, 220.63032427880114, 37.91973454803244,1.0,769
16765.926,-0.5112724481075421, -2.158354413828527, -1.1475960763475177, -1.4069911586777089, 1.5689368003971287, 1.2307854018381974,0.44719412481428594, 0.28643193851757476, -0.5334807880594421, 0.2466620520605863, 0.0026108184306624536, 0.6103469700100989,1.0,-8731.919155497331, -2828.6478306148465, 21510.207820579144, -76.66194540325898, 220.63473403123288, 37.92843924536362,1.0,769
16765.933999999997,-0.5104997258720854, -2.157859478149465, -1.1485178963005271, -1.4065649427645424, 1.5689413117208293, 1.2318400415324602,0.44719412481428594, 0.28643193851757476, -0.5334807880594421, 0.2466620520605863, 0.002610818430662453, 0.6103469700100989,1.0,-8731.378864922654, -2829.229396606019, 21510.299258533945, -76.65670575013738, 220.65571640034375, 37.92417810063645,1.0,769
16765.942,-0.5096615299757179, -2.1573226059900783, -1.1495178231388508, -1.4061026130773788, 1.5689462052942762, 1.232984042084425,0.4471941248142859, 0.28643193851757476, -0.533480788059442, 0.24666205206058628, 0.002610818430662453, 0.6103469700100989,1.0,-8731.752121141615, -2829.6410090257823, 21510.444080205994, -76.65223621377916, 220.665247097646, 37.91819997466561,1.0,769
16765.95,-0.5087578604184388, -2.1567437973503676, -1.1505958568624886, -1.4056041696162183, 1.568951481117469, 1.2342174034940918,0.4471941248142859, 0.28643193851757476, -0.533480788059442, 0.2466620520605863, 0.002610818430662453, 0.6103469700100989,1.0,-8731.408801812819, -2829.0049568423856, 21510.892290067353, -76.66386167114354, 220.65845187852148, 37.93193601709771,1.0,769
16765.958,-0.5077887172002482, -2.156123052230331, -1.1517519974714414, -1.4050696123810607, 1.5689571391904078, 1.2355401257614609,0.44719412481428594, 0.2864319385175748, -0.5334807880594421, 0.2466620520605863, 0.0026108184306624536, 0.610346970010099,1.0,-8732.289634685014, -2829.4608029749324, 21510.852837551643, -76.65751180186899, 220.6338908733614, 37.924965134568794,1.0,769
16765.966,-0.506754100321146, -2.155460370629969, -1.1529862449657076, -1.4044989413719051, 1.5689631795130925, 1.2369522088865321,0.4471941248142859, 0.2864319385175748, -0.533480788059442, 0.24666205206058633, 0.002610818430662453, 0.6103469700100989,1.0,-8732.696215877699, -2829.6304245971587, 21510.58500450514, -76.64917532686471, 220.60299670375696, 37.915299666137514,1.0,769
16765.974,-0.5056540097811331, -2.154755752549283, -1.1542985993452888, -1.4038921565887534, 1.5689696020855233, 1.2384536528693053,0.44719412481428594, 0.2864319385175748, -0.5334807880594421, 0.24666205206058633, 0.0026108184306624536, 0.610346970010099,1.0,-8732.236930190667, -2828.955678246224, 21510.81494174663, -76.66982327772169, 220.62072622815077, 37.923083918531404,1.0,769
16765.982,-0.5044884455802077, -2.1540091979882714, -1.155689060610185, -1.4032492580316056, 1.5689764069077001, 1.2400444577097807,0.4471941248142859, 0.2864319385175748, -0.533480788059442, 0.24666205206058628, 0.0026108184306624536, 0.6103469700100989,1.0,-8732.372370626781, -2828.9425022612486, 21511.142170406714, -76.66451756696719, 220.6414782608312, 37.91409646524656,1.0,769
16765.989999999998,-0.5032574077183716, -2.153220706946935, -1.1571576287603955, -1.4025702457004599, 1.568983593979623, 1.2417246234079582,0.44719412481428594, 0.2864319385175748, -0.5334807880594421, 0.24666205206058633, 0.002610818430662453, 0.6103469700100989,1.0,-8730.902847634461, -2828.2795538900773, 21511.366319568242, -76.69480203509818, 220.6873280987931, 37.928903918892956,1.0,769
16765.998,-0.5019608961956239, -2.1523902794252736, -1.1587043037959202, -1.401855119595317, 1.568991163301292, 1.2434941499638377,0.4471941248142859, 0.28643193851757476, -0.533480788059442, 0.24666205206058628, 0.002610818430662453, 0.6103469700100989,1.0,-8732.17078917981, -2829.3925230636287, 21511.03072385896, -76.65832007140011, 220.63942381548458, 37.910824909812334,1.0,769
16766.005999999998,-0.5005989110119646, -2.1515179154232875, -1.160329085716759, -1.4011038797161772, 1.568999114872707, 1.2453530373774193,0.44719412481428594, 0.2864319385175748, -0.5334807880594421, 0.24666205206058633, 0.0026108184306624536, 0.6103469700100989,1.0,-8732.461763914162, -2829.5455239739267, 21510.565127114107, -76.65372278046922, 220.62530176045095, 37.92360228067352,1.0,769
16766.014,-0.49917145216739467, -2.1506036149409766, -1.1620319745229128, -1.4003165260630404, 1.5690074486938679, 1.2473012856487031,0.4471941248142859, 0.28643193851757476, -0.533480788059442, 0.2466620520605863, 0.0026108184306624527, 0.6103469700100989,1.0,-8732.745997299966, -2829.353859667196, 21510.23413953402, -76.6488595306549, 220.59932894785504, 37.89974046202437,1.0,769
16766.022,-0.49767851966191223, -2.14964737797834, -1.163812970214381, -1.3994930586359065, 1.5690161647647747, 1.2493388947776891,0.44719412481428594, 0.28643193851757476, -0.5334807880594421, 0.2466620520605863, 0.002610818430662453, 0.6103469700100989,1.0,-8731.498913856341, -2828.896928924125, 21510.61836155401, -76.67168845197062, 220.62751494895298, 37.92883978904078,1.0,769
16766.03,-0.4961201134955191, -2.1486492045353796, -1.1656720727911631, -1.3986334774347764, 1.5690252630854278, 1.251465864764377,0.44719412481428594, 0.28643193851757476, -0.533480788059442, 0.2466620520605863, 0.002610818430662453, 0.6103469700100989,1.0,-8731.062519081586, -2829.0731559270907, 21510.85127852304, -76.67022728679302, 220.68108257072726, 37.92631510616465,1.0,769
16766.038,-0.4944962336682144, -2.1476090946120934, -1.1676092822532596, -1.3977377824596484, 1.5690347436558267, 1.2536821956087671,0.44719412481428594, 0.2864319385175748, -0.5334807880594421, 0.2466620520605863, 0.002610818430662453, 0.6103469700100989,1.0,-8732.025954620138, -2828.658164164178, 21510.760960673517, -76.66454820516915, 220.65342226264488, 37.910591338373166,1.0,769
16766.046,-0.4928068801799981, -2.1465270482084833, -1.169624598600671, -1.3968059737105243, 1.5690446064759715, 1.2559878873108594,0.44719412481428594, 0.28643193851757476, -0.5334807880594421, 0.2466620520605863, 0.002610818430662453, 0.6103469700100989,1.0,-8732.812588131943, -2828.8904192049067, 21510.50098192291, -76.65984240798261, 220.62305670249464, 37.92089906803912,1.0,769
16766.054,-0.49105205303087107, -2.1454030653245475, -1.1717180218333967, -1.3958380511874022, 1.5690548515458627, 1.2583829398706539,0.44719412481428594, 0.2864319385175748, -0.5334807880594421, 0.24666205206058633, 0.0026108184306624536, 0.610346970010099,1.0,-8733.523369656816, -2828.5199621019638, 21510.745126238726, -76.67843572402867, 220.60878220287822, 37.91331845150626,1.0,769
16766.061999999998,-0.4892317522208316, -2.144237145960286, -1.1738895519514365, -1.394834014890284, 1.5690654788654996, 1.2608673532881502,0.44719412481428594, 0.2864319385175748, -0.5334807880594421, 0.2466620520605863, 0.0026108184306624536, 0.6103469700100989,1.0,-8730.92351540515, -2829.027576322842, 21511.188925518734, -76.66664710328956, 220.70191338922723, 37.90533258319377,1.0,769
16766.07,-0.4873459777498814, -2.1430292901157006, -1.1761391889547914, -1.393793864819168, 1.5690764884348827, 1.2634411275633488,0.4471941248142859, 0.28643193851757476, -0.533480788059442, 0.2466620520605863, 0.002610818430662453, 0.6103469700100989,1.0,-8732.265150854766, -2828.3436197868623, 21511.620718342383, -76.68137060055233, 220.63736842188194, 37.9123724268492,1.0,769
16766.077999999998,-0.48539472961801966, -2.1417794977907905, -1.1784669328434605, -1.3927176009740556, 1.5690878802540118, 1.2661042626962495,0.4471941248142859, 0.28643193851757476, -0.533480788059442, 0.24666205206058625, 0.002610818430662453, 0.6103469700100989,1.0,-8732.51991345561, -2828.7602197878095, 21510.557437640735, -76.66285710777254, 220.6135233380527, 37.92137357841543,1.0,769
16766.086,-0.4833780078252463, -2.1404877689855546, -1.1808727836174437, -1.3916052233549454, 1.5690996543228868, 1.2688567586868522,0.4471941248142859, 0.28643193851757476, -0.533480788059442, 0.2466620520605863, 0.002610818430662453, 0.6103469700100989,1.0,-8732.101309301715, -2829.2868973267123, 21510.65190661058, -76.65436705201543, 220.63801587265658, 37.901515784855974,1.0,769
16766.094,-0.48129581237156227, -2.139154103699995, -1.1833567412767412, -1.390456731961839, 1.5691118106415078, 1.2716986155351573,0.44719412481428594, 0.2864319385175748, -0.5334807880594421, 0.2466620520605863, 0.0026108184306624536, 0.6103469700100989,1.0,-8732.12929264625, -2828.8529025040543, 21511.04320075793, -76.6679637231131, 220.66319982245875, 37.90780028361482,1.0,769
16766.102,-0.47914814325696575, -2.1377785019341093, -1.1859188058213537, -1.3892721267947348, 1.569124349209875, 1.2746298332411643,0.44719412481428594, 0.28643193851757476, -0.533480788059442, 0.2466620520605863, 0.0026108184306624536, 0.6103469700100989,1.0,-8733.028123079437, -2829.1992419348153, 21510.456499200012, -76.66479797561917, 220.60792607250937, 37.900256132194045,1.0,769
16766.11,-0.47693500048145854, -2.136360963687899, -1.1885589772512803, -1.3880514078536343, 1.5691372700279882, 1.2776504118048733,0.4471941248142859, 0.28643193851757476, -0.533480788059442, 0.2466620520605863, 0.002610818430662453, 0.6103469700100989,1.0,-8731.953595172692, -2829.490615091252, 21510.5260663486, -76.65355867444515, 220.64672125534236, 37.909556291473166,1.0,769
16766.118,-0.47465638404503974, -2.134901488961364, -1.191277255566522, -1.3867945751385369, 1.5691505730958473, 1.2807603512262846,0.4471941248142859, 0.28643193851757476, -0.533480788059442, 0.24666205206058628, 0.002610818430662453, 0.6103469700100989,1.0,-8732.145097895102, -2828.873193429602, 21510.67887785721, -76.6592980230752, 220.63598507011676, 37.90933315393099,1.0,769
16766.126,-0.47231229394770935, -2.133400077754504, -1.1940736407670771, -1.3855016286494424, 1.5691642584134524, 1.283959651505398,0.44719412481428594, 0.28643193851757476, -0.5334807880594421, 0.2466620520605863, 0.0026108184306624536, 0.6103469700100989,1.0,-8732.39003194798, -2828.276656408583, 21510.374328166803, -76.6755263871934, 220.63529649305406, 37.91440284341925,1.0,769
16766.134,-0.46990273018946827, -2.1318567300673195, -1.1969481328529472, -1.3841725683863508, 1.5691783259808036, 1.2872483126422134,0.44719412481428594, 0.28643193851757476, -0.533480788059442, 0.2466620520605863, 0.002610818430662453, 0.6103469700100989,1.0,-8732.34287882054, -2829.2233592636912, 21510.588777524536, -76.6469206587114, 220.6468445529705, 37.911514801451574,1.0,769
16766.142,-0.4674276927703147, -2.130271445899809, -1.1999007318241315, -1.3828073943492623, 1.5691927757979007, 1.2906263346367308,0.4471941248142859, 0.28643193851757476, -0.533480788059442, 0.24666205206058628, 0.002610818430662453, 0.6103469700100989,1.0,-8732.762012991283, -2829.3016530273944, 21510.345668557766, -76.64046134344002, 220.6076313429154, 37.906952880190204,1.0,769
16766.149999999998,-0.46488718169025045, -2.128644225251975, -1.2029314376806308, -1.3814061065381766, 1.5692076078647441, 1.2940937174889506,0.447194124814286, 0.2864319385175748, -0.5334807880594421, 0.2466620520605863, 0.0026108184306624536, 0.6103469700100989,1.0,-8731.532802540078, -2828.4939328879864, 21510.81213627611, -76.67915030269646, 220.66248937621958, 37.90992044922817,1.0,769
16766.158,-0.4622811969492746, -2.126975068123814, -1.2060402504224434, -1.379968704953094, 1.5692228221813331, 1.2976504611988724,0.44719412481428594, 0.28643193851757476, -0.5334807880594421, 0.2466620520605863, 0.002610818430662453, 0.6103469700100989,1.0,-8731.809548333293, -2829.5219848904762, 21511.19055202058, -76.6479976561921, 220.64877205123832, 37.90955331264345,1.0,769
16766.165999999997,-0.4596097385473872, -2.1252639745153292, -1.2092271700495711, -1.3784951895940143, 1.5692384187476685, 1.301296565766496,0.4471941248142859, 0.28643193851757476, -0.533480788059442, 0.2466620520605863, 0.0026108184306624536, 0.6103469700100989,1.0,-8732.022539431458, -2828.876787029245, 21510.797221397952, -76.66607607276063, 220.6503638450493, 37.910689631138524,1.0,769
16766.174,-0.45687280648458817, -2.1235109444265206, -1.212492196562014, -1.3769855604609376, 1.5692543975637496, 1.3050320311918222,0.44719412481428594, 0.2864319385175748, -0.5334807880594421, 0.2466620520605863, 0.0026108184306624536, 0.6103469700100989,1.0,-8732.517529333674, -2829.082372149218, 21511.0219169785, -76.65327913754842, 220.64614135651078, 37.91159966983403,1.0,769
16766.182,-0.45407040076087846, -2.121715977857386, -1.21583532995977, -1.3754398175538638, 1.569270758629577, 1.3088568574748503,0.4471941248142859, 0.28643193851757476, -0.5334807880594421, 0.2466620520605863, 0.002610818430662453, 0.6103469700100989,1.0,-8732.692014048649, -2828.657391551763, 21511.003401754937, -76.67345219283374, 220.60929898640023, 37.908558683197356,1.0,769
16766.19,-0.45120252137625716, -2.119879074807926, -1.219256570242841, -1.3738579608727939, 1.5692875019451502, 1.3127710446155805,0.44719412481428594, 0.28643193851757476, -0.533480788059442, 0.2466620520605863, 0.002610818430662453, 0.6103469700100989,1.0,-8732.179960367328, -2828.21825307353, 21511.116759286855, -76.66246779739501, 220.6455567503711, 37.90480303008442,1.0,769
16766.198,-0.4482691683307243, -2.118000235278142, -1.2227559174112272, -1.372239990417726, 1.5693046275104696, 1.3167745926140129,0.44719412481428594, 0.2864319385175748, -0.5334807880594421, 0.2466620520605863, 0.002610818430662453, 0.6103469700100989,1.0,-8733.636064369279, -2828.986467708557, 21511.089373716997, -76.6448471961719, 220.58744954175717, 37.87231409290453,1.0,769
16766.206,-0.4452703416242798, -2.1160794592680325, -1.2263333714649267, -1.3705859061886612, 1.5693221353255349, 1.3208675014701472,0.4471941248142859, 0.28643193851757476, -0.533480788059442, 0.24666205206058628, 0.002610818430662453, 0.6103469700100989,1.0,-8731.401458088701, -2828.1533316063587, 21510.962614526514, -76.68070684333267, 220.72167931706372, 37.88498140927882,1.0,769
16766.214,-0.44220604125692375, -2.114116746777598, -1.2299889324039412, -1.3688957081855992, 1.5693400253903462, 1.3250497711839837,0.44719412481428583, 0.28643193851757476, -0.533480788059442, 0.24666205206058628, 0.0026108184306624527, 0.6103469700100989,1.0,-8734.97051738614, -2829.092632510007, 21511.087690684257, -76.64479417643167, 220.54264384041534, 37.884611390799535,1.0,769
16766.221999999998,-0.439076267228657, -2.112112097806839, -1.23372260022827, -1.3671693964085412, 1.5693582977049036, 1.3293214017555224,0.44719412481428594, 0.28643193851757476, -0.533480788059442, 0.24666205206058628, 0.002610818430662453, 0.6103469700100989,1.0,-8730.851098653884, -2828.819374510097, 21511.185645799334, -76.66748221663539, 220.73618354855972, 37.88331088613651,1.0,769
16766.23,-0.4358810195394778, -2.110065512355755, -1.2375343749379129, -1.3654069708574852, 1.569376952269207, 1.3336823931847632,0.44719412481428594, 0.28643193851757476, -0.5334807880594421, 0.2466620520605863, 0.002610818430662453, 0.610346970010099,1.0,-8733.429544500526, -2829.6509623789616, 21511.095099874103, -76.62678851179567, 220.56803662315252, 37.89212251872726,1.0,769
16766.237999999998,-0.43262029818938785, -2.107976990424346, -1.2414242565328708, -1.363608431532433, 1.5693959890832563, 1.338132745471706,0.44719412481428594, 0.28643193851757476, -0.533480788059442, 0.2466620520605863, 0.0026108184306624536, 0.6103469700100989,1.0,-8730.159484786189, -2828.7675147940927, 21510.957516663944, -76.67834647279142, 220.75404541144138, 37.88333628829545,1.0,769
16766.246,-0.42929410317838634, -2.1058465320126114, -1.245392245013143, -1.361773778433383, 1.5694154081470517, 1.342672458616351,0.447194124814286, 0.2864319385175748, -0.5334807880594421, 0.2466620520605863, 0.0026108184306624536, 0.610346970010099,1.0,-8735.038220655779, -2830.540146513311, 21511.39410696809, -76.61665399609589, 220.52810728671898, 37.901643038422066,1.0,769
16766.254,-0.42590243450647414, -2.103674137120553, -1.2494383403787293, -1.3599030115603368, 1.5694352094605932, 1.3473015326186981,0.4471941248142859, 0.28643193851757476, -0.5334807880594421, 0.24666205206058628, 0.0026108184306624536, 0.6103469700100989,1.0,-8730.326171237846, -2828.3762100122067, 21511.074015510098, -76.6897293294831, 220.7359548016318, 37.89550268592612,1.0,769
16766.262,-0.42244529217364946, -2.101459805748169, -1.2535625426296297, -1.3579961309132935, 1.5694553930238806, 1.3520199674787474,0.44719412481428594, 0.2864319385175748, -0.5334807880594421, 0.24666205206058633, 0.0026108184306624536, 0.6103469700100989,1.0,-8735.059220085213, -2829.384680063492, 21511.019059472877, -76.6416013595167, 220.48668736841154, 37.86124483911402,1.0,769
16766.27,-0.4189226761799141, -2.09920353789546, -1.2577648517658453, -1.3560531364922523, 1.569475958836914, 1.3568277631964987,0.4471941248142859, 0.28643193851757476, -0.533480788059442, 0.2466620520605863, 0.002610818430662453, 0.6103469700100989,1.0,-8729.926683359758, -2827.7654550773013, 21511.21910621755, -76.6935654666018, 220.7735838843705, 37.88989281314355,1.0,769
16766.278,-0.4153345865252671, -2.096905333562426, -1.262045267787375, -1.354074028297215, 1.5694969068996936, 1.361724919771952,0.44719412481428594, 0.28643193851757476, -0.533480788059442, 0.2466620520605863, 0.002610818430662453, 0.6103469700100989,1.0,-8735.033313230582, -2828.5603650349913, 21510.628338389244, -76.64966484934516, 220.48933688377048, 37.87531824279705,1.0,769
16766.286,-0.41168102320970856, -2.0945651927490676, -1.266403790694219, -1.3520588063281807, 1.5695182372122192, 1.3667114372051077,0.4471941248142859, 0.28643193851757476, -0.533480788059442, 0.24666205206058628, 0.002610818430662453, 0.6103469700100989,1.0,-8730.662316341504, -2827.4388086318004, 21511.035726592458, -76.70998338573895, 220.74187088003765, 37.885038337769345,1.0,769
16766.293999999998,-0.4079619862332384, -2.0921831154553843, -1.270840420486378, -1.3500074705851492, 1.5695399497744906, 1.3717873154959652,0.4471941248142859, 0.28643193851757476, -0.533480788059442, 0.2466620520605863, 0.002610818430662453, 0.6103469700100987,1.0,-8733.534592991444, -2828.888360099728, 21510.819046356384, -76.65325932088814, 220.5610168123448, 37.88258392669741,1.0,769
16766.302,-0.4041774755958576, -2.0897591016813752, -1.275355157163851, -1.34792002106812, 1.5695620445865082, 1.3769525546445252,0.4471941248142859, 0.28643193851757476, -0.533480788059442, 0.24666205206058628, 0.0026108184306624527, 0.6103469700100989,1.0,-8733.57176832695, -2829.5356931293836, 21510.581367550214, -76.64412358577994, 220.5990957670134, 37.87975402193115,1.0,769
16766.309999999998,-0.4003274912975643, -2.0872931514270423, -1.2799480007266384, -1.3457964577770944, 1.5695845216482716, 1.3822071546507868,0.447194124814286, 0.2864319385175748, -0.5334807880594421, 0.2466620520605863, 0.0026108184306624536, 0.610346970010099,1.0,-8730.874172135715, -2829.4500080459447, 21511.058329885607, -76.64857826709965, 220.71376252282272, 37.87975308423418,1.0,769
16766.318,-0.3964120333383603, -2.0847852646923837, -1.2846189511747408, -1.3436367807120728, 1.5696073809597813, 1.3875511155147509,0.44719412481428594, 0.2864319385175748, -0.533480788059442, 0.24666205206058633, 0.002610818430662453, 0.6103469700100989,1.0,-8734.217235684522, -2828.8747359475938, 21510.707059209508, -76.6416501040178, 220.57250195411137, 37.86268494225337,1.0,769
16766.326,-0.3924311017182447, -2.0822354414774003, -1.2893680085081565, -1.3414409898730533, 1.5696306225210368, 1.3929844372364169,0.4471941248142859, 0.28643193851757476, -0.5334807880594421, 0.2466620520605863, 0.0026108184306624536, 0.610346970010099,1.0,-8731.304461062677, -2828.765650674529, 21511.103811761943, -76.66232297920473, 220.71215817808996, 37.8683971355951,1.0,769
16766.334,-0.3883846964372175, -2.079643681782092, -1.2941951727268872, -1.3392090852600358, 1.5696542463320384, 1.3985071198157852,0.4471941248142859, 0.28643193851757476, -0.533480788059442, 0.24666205206058628, 0.002610818430662453, 0.6103469700100989,1.0,-8733.664865442337, -2828.9549462870345, 21510.854635190728, -76.64986565959737, 220.5804975108225, 37.88708622932538,1.0,769
16766.342,-0.38427281749527964, -2.077009985606459, -1.2991004438309322, -1.3369410668730222, 1.569678252392786, 1.4041191632528554,0.44719412481428594, 0.28643193851757476, -0.533480788059442, 0.2466620520605863, 0.0026108184306624536, 0.610346970010099,1.0,-8733.63045215805, -2828.1578875174428, 21511.47671686829, -76.67581768494742, 220.60146443554822, 37.88855792628652,1.0,769
16766.35,-0.3800954648924293, -2.074334352950501, -1.3040838218202921, -1.3346369347120124, 1.5697026407032797, 1.4098205675476279,0.4471941248142859, 0.28643193851757476, -0.5334807880594421, 0.24666205206058633, 0.002610818430662453, 0.6103469700100989,1.0,-8730.880529825392, -2827.9661573032217, 21511.214624373002, -76.68249282542973, 220.7159588510786, 37.88079924002892,1.0,769
16766.358,-0.37585263862866825, -2.0716167838142177, -1.3091453066949663, -1.3322966887770047, 1.5697274112635193, 1.4156113327001023,0.44719412481428594, 0.28643193851757476, -0.533480788059442, 0.2466620520605863, 0.002610818430662453, 0.6103469700100989,1.0,-8734.449970139982, -2828.247507938687, 21510.92344863401, -76.67279878811718, 220.55705638737066, 37.851468327615066,1.0,769
16766.365999999998,-0.3715443387039956, -2.0688572781976102, -1.3142848984549547, -1.329920329068, 1.5697525640735048, 1.421491458710279,0.44719412481428594, 0.28643193851757476, -0.533480788059442, 0.24666205206058628, 0.002610818430662453, 0.6103469700100989,1.0,-8733.83732205011, -2829.248294779086, 21510.9852881008, -76.64072903862598, 220.5765136837456, 37.85341104872418,1.0,769
16766.374,-0.3671705651184123, -2.066055836100677, -1.3195025971002572, -1.327507855584999, 1.5697780991332366, 1.4274609455781577,0.4471941248142859, 0.28643193851757476, -0.533480788059442, 0.2466620520605863, 0.002610818430662453, 0.6103469700100989,1.0,-8731.041652545742, -2829.78702504579, 21510.79538430219, -76.62848316274582, 220.7002435574331, 37.85231501581208,1.0,769
16766.381999999998,-0.3627313178719165, -2.063212457523419, -1.3247984026308757, -1.3250592683280003, 1.5698040164427143, 1.4335197933037385,0.44719412481428583, 0.28643193851757476, -0.533480788059442, 0.24666205206058628, 0.002610818430662453, 0.6103469700100987,1.0,-8733.13429736506, -2828.300988491139, 21510.51231567213, -76.67473169487374, 220.6144535402047, 37.86008227928053,1.0,769
16766.39,-0.35822659696451, -2.0603271424658365, -1.3301723150468074, -1.3225745672970044, 1.569830316001938, 1.4396680018870214,0.447194124814286, 0.28643193851757476, -0.5334807880594421, 0.2466620520605863, 0.0026108184306624536, 0.610346970010099,1.0,-8733.3687316171, -2828.6302578905443, 21510.53098285985, -76.64848432424733, 220.5761845790446, 37.89106910162971,1.0,769
16766.398,-0.3536564023961919, -2.057399890927929, -1.3356243343480534, -1.3200537524920115, 1.5698569978109078, 1.4459055713280065,0.44719412481428594, 0.28643193851757476, -0.533480788059442, 0.24666205206058633, 0.002610818430662453, 0.6103469700100989,1.0,-8733.067038015486, -2828.6726454387126, 21510.521441590747, -76.65393689323946, 220.65577255935312, 37.89154774939777,1.0,769
16766.406,-0.3490207341669622, -2.0544307029096966, -1.3411544605346135, -1.3174968239130225, 1.5698840618696235, 1.4522325016266937,0.44719412481428594, 0.28643193851757476, -0.533480788059442, 0.2466620520605863, 0.0026108184306624536, 0.610346970010099,1.0,-8732.529110288442, -2828.0884457779557, 21511.004415090913, -76.66420170725408, 220.65664772786158, 37.87839287172102,1.0,769
16766.414,-0.34431959227682096, -2.0514195784111386, -1.3467626936064887, -1.3149037815600355, 1.5699115081780852, 1.458648792783083,0.4471941248142859, 0.28643193851757476, -0.5334807880594421, 0.24666205206058628, 0.002610818430662453, 0.6103469700100989,1.0,-8733.572911049016, -2827.8153787669835, 21511.248460937484, -76.66780816371147, 220.5990136946254, 37.85088664828888,1.0,769
16766.422,-0.3395529767257681, -2.0483665174322567, -1.352449033563678, -1.3122746254330524, 1.569939336736293, 1.4651544447971745,0.4471941248142859, 0.28643193851757476, -0.533480788059442, 0.2466620520605863, 0.002610818430662453, 0.6103469700100989,1.0,-8732.797600569023, -2828.752167447513, 21511.617023257866, -76.65992848375322, 220.6327092020095, 37.88546508785333,1.0,769
16766.43,-0.3347208875138046, -2.045271519973049, -1.3582134804061825, -1.3096093555320723, 1.5699675475442467, 1.471749457668968,0.44719412481428594, 0.28643193851757476, -0.533480788059442, 0.24666205206058628, 0.002610818430662453, 0.6103469700100989,1.0,-8733.302019520692, -2829.1908243664993, 21511.16136403107, -76.62683273746731, 220.6282359076339, 37.85638980609559,1.0,769
16766.438,-0.32982332464092945, -2.0421345860335167, -1.3640560341340002, -1.3069079718570942, 1.5699961406019467, 1.4784338313984635,0.44719412481428594, 0.2864319385175748, -0.5334807880594421, 0.2466620520605863, 0.0026108184306624536, 0.610346970010099,1.0,-8731.273083060029, -2828.1683336558144, 21511.386092740388, -76.69195149872422, 220.7239254428627, 37.8911386038462,1.0,769
16766.446,-0.32486028810714274, -2.0389557156136595, -1.369976694747134, -1.30417047440812, 1.5700251159093925, 1.4852075659856614,0.44719412481428594, 0.28643193851757476, -0.533480788059442, 0.24666205206058633, 0.0026108184306624536, 0.6103469700100989,1.0,-8733.357460746756, -2828.913876200706, 21511.130125872824, -76.64790850263748, 220.5889683847073, 37.8501299320005,1.0,769
16766.453999999998,-0.31983177791244444, -2.0357349087134775, -1.3759754622455809, -1.3013968631851487, 1.5700544734665842, 1.492070661430561,0.4471941248142859, 0.28643193851757476, -0.5334807880594421, 0.2466620520605863, 0.002610818430662453, 0.610346970010099,1.0,-8734.675380821614, -2829.038871447304, 21510.99974571533, -76.65327215664831, 220.55167929620222, 37.872243978745445,1.0,769
16766.462,-0.31473779405683455, -2.0324721653329707, -1.382052336629343, -1.2985871381881804, 1.5700842132735222, 1.499023117733163,0.44719412481428594, 0.28643193851757476, -0.533480788059442, 0.24666205206058628, 0.0026108184306624536, 0.6103469700100989,1.0,-8733.218815183927, -2828.4768511589946, 21510.622469267393, -76.66130002665011, 220.61204856453548, 37.88563908055184,1.0,769
16766.469999999998,-0.30957833654031397, -2.029167485472138, -1.3882073178984182, -1.2957412994172142, 1.570114335330206, 1.5060649348934672,0.44719412481428594, 0.28643193851757476, -0.533480788059442, 0.2466620520605863, 0.002610818430662453, 0.6103469700100989,1.0,-8732.929682728634, -2828.5118235054015, 21510.55282946935, -76.66526083040466, 220.6545596104388, 37.87332412432164,1.0,769
16766.478,-0.3043534053628818, -2.025820869130982, -1.3944404060528086, -1.2928593468722518, 1.570144839636636, 1.5131961129114733,0.447194124814286, 0.2864319385175748, -0.5334807880594421, 0.24666205206058633, 0.0026108184306624536, 0.610346970010099,1.0,-8731.848593846655, -2828.733783691532, 21510.76780701037, -76.65882589213714, 220.70711985368814, 37.9103408577391,1.0,769
16766.486,-0.29906300052453716, -2.0224323163094997, -1.400751601092514, -1.2899412805532924, 1.5701757261928118, 1.5204166517871816,0.4471941248142859, 0.28643193851757476, -0.533480788059442, 0.24666205206058628, 0.002610818430662453, 0.6103469700100989,1.0,-8732.895016453946, -2828.2720287522425, 21510.585667287596, -76.65865395455958, 220.6401977747671, 37.8957460996846,1.0,769
16766.494,-0.2937071220252827, -2.019001827007693, -1.4071409030175328, -1.286987100460336, 1.5702069949987338, 1.527726551520592,0.44719412481428583, 0.28643193851757476, -0.533480788059442, 0.24666205206058628, 0.0026108184306624527, 0.6103469700100989,1.0,-8734.693916713135, -2827.9371785119256, 21510.25457498234, -76.68596316074826, 220.54965044399847, 37.88109053734294,1.0,769
16766.502,-0.2882857698651158, -2.015529401225561, -1.4136083118278666, -1.2839968065933824, 1.5702386460544018, 1.5351258121117044,0.44719412481428594, 0.28643193851757476, -0.5334807880594421, 0.2466620520605863, 0.0026108184306624536, 0.610346970010099,1.0,-8733.727600892273, -2827.8913869226953, 21511.040837510358, -76.6820998915864, 220.59372111745927, 37.83607996751286,1.0,769
16766.51,-0.28279894404403816, -2.0120150389631046, -1.4201538275235155, -1.280970398952432, 1.5702706793598156, 1.542614433560519,0.44719412481428594, 0.28643193851757476, -0.533480788059442, 0.2466620520605863, 0.0026108184306624536, 0.6103469700100989,1.0,-8734.015642959996, -2828.020154708456, 21511.247500074933, -76.67409795806296, 220.56526778184354, 37.807720911407046,1.0,769
16766.518,-0.27724664456204806, -2.0084587402203233, -1.4267774501044777, -1.2779078775374844, 1.5703030949149757, 1.5501924158670357,0.4471941248142859, 0.28643193851757476, -0.5334807880594421, 0.2466620520605863, 0.002610818430662453, 0.6103469700100989,1.0,-8732.577010880606, -2828.203190223835, 21511.341962896047, -76.66284720463682, 220.652630785084, 37.84841435084385,1.0,769
16766.525999999998,-0.27162887141914727, -2.0048605049972164, -1.4334791795707549, -1.2748092423485406, 1.5703358927198816, 1.5578597590312546,0.4471941248142859, 0.28643193851757476, -0.533480788059442, 0.2466620520605863, 0.002610818430662453, 0.6103469700100989,1.0,-8732.252455642643, -2829.4399404275446, 21511.019519057856, -76.63109918093787, 220.68389102096006, 37.88248370509234,1.0,769
16766.534,-0.2659456246153349, -2.0012203332937855, -1.4402590159223472, -1.2716744933855981, 1.5703690727745336, 1.5656164630531755,0.447194124814286, 0.2864319385175748, -0.5334807880594421, 0.24666205206058633, 0.0026108184306624536, 0.610346970010099,1.0,-8734.228648277147, -2828.1445334747004, 21509.873583859182, -76.67955560840892, 220.59205564239727, 37.88393475025825,1.0,769
16766.541999999998,-0.2601969041506118, -1.9975382251100289, -1.4471169591592528, -1.2685036306486603, 1.5704026350789317, 1.5734625279327985,0.447194124814286, 0.2864319385175748, -0.5334807880594421, 0.24666205206058633, 0.0026108184306624536, 0.6103469700100989,1.0,-8732.589928038235, -2828.037495009711, 21510.456196544383, -76.67623429764001, 220.63829402777833, 37.85776600734812,1.0,769
16766.55,-0.25438271002497626, -1.9938141804459466, -1.4540530092814734, -1.2652966541377246, 1.5704365796330757, 1.5813979536701237,0.44719412481428594, 0.2864319385175748, -0.533480788059442, 0.2466620520605863, 0.002610818430662453, 0.610346970010099,1.0,-8733.1738857177, -2827.8267903494752, 21510.64513088701, -76.66797732715986, 220.62251177187733, 37.83984945844145,1.0,769
16766.558,-0.24850304223843, -1.9900481993015404, -1.4610671662890082, -1.2620535638527919, 1.5704709064369657, 1.5894227402651508,0.44719412481428594, 0.2864319385175748, -0.5334807880594421, 0.24666205206058633, 0.002610818430662453, 0.6103469700100989,1.0,-8731.155610225047, -2828.8971349777457, 21511.49017822159, -76.64513728103191, 220.7164443693024, 37.84625386662202,1.0,769
16766.566,-0.24256389961949765, -1.9862441239815007, -1.4681522738718975, -1.2587776686104863, 1.5705055804681112, 1.5975287002963308,0.4471941248142859, 0.2864319385175747, -0.533480788059442, 0.24666205206058628, 0.002610818430662453, 0.610346970010099,1.0,-8733.818909293057, -2828.76277408608, 21510.90430210379, -76.66584430593309, 220.59026176357804, 37.87813469941685,1.0,769
16766.574,-0.23665839478464878, -1.9824615939706849, -1.4751972532183775, -1.2555203272005953, 1.5705400581144164, 1.605588750244051,0.44719412481428583, 0.2864319385175747, -0.533480788059442, 0.24666205206058628, 0.002610818430662453, 0.610346970010099,1.0,-8733.376786335557, -2826.675899803782, 21511.139032093182, -76.6768401221521, 220.60027772969903, 37.79559399626342,1.0,769
16766.582,-0.23081836361071062, -1.978721000440193, -1.4821641256795441, -1.2522990995647012, 1.5705741535109758, 1.613559439334069,0.4471941248142859, 0.28643193851757476, -0.5334807880594421, 0.2466620520605863, 0.002610818430662454, 0.610346970010099,1.0,-8733.80987601469, -2823.49071908568, 21511.648335912476, -76.79763834774371, 220.5848907850663, 37.876715420956856,1.0,769
16766.59,-0.22504380609768493, -1.9750223433900267, -1.4890528912553957, -1.2491139857028042, 1.5706078666577892, 1.621440767566385,0.4471941248142859, 0.2864319385175747, -0.533480788059442, 0.24666205206058628, 0.0026108184306624536, 0.6103469700100989,1.0,-8732.139681634164, -2827.3456094085304, 21512.033998355942, -76.69927795941487, 220.65302460345083, 37.91380200453878,1.0,769
16766.597999999998,-0.21933472224556994, -1.9713656228201852, -1.495863549945934, -1.2459649856149042, 1.5706411975548564, 1.629232734940999,0.4471941248142859, 0.28643193851757476, -0.533480788059442, 0.2466620520605863, 0.0026108184306624536, 0.610346970010099,1.0,-8733.690413745075, -2825.864401782842, 21511.240409140548, -76.72036082692935, 220.57954380803227, 37.80639852283005,1.0,769
16766.606,-0.21369111205436653, -1.9677508387306686, -1.5025961017511573, -1.2428520993010004, 1.5706741462021778, 1.6369353414579106,0.44719412481428583, 0.28643193851757476, -0.533480788059442, 0.24666205206058628, 0.002610818430662454, 0.610346970010099,1.0,-8734.839734861085, -2824.912511532256, 21510.55097076214, -76.74524837484952, 220.5686067852157, 37.79972181637976,1.0,769
16766.613999999998,-0.20811297552407382, -1.9641779911214767, -1.5092505466710655, -1.2397753267610945, 1.5707067125997531, 1.6445485871171206,0.44719412481428583, 0.2864319385175747, -0.533480788059442, 0.24666205206058628, 0.0026108184306624536, 0.610346970010099,1.0,-8733.885428502203, -2825.2092323593088, 21510.590787703455, -76.74658871172036, 220.59290907304302, 37.84198639185166,1.0,769
16766.622,-0.20260031265469358, -1.9606470799926097, -1.5158268847056595, -1.2367346679951856, 1.5707388967475824, 1.6520724719186282,0.44719412481428583, 0.2864319385175747, -0.5334807880594419, 0.24666205206058628, 0.002610818430662453, 0.610346970010099,1.0,-8733.25542143023, -2825.476726864089, 21510.22593953191, -76.76111934410537, 220.61286037507955, 37.90018226661789,1.0,769
16766.63,-0.19715312344622404, -1.9571581053440683, -1.5223251158549393, -1.233730123003273, 1.5707706986456655, 1.6595069958624333,0.44719412481428594, 0.28643193851757476, -0.533480788059442, 0.2466620520605863, 0.0026108184306624536, 0.610346970010099,1.0,-8731.061224404679, -2827.9918123149373, 21511.355699186843, -76.68920351198699, 220.71686610982084, 37.85707607368067,1.0,769
16766.638,-0.1917714078986661, -1.9537110671758517, -1.528745240118905, -1.2307616917853572, 1.5708021182940028, 1.6668521589485368,0.4471941248142859, 0.28643193851757476, -0.5334807880594421, 0.2466620520605863, 0.002610818430662454, 0.610346970010099,1.0,-8732.018185438155, -2826.9978524009475, 21511.348457573728, -76.69733736190108, 220.66555053720066, 37.85953943775948,1.0,769
16766.646,-0.18645516601201972, -1.95030596548796, -1.5350872574975556, -1.2278293743414395, 1.5708331556925943, 1.6741079611769383,0.4471941248142859, 0.28643193851757476, -0.5334807880594421, 0.24666205206058633, 0.002610818430662454, 0.6103469700100991,1.0,-8732.860715624209, -2825.986200370223, 21511.32590874408, -76.71048893945647, 220.6310061647069, 37.8249944492367,1.0,769
16766.654,-0.18120439778628494, -1.946942800280393, -1.541351167990892, -1.2249331706715187, 1.5708638108414394, 1.6812744025476374,0.4471941248142859, 0.2864319385175747, -0.533480788059442, 0.24666205206058628, 0.0026108184306624536, 0.610346970010099,1.0,-8733.660980859215, -2825.3594015907756, 21511.23415898681, -76.74616570177633, 220.58711333634596, 37.829142339484434,1.0,769
16766.662,-0.17601910322146086, -1.9436215715531509, -1.5475369715989142, -1.2220730807755942, 1.5708940837405387, 1.6883514830606343,0.4471941248142859, 0.2864319385175747, -0.533480788059442, 0.2466620520605863, 0.0026108184306624536, 0.610346970010099,1.0,-8733.19894998196, -2827.100818767575, 21511.130626393246, -76.71742419226061, 220.56935436033018, 37.84835030780786,1.0,769
16766.67,-0.17089928231754925, -1.9403422793062335, -1.5536446683216214, -1.2192491046536666, 1.5709239743898917, 1.695339202715929,0.44719412481428583, 0.28643193851757476, -0.533480788059442, 0.24666205206058628, 0.0026108184306624536, 0.610346970010099,1.0,-8731.873721354345, -2825.6660986731576, 21511.526877552307, -76.73804291449912, 220.67724849513195, 37.85990221902952,1.0,769
16766.678,-0.16584493507454834, -1.937104923539641, -1.5596742581590144, -1.216461242305737, 1.5709534827894989, 1.7022375615135221,0.4471941248142859, 0.2864319385175748, -0.533480788059442, 0.2466620520605863, 0.002610818430662454, 0.610346970010099,1.0,-8732.470315165774, -2826.200900069406, 21511.0970896091, -76.73038834455869, 220.67659954128084, 37.8794699941144,1.0,769
16766.685999999998,-0.16085606149245812, -1.933909504253374, -1.5656257411110932, -1.2137094937318036, 1.5709826089393601, 1.7090465594534128,0.4471941248142859, 0.2864319385175748, -0.533480788059442, 0.2466620520605863, 0.0026108184306624536, 0.610346970010099,1.0,-8731.97709273033, -2825.5320915170405, 21510.401326489195, -76.73888686051987, 220.6912281926459, 37.83099179472663,1.0,769
16766.694,-0.15593266157128038, -1.930756021447431, -1.5714991171778578, -1.2109938589318672, 1.5710113528394751, 1.7157661965356015,0.44719412481428583, 0.28643193851757476, -0.533480788059442, 0.2466620520605863, 0.002610818430662453, 0.610346970010099,1.0,-8734.053913358102, -2825.848306026426, 21510.564744913343, -76.74176108375067, 220.57968129961085, 37.838522094313106,1.0,769
16766.701999999997,-0.15107473531101423, -1.9276444751218147, -1.5772943863593074, -1.2083143379059287, 1.5710397144898443, 1.7223964727600878,0.4471941248142859, 0.28643193851757476, -0.533480788059442, 0.24666205206058628, 0.0026108184306624536, 0.610346970010099,1.0,-8734.207315124986, -2826.230203868595, 21510.931711913076, -76.73231122005288, 220.55307855833286, 37.81722228277175,1.0,769
16766.71,-0.14628228271165877, -1.9245748652765222, -1.5830115486554428, -1.2056709306539863, 1.5710676938904673, 1.7289373881268721,0.44719412481428583, 0.28643193851757476, -0.5334807880594419, 0.2466620520605863, 0.0026108184306624536, 0.610346970010099,1.0,-8731.888134880586, -2827.090803923794, 21511.407331704715, -76.69618203519121, 220.68225032540255, 37.84263684709569,1.0,769
16766.718,-0.1415553037732149, -1.9215471919115537, -1.588650604066264, -1.203063637176041, 1.5710952910413445, 1.7353889426359546,0.44719412481428583, 0.28643193851757476, -0.533480788059442, 0.2466620520605863, 0.0026108184306624536, 0.6103469700100991,1.0,-8732.108268935679, -2826.505763105215, 21511.21566894647, -76.72433287919966, 220.66606856048918, 37.843995309284935,1.0,769
16766.726,-0.13689379849568262, -1.9185614550269117, -1.594211552591771, -1.2004924574720928, 1.5711225059424756, 1.7417511362873346,0.4471941248142859, 0.28643193851757476, -0.533480788059442, 0.24666205206058628, 0.002610818430662454, 0.610346970010099,1.0,-8731.208250527852, -2826.9929392392332, 21511.324168709907, -76.70747221230798, 220.70781246113728, 37.856265715210355,1.0,769
16766.734,-0.13229776687906192, -1.9156176546225936, -1.599694394231963, -1.1979573915421415, 1.5711493385938606, 1.7480239690810127,0.44719412481428583, 0.2864319385175747, -0.533480788059442, 0.24666205206058628, 0.0026108184306624536, 0.6103469700100989,1.0,-8734.577140743944, -2826.191928726089, 21511.380288676723, -76.72505197939915, 220.52498626625123, 37.80634162088927,1.0,769
16766.742,-0.12776720892335192, -1.9127157906986012, -1.60509912898684, -1.1954584393861873, 1.5711757889954996, 1.7542074410169883,0.44719412481428594, 0.28643193851757476, -0.533480788059442, 0.24666205206058633, 0.002610818430662454, 0.6103469700100991,1.0,-8732.30862957425, -2825.708966229269, 21510.654236433238, -76.74911515529558, 220.66996728743038, 37.86267311050679,1.0,769
16766.75,-0.12330212462855439, -1.9098558632549327, -1.6104257568564035, -1.1929956010042293, 1.5712018571473925, 1.7603015520952625,0.4471941248142859, 0.28643193851757476, -0.533480788059442, 0.24666205206058636, 0.0026108184306624536, 0.6103469700100991,1.0,-8731.1512698414, -2826.252248495698, 21510.98324962511, -76.7406893539142, 220.71462245576117, 37.846906107762294,1.0,769
16766.757999999998,-0.11890251399466756, -1.9070378722915908, -1.615674277840653, -1.19056887639627, 1.5712275430495395, 1.7663063023158343,0.44719412481428583, 0.2864319385175747, -0.533480788059442, 0.24666205206058625, 0.002610818430662454, 0.6103469700100991,1.0,-8731.327219019351, -2826.4258130659236, 21511.087031115483, -76.7238621097869, 220.7021443687749, 37.83275284526192,1.0,769
16766.766,-0.11456837702169231, -1.904261817808572, -1.6208446919395874, -1.188178265562307, 1.5712528467019407, 1.7722216916787037,0.4471941248142859, 0.2864319385175747, -0.533480788059442, 0.24666205206058628, 0.0026108184306624536, 0.6103469700100989,1.0,-8733.352500558873, -2827.2855089304103, 21510.465772273357, -76.703477241456, 220.5807663987166, 37.83188085489837,1.0,769
16766.773999999998,-0.11029971370962777, -1.9015276998058788, -1.6259369991532067, -1.18582376850234, 1.5712777681045957, 1.7780477201838711,0.4471941248142859, 0.2864319385175748, -0.5334807880594421, 0.24666205206058628, 0.0026108184306624536, 0.610346970010099,1.0,-8731.887333986357, -2826.7245297876043, 21510.159228609024, -76.72840095942294, 220.69229203865422, 37.85780468991621,1.0,769
16766.782,-0.1060965240584757, -1.8988355182835113, -1.6309511994815127, -1.183505385216371, 1.5713023072575045, 1.7837843878313369,0.44719412481428583, 0.2864319385175748, -0.533480788059442, 0.2466620520605863, 0.0026108184306624536, 0.610346970010099,1.0,-8733.143680917048, -2826.036066531281, 21510.613408992398, -76.73593715160317, 220.62998456319752, 37.804732658705746,1.0,769
16766.79,-0.10195880806823432, -1.8961852732414677, -1.6358872929245027, -1.1812231157043982, 1.5713264641606675, 1.7894316946211002,0.4471941248142859, 0.2864319385175748, -0.533480788059442, 0.24666205206058633, 0.002610818430662454, 0.6103469700100991,1.0,-8734.245997023969, -2824.873052185024, 21511.109864509664, -76.76019155515164, 220.6076416477893, 37.81173877184045,1.0,769
16766.798,-0.09788656573890542, -1.8935769646797498, -1.6407452794821804, -1.1789769599664233, 1.5713502388140843, 1.7949896405531611,0.44719412481428583, 0.28643193851757476, -0.533480788059442, 0.2466620520605863, 0.0026108184306624536, 0.610346970010099,1.0,-8730.360779795526, -2826.403436845362, 21511.44739110857, -76.71454512553524, 220.75561518571038, 37.808223346882414,1.0,769
16766.806,-0.09387979707048721, -1.8910105925983558, -1.6455251591545421, -1.1767669180024454, 1.5713736312177553, 1.8004582256275201,0.44719412481428583, 0.28643193851757476, -0.5334807880594419, 0.24666205206058622, 0.002610818430662453, 0.6103469700100991,1.0,-8731.951974605327, -2826.482326526587, 21511.688228980438, -76.71370888203163, 220.65966825847352, 37.84550507055499,1.0,769
16766.814,-0.08993850206297971, -1.8884861569972875, -1.6502269319415905, -1.1745929898124636, 1.57139664137168, 1.805837449844177,0.447194124814286, 0.2864319385175748, -0.533480788059442, 0.2466620520605863, 0.0026108184306624545, 0.610346970010099,1.0,-8733.487585073091, -2826.5107523829365, 21511.439608753823, -76.72480915171883, 220.60533139592798, 37.83744514118493,1.0,769
16766.822,-0.08606268071638468, -1.886003657876544, -1.654850597843324, -1.1724551753964798, 1.5714192692758588, 1.811127313203132,0.44719412481428594, 0.28643193851757476, -0.533480788059442, 0.24666205206058628, 0.002610818430662454, 0.610346970010099,1.0,-8730.589277124924, -2827.6598773112237, 21511.07719073261, -76.68718462992655, 220.70107736161134, 37.83600235356096,1.0,769
16766.829999999998,-0.08225233303070034, -1.8835630952361253, -1.659396156859743, -1.1703534747544921, 1.5714415149302918, 1.8163278157043847,0.44719412481428594, 0.28643193851757476, -0.533480788059442, 0.2466620520605863, 0.0026108184306624536, 0.610346970010099,1.0,-8732.893316072781, -2826.5845594268276, 21510.40859802195, -76.71421959288062, 220.61782198199893, 37.838111390463865,1.0,769
16766.838,-0.07850745900592848, -1.8811644690760323, -1.6638636089908472, -1.1682878878865024, 1.5714633783349785, 1.8214389573479353,0.4471941248142859, 0.28643193851757476, -0.533480788059442, 0.24666205206058628, 0.002610818430662454, 0.6103469700100991,1.0,-8733.256670435077, -2825.496431099781, 21511.337475240398, -76.75700134498703, 220.640743995074, 37.81853064706195,1.0,769
16766.845999999998,-0.07482805864206732, -1.8788077793962632, -1.668252954236637, -1.1662584147925088, 1.5714848594899193, 1.8264607381337838,0.44719412481428594, 0.28643193851757476, -0.5334807880594421, 0.2466620520605863, 0.0026108184306624536, 0.610346970010099,1.0,-8731.229330607233, -2827.3779645654713, 21510.85918190862, -76.68573844591648, 220.73700793633606, 37.85220063075096,1.0,769
16766.854,-0.07121413193911685, -1.8764930261968198, -1.6725641925971129, -1.1642650554725122, 1.571505958395114, 1.83139315806193,0.4471941248142859, 0.2864319385175747, -0.533480788059442, 0.24666205206058628, 0.002610818430662454, 0.6103469700100989,1.0,-8734.53344463151, -2825.116464360166, 21511.04841841122, -76.76893302661003, 220.5646845809536, 37.85097034922046,1.0,769
16766.862,-0.06766567889707886, -1.8742202094777003, -1.6767973240722744, -1.1623078099265136, 1.571526675050563, 1.8362362171323747,0.44719412481428594, 0.28643193851757476, -0.5334807880594419, 0.24666205206058633, 0.002610818430662454, 0.6103469700100991,1.0,-8729.19731217918, -2826.7552693581747, 21511.45850616994, -76.70826915315615, 220.8059453306958, 37.826652493386575,1.0,769
16766.87,-0.06418269951595157, -1.8719893292389074, -1.680952348662121, -1.1603866781545111, 1.5715470094562656, 1.8409899153451168,0.4471941248142857, 0.2864319385175747, -0.533480788059442, 0.24666205206058633, 0.0026108184306624536, 0.610346970010099,1.0,-8734.531183258165, -2826.2208357786913, 21510.9527435916, -76.74450945565047, 220.54829246090912, 37.8162516946974,1.0,769
16766.878,-0.06076519379573675, -1.8698003854804384, -1.6850292663666533, -1.1585016601565057, 1.5715669616122223, 1.845654252700157,0.4471941248142858, 0.2864319385175747, -0.533480788059442, 0.24666205206058625, 0.0026108184306624536, 0.6103469700100991,1.0,-8731.15062098701, -2826.705426306722, 21510.747655052575, -76.73517214996139, 220.7279111836162, 37.83484902365015,1.0,769
16766.886,-0.05741316173643263, -1.8676533782022942, -1.6890280771858714, -1.1566527559324973, 1.5715865315184334, 1.8502292291974947,0.4471941248142857, 0.28643193851757465, -0.533480788059442, 0.24666205206058622, 0.0026108184306624536, 0.610346970010099,1.0,-8732.404563294987, -2828.2946292448887, 21511.262804733564, -76.67596018186299, 220.6305824153369, 37.808793248396825,1.0,769
16766.894,-0.0541266033380392, -1.8655483074044747, -1.6929487811197745, -1.154839965482486, 1.571605719174898, 1.854714844837131,0.4471941248142858, 0.2864319385175747, -0.533480788059442, 0.24666205206058628, 0.0026108184306624536, 0.6103469700100989,1.0,-8733.875379017478, -2825.923408214496, 21511.299050444282, -76.74199029462173, 220.6056036063129, 37.83412675885987,1.0,769
16766.902,-0.05090551860055825, -1.8634851730869801, -1.6967913781683643, -1.1530632888064716, 1.5716245245816167, 1.8591110996190645,0.4471941248142859, 0.2864319385175747, -0.533480788059442, 0.24666205206058633, 0.002610818430662454, 0.6103469700100991,1.0,-8730.115498224599, -2827.9948920151137, 21511.35098015121, -76.66464680657742, 220.7643913065387, 37.81705326688112,1.0,769
16766.91,-0.04774990752398889, -1.8614639752498112, -1.700555868331639, -1.1513227259044543, 1.5716429477385894, 1.863417993543296,0.44719412481428583, 0.28643193851757476, -0.533480788059442, 0.2466620520605863, 0.002610818430662454, 0.610346970010099,1.0,-8734.312500606602, -2824.940863981351, 21510.989255970355, -76.77235061228174, 220.5677267406299, 37.794905645693774,1.0,769
16766.917999999998,-0.04465977010833022, -1.859484713892967, -1.7042422516095996, -1.149618276776434, 1.571660988645816, 1.8676355266098255,0.4471941248142859, 0.28643193851757476, -0.5334807880594419, 0.24666205206058633, 0.002610818430662454, 0.610346970010099,1.0,-8730.438654887561, -2827.145499216108, 21511.331965253306, -76.70094773753112, 220.7340970099799, 37.82560911804512,1.0,769
16766.926,-0.04163510635358314, -1.8575473890164478, -1.7078505280022442, -1.1479499414224108, 1.5716786473032966, 1.8717636988186528,0.4471941248142859, 0.28643193851757476, -0.5334807880594419, 0.24666205206058622, 0.0026108184306624536, 0.6103469700100991,1.0,-8733.44102680935, -2825.6320803674334, 21511.167893694543, -76.74493207996767, 220.58934437806715, 37.83282444385833,1.0,769
16766.933999999997,-0.038675916259747645, -1.8556520006202533, -1.7113806975095764, -1.1463177198423846, 1.5716959237110313, 1.8758025101697784,0.4471941248142859, 0.2864319385175747, -0.533480788059442, 0.24666205206058622, 0.002610818430662453, 0.6103469700100991,1.0,-8730.019958021348, -2826.81609761444, 21510.4124274921, -76.73266154575236, 220.74045790092111, 37.8436322255032,1.0,769
16766.942,-0.03578219982682285, -1.8537985487043835, -1.7148327601315927, -1.1447216120363555, 1.5717128178690198, 1.8797519606632014,0.4471941248142858, 0.2864319385175748, -0.533480788059442, 0.24666205206058633, 0.002610818430662455, 0.6103469700100991,1.0,-8733.646260568701, -2825.257021264739, 21510.615331183257, -76.77237171607814, 220.5737699606787, 37.82326682748604,1.0,769
16766.95,-0.03295395705481052, -1.8519870332688386, -1.7182067158682957, -1.1431616180043225, 1.5717293297772623, 1.8836120502989222,0.4471941248142858, 0.28643193851757476, -0.5334807880594421, 0.24666205206058633, 0.0026108184306624545, 0.6103469700100991,1.0,-8730.382176510133, -2828.0160632547995, 21510.842380535272, -76.69707065287596, 220.74569667508018, 37.799630113946364,1.0,769
16766.958,-0.030191187943708897, -1.8502174543136185, -1.7215025647196835, -1.1416377377462874, 1.571745459435759, 1.8873827790769413,0.4471941248142858, 0.2864319385175747, -0.533480788059442, 0.24666205206058633, 0.0026108184306624536, 0.6103469700100991,1.0,-8733.261051132678, -2826.705393493624, 21510.916316382496, -76.72519121821645, 220.6305124237287, 37.81038817761552,1.0,769
16766.966,-0.027493892493518857, -1.848489811838724, -1.7247203066857573, -1.1401499712622494, 1.5717612068445095, 1.8910641469972584,0.44719412481428583, 0.2864319385175747, -0.5334807880594419, 0.24666205206058636, 0.0026108184306624536, 0.6103469700100991,1.0,-8731.774857044678, -2828.2024423098937, 21511.15505919092, -76.69192468690048, 220.66420368059113, 37.804773857778486,1.0,769
16766.974,-0.024862070704240402, -1.8468041058441544, -1.727859941766516, -1.1386983185522084, 1.571776572003514, 1.8946561540598732,0.4471941248142858, 0.2864319385175747, -0.533480788059442, 0.24666205206058622, 0.002610818430662454, 0.6103469700100991,1.0,-8731.783956604822, -2826.9500301839325, 21511.012237637602, -76.71439757571954, 220.70476864918095, 37.82248142805554,1.0,769
16766.982,-0.022295722575872645, -1.8451603363299096, -1.7309214699619613, -1.1372827796161635, 1.5717915549127726, 1.8981588002647856,0.44719412481428583, 0.2864319385175747, -0.5334807880594419, 0.24666205206058625, 0.002610818430662454, 0.6103469700100992,1.0,-8733.431383794998, -2826.639722484362, 21511.038719642103, -76.73956460159019, 220.59955677488125, 37.83601488602247,1.0,769
16766.989999999998,-0.019794848108417362, -1.8435585032959896, -1.7339048912720916, -1.1359033544541166, 1.571806155572285, 1.901572085611996,0.4471941248142859, 0.28643193851757465, -0.5334807880594421, 0.24666205206058628, 0.0026108184306624536, 0.610346970010099,1.0,-8731.084342287666, -2827.101174846739, 21511.36458816088, -76.70344812675921, 220.7164565245792, 37.82133624922503,1.0,769
16766.998,-0.017359447301872777, -1.8419986067423944, -1.7368102056969077, -1.1345600430660658, 1.5718203739820515, 1.9048960101015049,0.44719412481428594, 0.28643193851757465, -0.533480788059442, 0.24666205206058633, 0.002610818430662455, 0.6103469700100991,1.0,-8732.968350640134, -2825.468690675966, 21511.503662514842, -76.7515099300985, 220.62978227805053, 37.81398575138931,1.0,769
16767.005999999998,-0.014989520156239777, -1.8404806466691248, -1.7396374132364087, -1.133252845452013, 1.5718342101420721, 1.908130573733311,0.44719412481428594, 0.28643193851757465, -0.5334807880594418, 0.24666205206058633, 0.002610818430662454, 0.6103469700100991,1.0,-8731.34217763033, -2826.9477238181535, 21511.339432628643, -76.71922953520328, 220.7227066176451, 37.831040239602004,1.0,769
16767.014,-0.012685066671518364, -1.8390046230761792, -1.7423865138905956, -1.1319817616119563, 1.5718476640523467, 1.911275776507415,0.44719412481428555, 0.28643193851757476, -0.533480788059442, 0.24666205206058617, 0.0026108184306624536, 0.6103469700100991,1.0,-8732.12656299371, -2826.585226445737, 21511.334082756643, -76.71743466753443, 220.6808222328885, 37.81355032996822,1.0,769
16767.022,-0.010446086847708536, -1.8375705359635592, -1.7450575076594692, -1.1307467915458975, 1.571860735712875, 1.9143316184238173,0.4471941248142857, 0.2864319385175748, -0.533480788059442, 0.24666205206058625, 0.0026108184306624536, 0.6103469700100992,1.0,-8733.426341668706, -2826.644803618866, 21511.25644498085, -76.72705940977787, 220.60325230605923, 37.80465506540003,1.0,769
16767.03,-0.008272580684809405, -1.836178385331264, -1.7476503945430268, -1.129547935253835, 1.5718734251236575, 1.917298099482517,0.4471941248142858, 0.2864319385175748, -0.5334807880594419, 0.24666205206058628, 0.002610818430662455, 0.610346970010099,1.0,-8731.406986008697, -2827.7700175858927, 21510.862263918898, -76.71091734452986, 220.6998550858279, 37.82272460077618,1.0,769
16767.038,-0.006164548182822749, -1.8348281711792929, -1.7501651745412712, -1.1283851927357693, 1.5718857322846937, 1.9201752196835151,0.4471941248142857, 0.28643193851757476, -0.533480788059442, 0.24666205206058628, 0.002610818430662454, 0.610346970010099,1.0,-8732.306308758098, -2826.827938141246, 21510.924313021445, -76.74114900675752, 220.67414250357712, 37.82897992295483,1.0,769
16767.046,-0.00412198934174679, -1.8335198935076473, -1.7526018476541996, -1.1272585639917008, 1.5718976571959842, 1.9229629790268108,0.44719412481428583, 0.28643193851757476, -0.5334807880594419, 0.24666205206058633, 0.002610818430662454, 0.6103469700100991,1.0,-8732.445054181939, -2827.2353916061975, 21510.355859903822, -76.71999834163, 220.64290683816114, 37.83829780176637,1.0,769
16767.054,-0.002144904161582417, -1.8322535523163275, -1.7549604138818147, -1.1261680490216293, 1.5719091998575285, 1.9256613775124045,0.4471941248142858, 0.2864319385175747, -0.533480788059442, 0.24666205206058633, 0.002610818430662453, 0.6103469700100991,1.0,-8731.75756536759, -2827.169538066193, 21510.691194870426, -76.71530373134613, 220.67198275164202, 37.82601843955891,1.0,769
16767.061999999998,-0.0002332926423287418, -1.8310291476053315, -1.7572408732241156, -1.1251136478255557, 1.5719203602693268, 1.9282704151402958,0.44719412481428583, 0.2864319385175747, -0.5334807880594419, 0.24666205206058617, 0.0026108184306624545, 0.6103469700100992,1.0,-8730.903547798123, -2826.1828830777195, 21511.155533361336, -76.73058898439854, 220.70868521115005, 37.8104145049636,1.0,769
16767.07,0.0016128452160124596, -1.8298466793746613, -1.7594432256811015, -1.1240953604034782, 1.5719311384313792, 1.9307900919104857,0.44719412481428594, 0.28643193851757465, -0.5334807880594418, 0.24666205206058622, 0.0026108184306624545, 0.6103469700100993,1.0,-8732.656065656873, -2826.16714006662, 21510.927975119735, -76.75687099148792, 220.63442306197027, 37.81497456352062,1.0,769
16767.077999999998,0.0033935094134427413, -1.828706147624315, -1.7615674712527731, -1.123113186755397, 1.5719415343436856, 1.9332204078229729,0.44719412481428594, 0.28643193851757465, -0.533480788059442, 0.24666205206058625, 0.0026108184306624536, 0.6103469700100989,1.0,-8732.19151231868, -2826.87133747139, 21510.53277676873, -76.72473337953244, 220.66072739529096, 37.84305697391801,1.0,769
16767.086,0.005108699949961437, -1.8276075523542943, -1.7636136099391297, -1.1221671268813136, 1.5719515480062458, 1.935561362877758,0.4471941248142856, 0.28643193851757465, -0.5334807880594419, 0.24666205206058633, 0.0026108184306624558, 0.6103469700100991,1.0,-8731.406770530655, -2827.179500318338, 21510.70504031454, -76.72665542365334, 220.66530631555804, 37.81928742358116,1.0,769
16767.094,0.00675841682556888, -1.8265508935645984, -1.765581641740173, -1.1212571807812282, 1.57196117941906, 1.937812957074841,0.4471941248142856, 0.2864319385175746, -0.5334807880594421, 0.24666205206058633, 0.002610818430662455, 0.6103469700100991,1.0,-8731.402848180593, -2826.292576034679, 21510.939565252425, -76.74963826878431, 220.65161573529127, 37.822414754200764,1.0,769
16767.102,0.00834266004026496, -1.8255361712552274, -1.7674715666559013, -1.120383348455138, 1.5719704285821283, 1.9399751904142224,0.44719412481428567, 0.2864319385175746, -0.533480788059442, 0.2466620520605864, 0.0026108184306624545, 0.6103469700100992,1.0,-8731.136065659291, -2827.4099635948305, 21510.960619505233, -76.72934516952708, 220.7030317991755, 37.83237416158798,1.0,769
16767.11,0.009861429594049564, -1.8245633854261811, -1.7692833846863154, -1.1195456299030457, 1.5719792954954506, 1.9420480628959012,0.4471941248142858, 0.2864319385175746, -0.5334807880594418, 0.2466620520605862, 0.002610818430662454, 0.6103469700100994,1.0,-8732.466277832524, -2827.5099627426825, 21510.68956989432, -76.7155359952908, 220.6428107832778, 37.81275282655244,1.0,769
16767.118,0.011314725486922694, -1.8236325360774597, -1.7710170958314144, -1.1187440251249505, 1.5719877801590267, 1.9440315745198777,0.44719412481428567, 0.28643193851757476, -0.533480788059442, 0.24666205206058614, 0.002610818430662455, 0.6103469700100993,1.0,-8731.893775416438, -2826.3987627667493, 21510.777224362013, -76.753849328744, 220.69394329668455, 37.82495871602379,1.0,769
16767.126,0.012702547718884571, -1.822743623209064, -1.7726727000912001, -1.1179785341208524, 1.5719958825728573, 1.9459257252861524,0.4471941248142859, 0.2864319385175748, -0.5334807880594419, 0.24666205206058628, 0.0026108184306624553, 0.6103469700100991,1.0,-8731.597524938028, -2826.853721366113, 21511.32196522936, -76.73317926469139, 220.69321501745293, 37.8147999133341,1.0,769
16767.134,0.014024896289934863, -1.821896646820992, -1.7742501974656708, -1.1172491568907503, 1.5720036027369415, 1.9477305151947253,0.447194124814286, 0.2864319385175748, -0.5334807880594418, 0.24666205206058636, 0.002610818430662455, 0.6103469700100992,1.0,-8732.31958221289, -2826.6806647683043, 21510.963442096698, -76.73908398212018, 220.67623425130745, 37.817456317749986,1.0,769
16767.142,0.01528177120007368, -1.821091606913246, -1.7757495879548264, -1.1165558934346462, 1.5720109406512797, 1.9494459442455956,0.4471941248142859, 0.2864319385175747, -0.5334807880594419, 0.2466620520605863, 0.002610818430662453, 0.6103469700100991,1.0,-8732.502242528199, -2826.9766494554506, 21510.599648110445, -76.7280728356181, 220.64747162148944, 37.82814581729508,1.0,769
16767.149999999998,0.016473172449301243, -1.8203285034858254, -1.7771708715586687, -1.1158987437525383, 1.5720178963158717, 1.9510720124387637,0.447194124814286, 0.2864319385175747, -0.5334807880594417, 0.2466620520605864, 0.0026108184306624527, 0.6103469700100993,1.0,-8731.871605855586, -2826.999280322605, 21510.547810646036, -76.72791930762614, 220.68714944060196, 37.81583803919921,1.0,769
16767.158,0.01759910003761722, -1.8196073365387289, -1.778514048277196, -1.1152777078444291, 1.572024469730718, 1.95260871977423,0.44719412481428533, 0.28643193851757465, -0.5334807880594421, 0.24666205206058608, 0.002610818430662455, 0.6103469700100994,1.0,-8731.70047584361, -2827.0340514162936, 21511.192318387824, -76.73261105873382, 220.69429822387883, 37.82572167707485,1.0,769
16767.165999999997,0.018659553965021947, -1.818928106071957, -1.7797791181104081, -1.1146927857103153, 1.572030660895818, 1.954056066251994,0.44719412481428544, 0.2864319385175746, -0.5334807880594418, 0.24666205206058617, 0.002610818430662457, 0.6103469700100996,1.0,-8732.161321362275, -2827.4578254221306, 21511.309670704555, -76.71183756003254, 220.69352076182696, 37.83009979753615,1.0,769
16767.174,0.019654534231515197, -1.818290812085511, -1.7809660810583061, -1.1141439773501984, 1.5720364698111722, 1.9554140518720562,0.4471941248142857, 0.2864319385175747, -0.5334807880594418, 0.24666205206058636, 0.002610818430662455, 0.6103469700100993,1.0,-8733.051237157282, -2826.9025480270993, 21510.70254321982, -76.72632625612636, 220.624591571775, 37.81081939355292,1.0,769
16767.182,0.020584040837096973, -1.8176954545793889, -1.7820749371208908, -1.1136312827640795, 1.5720418964767802, 1.956682676634416,0.44719412481428555, 0.28643193851757454, -0.533480788059442, 0.2466620520605863, 0.002610818430662456, 0.6103469700100992,1.0,-8732.391155646801, -2827.0822237317007, 21510.70409239519, -76.73568476621068, 220.65183810816507, 37.83169586354731,1.0,769
16767.19,0.021448073781767607, -1.8171420335535924, -1.7831056862981605, -1.1131547019519568, 1.5720469408926423, 1.9578619405390738,0.4471941248142857, 0.28643193851757454, -0.5334807880594418, 0.24666205206058642, 0.0026108184306624592, 0.6103469700100995,1.0,-8731.99337944336, -2826.632044264631, 21511.00560530525, -76.74856643573042, 220.65576795923147, 37.815199767462616,1.0,769
16767.198,0.022246633065526544, -1.8166305490081207, -1.784058328590115, -1.112714234913831, 1.5720516030587584, 1.9589518435860294,0.4471941248142855, 0.28643193851757426, -0.533480788059442, 0.24666205206058636, 0.002610818430662453, 0.6103469700100993,1.0,-8731.139430276897, -2827.170299065526, 21511.471152669637, -76.72012730659299, 220.70919020136023, 37.82537303487612,1.0,769
16767.206,0.02297971868837445, -1.816161000942973, -1.7849328639967563, -1.1123098816497032, 1.5720558829751283, 1.9599523857752832,0.4471941248142857, 0.28643193851757426, -0.5334807880594417, 0.24666205206058597, 0.002610818430662457, 0.6103469700100997,1.0,-8730.567010085057, -2827.4131778311457, 21511.21038246039, -76.72697134233252, 220.69877568679073, 37.82687105058346,1.0,769
16767.214,0.02364733065031044, -1.8157333893581509, -1.7857292925180825, -1.1119416421595716, 1.5720597806417524, 1.9608635671068346,0.4471941248142859, 0.28643193851757415, -0.5334807880594412, 0.24666205206058606, 0.0026108184306624514, 0.6103469700101001,1.0,-8732.019485965713, -2827.1719996441907, 21510.811868968754, -76.72953297016556, 220.66839048065407, 37.82712052397966,1.0,769
16767.221999999998,0.024249468951335507, -1.8153477142536545, -1.7864476141540946, -1.111609516443437, 1.5720632960586305, 1.9616853875806837,0.44719412481428605, 0.28643193851757476, -0.533480788059442, 0.24666205206058617, 0.0026108184306624553, 0.6103469700100991,1.0,-8732.427131048384, -2826.853047871715, 21510.770702700705, -76.73265618637481, 220.64459979090446, 37.819121720882094,1.0,769
16767.23,0.024786133591448545, -1.815003975629482, -1.7870878289047916, -1.1113135045013003, 1.5720664292257625, 1.962417847196831,0.44719412481428494, 0.28643193851757487, -0.5334807880594417, 0.24666205206058642, 0.0026108184306624614, 0.6103469700100997,1.0,-8732.50070119474, -2826.5303211918254, 21510.893857989766, -76.75285893133446, 220.64520690815294, 37.82831478006341,1.0,769
16767.237999999998,0.025257324570650885, -1.8147021734856352, -1.7876499367701744, -1.1110536063331597, 1.5720691801431483, 1.9630609459552764,0.447194124814285, 0.2864319385175748, -0.533480788059441, 0.2466620520605866, 0.0026108184306624536, 0.6103469700101002,1.0,-8732.098435950698, -2827.2759615134546, 21510.90134579663, -76.72862412016713, 220.671868292365, 37.82371313577639,1.0,769
16767.246,0.025663041888941196, -1.8144423078221124, -1.7881339377502439, -1.1108298219390162, 1.5720715488107886, 1.9636146838560193,0.44719412481428483, 0.28643193851757454, -0.5334807880594418, 0.24666205206058564, 0.0026108184306624584, 0.6103469700101004,1.0,-8731.536999723157, -2827.6764665667733, 21510.94862718109, -76.72177965668962, 220.66369769045383, 37.817227582174496,1.0,769
16767.254,0.026003285546320587, -1.8142243786389152, -1.7885398318449974, -1.110642151318869, 1.5720735352286825, 1.9640790608990601,0.44719412481428483, 0.28643193851757437, -0.5334807880594407, 0.24666205206058567, 0.0026108184306624666, 0.6103469700101011,1.0,-8731.297009584556, -2827.3572214025917, 21510.85531696224, -76.72585589418196, 220.67933764755668, 37.829362646988756,1.0,769
16767.262,0.02627805554278817, -1.8140483859360428, -1.7888676190544377, -1.1104905944727204, 1.5720751393968304, 1.9644540770843988,0.4471941248142851, 0.28643193851757426, -0.5334807880594425, 0.24666205206058592, 0.002610818430662455, 0.6103469700100993,1.0,-8731.356040600482, -2827.238719760371, 21510.870285893376, -76.73181466362897, 220.66444887961444, 37.82652188784104,1.0,769
16767.27,0.02648735187834439, -1.8139143297134952, -1.789117299378562, -1.110375151400568, 1.5720763613152322, 1.9647397324120355,0.4471941248142842, 0.2864319385175732, -0.5334807880594397, 0.24666205206058556, 0.002610818430662462, 0.6103469700101033,1.0,-8731.854974339516, -2826.980837795336, 21510.812496718725, -76.7458749792294, 220.66295561950187, 37.826779262384036,1.0,769
16767.278,0.026631174552989467, -1.8138222099712724, -1.789288872817373, -1.1102958221024117, 1.5720772009838881, 1.9649360268819702,0.44719412481428605, 0.2864319385175733, -0.533480788059438, 0.24666205206058683, 0.002610818430662499, 0.6103469700101027,1.0,-8732.110915678988, -2827.122295409593, 21510.995856030942, -76.73342776931659, 220.6611702297683, 37.828558339549346,1.0,769
16767.286,0.02670952356672296, -1.8137720267093753, -1.7893823393708699, -1.1102526065782534, 1.572077658402798, 1.9650429604942026,0.4471941248142891, 0.2864319385175711, -0.533480788059444, 0.24666205206058964, 0.0026108184306624844, 0.6103469700100951,1.0,-8731.513528149097, -2827.3602143681164, 21511.050215268882, -76.72902575288188, 220.6691503151888, 37.826879423404904,1.0,769
16767.293999999998,0.026725414012531402, -1.813765641608076, -1.7894064601770614, -1.1102348825020645, 1.5720777429554085, 1.9650646496115816,0.00023572574405635234, -0.3441341801955894, -0.46904314754645854, 0.8133691609410506, -0.0007447065578425232, 0.00043547260355776405,1.0,-8731.239855259375, -2826.7971805521784, 21511.24791491307, -76.74364834216289, 220.68060520357926, 37.83531297115766,1.0,769
16767.302,0.02672545936471143, -1.813831848029701, -1.7894966713812455, -1.1100784279765348, 1.5720775996813952, 1.9650647333683358,0.00023582757606898568, -0.34425299492490513, -0.468935894264916, 0.8133807241073758, -0.0007449977749874505, 0.0004353957136003434,1.0,-8731.702454900564, -2827.654226179421, 21509.158736293008, -76.72654493539068, 220.69655647001127, 37.83649292526604,1.0,769
16767.309999999998,0.02672556124020511, -1.8139805479593534, -1.7896990976173353, -1.109727218979045, 1.572077277863429, 1.9650649213271705,0.00023605598951301673, -0.34451968532511473, -0.46869508146103017, 0.8134066055181466, -0.0007456513452067786, 0.00043522271280756566,1.0,-8733.838983859905, -2827.5535041880066, 21507.73955376014, -76.72778604867469, 220.54743995728313, 37.837797034983936,1.0,769
16767.318,0.026725719798913562, -1.814211927028353, -1.7900135578341994, -1.1091812509299679, 1.5720767770449822, 1.9650652133560425,0.00023641069477497854, -0.3449341974700136, -0.46832058943037713, 0.8134466315290056, -0.0007466669157497264, 0.0004349527750305816,1.0,-8731.679734368217, -2828.353541836993, 21508.50034270609, -76.70474309681205, 220.63652333327337, 37.834505794468214,1.0,769
16767.326,0.026725935288983392, -1.81452627377739, -1.790439770548403, -1.1084405167729132, 1.5720760965167766, 1.9650656092485856,0.00023689119260841986, -0.3454964470648293, -0.46781223245326553, 0.8135005320722211, -0.0007480439283935185, 0.0004345845473303992,1.0,-8731.115436604763, -2828.5591325065643, 21509.144333709428, -76.70601190129469, 220.69249824475224, 37.84308927218834,1.0,769
16767.334,0.02672620804626221, -1.8149239796201684, -1.7909773537978202, -1.1075050070574841, 1.5720752353173235, 1.9650661087226664,0.0002374968242057665, -0.3462063187320456, -0.4671697593221357, 0.8135679405008344, -0.0007497816318024544, 0.0004341162252299958,1.0,-8732.127432880296, -2828.1954532602085, 21509.07276928805, -76.71936163425275, 220.65423281113732, 37.837633765017074,1.0,769
16767.342,0.02672653849355308, -1.8154055387931436, -1.7916258250778858, -1.1063747100532852, 1.5720741922336503, 1.9650667114184301,0.00023822674845683077, -0.34706366512856424, -0.46639285401731884, 0.81364839336981, -0.0007518790625510302, 0.0004335455296506979,1.0,-8733.213363577966, -2828.205788416599, 21508.903635057788, -76.72196234687956, 220.6117213349183, 37.84574250107502,1.0,769
16767.35,0.026726927139681538, -1.8159715482905074, -1.7923846012596956, -1.1050496118968391, 1.572072965802239, 1.9650674168958295,0.00023907995601780234, -0.34806830580714015, -0.4654811365805363, 0.8137413301679345, -0.0007543350473687048, 0.00043286969255255383,1.0,-8733.027388026254, -2828.148981622925, 21508.74447356926, -76.71807932057789, 220.61931129256527, 37.84795448794725,1.0,769
16767.358,0.02672737457837664, -1.8166227077833295, -1.793252998489045, -1.1035296967734087, 1.572071554310163, 1.9650682246316475,0.0002400552636752483, -0.34922002584117545, -0.464434164169157, 0.813846093009115, -0.0007571481936484988, 0.0004320854860180008,1.0,-8731.973386932095, -2827.41623003268, 21509.60242132373, -76.73121764558422, 220.66497339254107, 37.85557812819647,1.0,769
16767.365999999998,0.02672788148695845, -1.817359819521526, -1.794230232065245, -1.1018149471362255, 1.572069955796448, 1.9650691340159903,0.00024115132031455108, -0.35051857423195687, -0.4632514322986555, 0.8139619262789756, -0.0007603168855852119, 0.0004311892091724969,1.0,-8731.848366191498, -2828.2167870033263, 21509.75819984, -76.72212006551555, 220.66291659320672, 37.851395886703244,1.0,769
16767.374,0.026728448624851124, -1.8181837882170306, -1.7953154162984735, -1.0999053439659559, 1.5720681680536506, 1.9650701443482934,0.00024236660377289273, -0.3519636620960761, -0.4619323762710403, 0.8140879762485869, -0.0007638392722408648, 0.0004301766903670936,1.0,-8732.329276593171, -2828.9762647497373, 21509.484307591214, -76.69101532590267, 220.68704994877504, 37.85390248500056,1.0,769
16767.381999999998,0.02672907683191165, -1.8190956209063414, -1.796507564344144, -1.0978008670738015, 1.572066188629683, 1.9650712548327844,0.0002436994251763416, -0.3535549606324677, -0.460476372797535, 0.814223290661844, -0.0007677132580647501, 0.0004290432863821186,1.0,-8732.36246030535, -2829.2150947254504, 21509.17902667839, -76.69036787254825, 220.63037199917983, 37.84859140182371,1.0,769
16767.39,0.026729767026586134, -1.8200964267902542, -1.7978055880127624, -1.0955014954519093, 1.5720640148298752, 1.965072464573459,0.0002451479309554849, -0.3552920988715613, -0.4588827418158588, 0.8143668183076235, -0.0007719364934681243, 0.0004277838947380724,1.0,-8733.716965472226, -2827.385794849267, 21509.03344880343, -76.74462107661088, 220.62144462626497, 37.8534695928185,1.0,769
16767.398,0.02673052020389632, -1.8211874170483506, -1.7992082975534682, -1.093007207675349, 1.5720616437193125, 1.9650737725685288,0.00024671010396114354, -0.357174661222831, -0.45715074850347986, 0.8145174085825975, -0.0007765063631638157, 0.00042639294878094584,1.0,-8730.142932972349, -2829.3356421763465, 21509.293494993766, -76.6741404570887, 220.76061586963118, 37.85136105982701,1.0,769
16767.406,0.02673133743326415, -1.8223699046254431, -1.800714401409464, -1.090317982360241, 1.5720590721254417, 1.9650751777043716,0.00024838376716898483, -0.3592021848347015, -0.4552796054872743, 0.8146738110531634, -0.0007814199717869259, 0.00042486441990715354,1.0,-8734.418006613223, -2827.558443655902, 21508.700672509385, -76.7407057328509, 220.5551177864121, 37.84968118863691,1.0,769
16767.414,0.02673221985617654, -1.8236453039868863, -1.8023225059433292, -1.0874337986831435, 1.57205629664098, 1.9650766787489653,0.0002501665847230377, -0.36137415675167417, -0.4532684752571749, 0.8148346750348939, -0.0007866741313786188, 0.0004231918264555208,1.0,-8732.296613808048, -2828.8879911832228, 21509.033821389206, -76.69533741679203, 220.67303267001847, 37.849525084377916,1.0,769
16767.422,0.026733168683694297, -1.8250151308392475, -1.8040311151302078, -1.0843546369671948, 1.5720533136271384, 1.9650782743448139,0.00025205606524565254, -0.3636900109040641, -0.45111647277985367, 0.8149985491934566, -0.0007922653453716719, 0.0004213682339776678,1.0,-8733.6381258546, -2827.865918214973, 21509.097848060224, -76.7187389041678, 220.6010019513156, 37.850083649542654,1.0,769
16767.43,0.026734185193821876, -1.8264810018124962, -1.8058386302167442, -1.0810804793409892, 1.5720501192171827, 1.9650799630013807,0.0002540495681397644, -0.36614912492739143, -0.4488226683167666, 0.8151638811839953, -0.0007981897944611689, 0.0004193862629495329,1.0,-8732.224314463077, -2827.371375638102, 21509.019361961506, -76.73964172381193, 220.6790854013313, 37.853667683915006,1.0,769
16767.438,0.026735270728736268, -1.8280446340994398, -1.8077433493436272, -1.077611310476616, 1.5720467093203567, 1.96508174308701,0.00025614430251015915, -0.3687508168348908, -0.44638609044281946, 0.8153290173397466, -0.0008044433167629395, 0.00041723809210299933,1.0,-8732.610088104533, -2828.3923640411585, 21508.76487398025, -76.70268388669453, 220.64152785732034, 37.85324025785724,1.0,769
16767.446,0.02673642669187974, -1.8297078450476931, -1.8097434671295671, -1.073947118413714, 1.5720430796261897, 1.9650836128203544,0.0002583373350309688, -0.3714943415387056, -0.4438057292722094, 0.8154922024281774, -0.0008110213943860571, 0.0004149154680850096,1.0,-8731.788740843218, -2828.977719481112, 21509.250089625704, -76.68698051053084, 220.69141386568856, 37.85671507631014,1.0,769
16767.453999999998,0.026737654544934764, -1.8314725516990347, -1.8118370742145302, -1.0700878954768775, 1.5720392256092195, 1.9650855702613252,0.0002606255922069607, -0.3743788872679547, -0.4410805398791946, 0.8156515794803039, -0.0008179191303678242, 0.00041240970968359236,1.0,-8731.857275670181, -2828.5173561406073, 21509.329009370544, -76.70437672538247, 220.68215326532498, 37.86147967800596,1.0,769
16767.462,0.026738955804680664, -1.8333407702705067, -1.8140221567600943, -1.0660336392942238, 1.572035142534163, 1.9650876133015327,0.0002630058673210797, -0.3774035718619574, -0.4382094459224231, 0.815805189719255, -0.0008251312320201854, 0.00040971171976648496,1.0,-8732.509235458063, -2828.1950471990676, 21509.182784864282, -76.70526813262526, 220.6523918781768, 37.85768796700097,1.0,769
16767.469999999998,0.026740332039741938, -1.8353146155710967, -1.816296595904844, -1.0617843539253045, 1.572030825461557, 1.965089739654279,0.0002654748228931476, -0.38056743899615453, -0.4351913434570307, 0.8159509725919551, -0.0008326519901901584, 0.00040681199191255354,1.0,-8733.367583245317, -2827.975061582598, 21509.43825925453, -76.70497063162105, 220.6031623246197, 37.85865312108939,1.0,769
16767.478,0.026741784867237006, -1.837396300347323, -1.8186581671727806, -1.057340051107131, 1.5720262692539153, 1.9650919468440502,0.0002680289990758813, -0.3838694543297829, -0.4320251049386502, 0.8160867659280543, -0.000840475256967802, 0.00040370061978813667,1.0,-8732.560385966493, -2828.309872096319, 21509.160649331232, -76.68776636612617, 220.63012800953015, 37.85590617782822,1.0,769
16767.486,0.02674331594933984, -1.8395881345504668, -1.8211045398328745, -1.0527007516273832, 1.5720214685824339, 1.965094232195583,0.00027066481796904715, -0.38730850162330066, -0.4287095834023365, 0.816210306234477, -0.0008485944259862512, 0.00040036731467227445,1.0,-8732.47826954645, -2828.039606346775, 21508.751948165478, -76.70610460007424, 220.63275360149714, 37.85993100878039,1.0,769
16767.494,0.026744926989754447, -1.841892524517605, -1.8236332762079916, -1.047866486834466, 1.572016417934284, 1.9650965928224475,0.0002733785912780742, -0.39088337883751867, -0.4252436168117381, 0.8163192291432898, -0.0008570024079445413, 0.00039680141172707123,1.0,-8732.870125167761, -2827.6311546651923, 21508.79159711088, -76.71740711204075, 220.63410735794662, 37.85642223764984,1.0,769
16767.502,0.026746617445408637, -1.844308707562682, -1.8262383427461328, -1.0428440545657578, 1.5720111187823969, 1.9650990223640483,0.000276162830832275, -0.394587819168494, -0.42163089905456663, 0.816410961349555, -0.00086568003016714, 0.00039299715144802016,1.0,-8731.958675360836, -2828.238641694412, 21509.234906729864, -76.67842186362435, 220.68116510691414, 37.85757872411938,1.0,769
16767.51,0.026748342915044045, -1.8467733461185016, -1.8288481097517888, -1.037768453866697, 1.5720057100211948, 1.9651014532874789,0.0002789403967253209, -0.39832135887597564, -0.41796785211332016, 0.8164814608673011, -0.0008743886364695404, 0.00038904979030704743,1.0,-8732.562224494703, -2828.1601767109587, 21510.253019936907, -76.69052793782046, 220.6171248560011, 37.86558624188433,1.0,769
