dlisjak-bit/sensor_synchronization/realtime_sync/alldata/motion_demo/robot_reference.csv
t,q0,q1,q2,q3,q4,q5,qd0,qd1,qd2,qd3,qd4,qd5,ss,f0,f1,f2,f3,f4,f5,tsf,do
11491.430999999999,-0.5722994082398243, -1.9783725864189847, -1.4459474697689476, -0.9620606452101459, 1.6316608385739497, 1.9214884631487714,0.7731088206123938, -0.11093731453367942, 0.11932522856312446, -0.4370514363895655, 0.03396364562448135, -0.42847364713531627,1.0,-8728.632152759512, -2831.9722634465907, 21513.157522477697, -76.57863389046278, 220.82972195118725, 37.908350054217976,1.0,769
11491.439,-0.5722027122147875, -1.978386461823142, -1.4459325452525267, -0.9621153091015788, 1.631665086552294, 1.9214348721181083,0.7731088206123937, -0.11093731453367939, 0.11932522856312443, -0.43705143638956545, 0.03396364562448134, -0.4284736471353162,1.0,-8728.550040831316, -2833.6241716800932, 21512.749825257823, -76.52378900672363, 220.8264859906388, 37.910530428975164,1.0,769
11491.447,-0.5720166553320469, -1.9784131600710104, -1.4459038283636918, -0.9622204901908171, 1.6316732602658293, 1.9213317553653348,0.7731088206123938, -0.11093731453367942, 0.11932522856312446, -0.43705143638956556, 0.03396364562448135, -0.4284736471353163,1.0,-8729.458922336442, -2832.6987833405465, 21512.461888701062, -76.5634070533408, 220.79547578866345, 37.93542837103678,1.0,769
11491.455,-0.5717412375916053, -1.9784526811625884, -1.4458613191024439, -0.9623761884778599, 1.6316853597145557, 1.921179112890451,0.7731088206123936, -0.11093731453367939, 0.11932522856312443, -0.43705143638956545, 0.033963645624481335, -0.4284736471353162,1.0,-8728.566657262825, -2832.2472586720623, 21512.134015835887, -76.57033422390631, 220.79882125999006, 37.96932600510297,1.0,769
11491.463,-0.5713764589934618, -1.9785050250978777, -1.4458050174687829, -0.962582403962708, 1.6317013848984736, 1.9209769446934566,0.7731088206123936, -0.11093731453367939, 0.11932522856312444, -0.43705143638956545, 0.033963645624481335, -0.4284736471353162,1.0,-8729.294131015735, -2833.150157592747, 21512.133398284554, -76.5539051096894, 220.7833158856664, 38.00163681740639,1.0,769
11491.471,-0.5709223195376154, -1.9785701918768774, -1.445734923462708, -0.9628391366453615, 1.6317213358175824, 1.9207252507743517,0.7731088206123937, -0.11093731453367939, 0.11932522856312443, -0.43705143638956545, 0.03396364562448134, -0.4284736471353162,1.0,-8729.177025547137, -2833.3441556812095, 21512.063036873504, -76.53535132600109, 220.79528981897874, 38.05015591924041,1.0,769
11491.479,-0.5703788192240671, -1.9786481814995867, -1.44565103708422, -0.9631463865258194, 1.6317452124718825, 1.9204240311331366,0.7731088206123937, -0.11093731453367939, 0.11932522856312444, -0.43705143638956545, 0.03396364562448134, -0.4284736471353162,1.0,-8729.091022121618, -2832.620624208913, 21512.3317283779, -76.56652810750137, 220.80556114813157, 38.10283766690932,1.0,769
11491.487,-0.5697459580528168, -1.9787389939660072, -1.4455533583333189, -0.9635041536040827, 1.6317730148613738, 1.920073285769811,0.7731088206123936, -0.11093731453367939, 0.11932522856312443, -0.4370514363895654, 0.03396364562448134, -0.42847364713531616,1.0,-8729.290666255132, -2832.59349450685, 21512.46731913217, -76.57636490630816, 220.80506257914084, 38.164237127769184,1.0,769
11491.494999999999,-0.5690237360238646, -1.978842629276138, -1.4454418872100039, -0.9639124378801514, 1.6318047429860565, 1.919673014684375,0.7731088206123936, -0.11093731453367939, 0.11932522856312444, -0.43705143638956545, 0.03396364562448134, -0.4284736471353162,1.0,-8729.320113656928, -2832.9014402320336, 21512.73874475052, -76.55741706263444, 220.7856645457278, 38.24058216983366,1.0,769
11491.502999999999,-0.5682121531372104, -1.9789590874299794, -1.4453166237142767, -0.9643712393540245, 1.63184039684593, 1.9192232178768285,0.7731088206123936, -0.11093731453367939, 0.11932522856312444, -0.4370514363895654, 0.033963645624481335, -0.4284736471353162,1.0,-8729.664088941761, -2833.7608425648123, 21512.886245433478, -76.55029575370978, 220.7919814125047, 38.190068886643445,1.0,769
11491.510999999999,-0.5673112093928534, -1.979088368427531, -1.4451775678461356, -0.9648805580257029, 1.631879976440995, 1.9187238953471717,0.7731088206123937, -0.11093731453367939, 0.11932522856312443, -0.4370514363895654, 0.03396364562448134, -0.42847364713531616,1.0,-8729.154457528404, -2833.2340873521116, 21513.158346267723, -76.55521090942764, 220.82666462665833, 38.17468700870626,1.0,769
11491.519,-0.5663209047907953, -1.9792304722687932, -1.4450247196055805, -0.9654403938951868, 1.6319234817712511, 1.9181750470954044,0.7731088206123937, -0.11093731453367939, 0.11932522856312443, -0.4370514363895654, 0.033963645624481335, -0.4284736471353162,1.0,-8728.7261259854, -2833.323623368078, 21513.25502805703, -76.55689745952324, 220.83096642426113, 38.16841457189628,1.0,769
11491.527,-0.5652412393310344, -1.9793853989537666, -1.4448580789926133, -0.9660507469624751, 1.6319709128366984, 1.9175766731215267,0.7731088206123936, -0.11093731453367937, 0.11932522856312443, -0.43705143638956545, 0.033963645624481335, -0.4284736471353162,1.0,-8729.439621531892, -2833.4421292487896, 21513.054573924663, -76.5510787025089, 220.81258523766962, 38.17427770105763,1.0,769
11491.535,-0.5640722130135716, -1.9795531484824496, -1.4446776460072321, -0.9667116172275687, 1.6320222696373368, 1.9169287734255387,0.7731088206123937, -0.1109373145336794, 0.11932522856312446, -0.4370514363895655, 0.03396364562448134, -0.42847364713531627,1.0,-8730.15165861564, -2833.42981442363, 21512.79530877213, -76.54098498726847, 220.7749357436877, 38.16544333089763,1.0,769
11491.543,-0.5628138258384059, -1.979733720854843, -1.444483420649437, -0.9674230046904677, 1.6320775521731663, 1.91623134800744,0.7731088206123937, -0.11093731453367939, 0.11932522856312444, -0.43705143638956545, 0.033963645624481335, -0.4284736471353162,1.0,-8730.291859085612, -2832.8056232267327, 21512.537556748914, -76.55861160944937, 220.77520394291338, 38.16854980719296,1.0,769
11491.551,-0.5614660778055391, -1.9799271160709475, -1.4442754029192297, -0.9681849093511721, 1.6321367604441872, 1.915484396867231,0.7731088206123937, -0.1109373145336794, 0.11932522856312444, -0.43705143638956545, 0.03396364562448134, -0.42847364713531627,1.0,-8729.424798377026, -2832.7612965284698, 21512.889116912764, -76.5571683652482, 220.8041947176098, 38.15943777196492,1.0,769
11491.559,-0.5600289689149696, -1.9801333341307616, -1.4440535928166085, -0.9689973312096809, 1.632199894450399, 1.9146879200049116,0.7731088206123937, -0.1109373145336794, 0.11932522856312444, -0.43705143638956545, 0.03396364562448134, -0.4284736471353162,1.0,-8728.587698939878, -2833.214027356421, 21512.98280424616, -76.54826899650843, 220.83956124592703, 38.1591627735109,1.0,769
11491.567,-0.558502499166698, -1.980352375034287, -1.4438179903415742, -0.9698602702659942, 1.6322669541918022, 1.913841917420482,0.7731088206123937, -0.1109373145336794, 0.11932522856312446, -0.43705143638956545, 0.03396364562448135, -0.4284736471353162,1.0,-8728.868479829662, -2833.31727920885, 21512.918123750344, -76.55138599832239, 220.82147371515288, 38.16428990492088,1.0,769
11491.574999999999,-0.5568866685607254, -1.980584238781522, -1.443568595494126, -0.9707737265201137, 1.6323379396683966, 1.9129463891139418,0.7731088206123937, -0.1109373145336794, 0.11932522856312446, -0.4370514363895655, 0.03396364562448134, -0.42847364713531627,1.0,-8730.05715644221, -2832.947757498443, 21512.46011486178, -76.56323039015297, 220.76897355802458, 38.17234234008157,1.0,769
11491.582999999999,-0.5551814770970491, -1.9808289253724682, -1.4433054082742656, -0.9717376999720377, 1.6324128508801823, 1.9120013350852911,0.7731088206123937, -0.11093731453367939, 0.11932522856312446, -0.4370514363895655, 0.03396364562448134, -0.42847364713531627,1.0,-8730.41876076604, -2832.467549512632, 21512.605983401478, -76.57508581637117, 220.75189774084868, 38.161990719042876,1.0,769
11491.591,-0.5533869247756718, -1.9810864348071249, -1.4430284286819912, -0.9727521906217662, 1.632491687827159, 1.91100675533453,0.7731088206123937, -0.1109373145336794, 0.11932522856312446, -0.4370514363895655, 0.03396364562448134, -0.42847364713531627,1.0,-8728.827263486004, -2832.481025983091, 21513.004586075956, -76.5851401089829, 220.83733592660252, 38.166703889875976,1.0,769
11491.599,-0.5515030115965924, -1.981356767085492, -1.4427376567173038, -0.9738171984693009, 1.632574450509327, 1.9099626498616586,0.7731088206123937, -0.1109373145336794, 0.11932522856312446, -0.43705143638956545, 0.03396364562448134, -0.4284736471353162,1.0,-8729.188162337305, -2833.1679242125447, 21513.09828142927, -76.556907170606, 220.82182497078156, 38.173678863364614,1.0,769
11491.607,-0.5495297375598103, -1.9816399222075693, -1.4424330923802025, -0.9749327235146401, 1.632661138926686, 1.9088690186666766,0.7731088206123936, -0.11093731453367937, 0.11932522856312441, -0.43705143638956545, 0.033963645624481335, -0.42847364713531616,1.0,-8730.332621861722, -2833.0485152215033, 21512.950768484225, -76.55682208777492, 220.76798856446806, 38.169977483748795,1.0,769
11491.615,-0.5474671026653262, -1.9819359001733572, -1.442114735670689, -0.9760987657577838, 1.6327517530792361, 1.9077258617495845,0.7731088206123937, -0.1109373145336794, 0.11932522856312444, -0.43705143638956545, 0.03396364562448134, -0.42847364713531627,1.0,-8729.252814095074, -2832.1617700407896, 21512.971270106536, -76.58485398062967, 220.82019354132126, 38.16841444845127,1.0,769
11491.623,-0.5453151069131401, -1.9822447009828554, -1.4417825865887615, -0.9773153251987337, 1.6328462929669778, 1.9065331791103817,0.7731088206123937, -0.11093731453367939, 0.11932522856312444, -0.43705143638956545, 0.03396364562448134, -0.4284736471353162,1.0,-8729.473824639288, -2832.4887454568598, 21513.001314090667, -76.57801625253401, 220.82846918808417, 38.172261360347136,1.0,769
11491.631,-0.5430737503032521, -1.982566324636064, -1.44143664513442, -0.978582401837488, 1.6329447585899104, 1.9052909707490686,0.7731088206123937, -0.1109373145336794, 0.11932522856312444, -0.4370514363895655, 0.03396364562448134, -0.42847364713531627,1.0,-8730.422776262638, -2832.830327561038, 21513.04120630827, -76.56577566328264, 220.77871855852328, 38.167662400655104,1.0,769
11491.639,-0.5407430328356613, -1.9829007711329831, -1.4410769113076665, -0.9798999956740468, 1.6330471499480341, 1.9039992366656449,0.7731088206123936, -0.1109373145336794, 0.11932522856312444, -0.43705143638956545, 0.03396364562448134, -0.4284736471353162,1.0,-8729.5478785381, -2833.5824268602846, 21513.054593297657, -76.5379856324615, 220.81859803099087, 38.16748896074543,1.0,769
11491.646999999999,-0.5383229545103685, -1.9832480404736135, -1.440703385108499, -0.9812681067084119, 1.6331534670413492, 1.902657976860111,0.7731088206123937, -0.11093731453367939, 0.11932522856312444, -0.4370514363895655, 0.03396364562448134, -0.42847364713531627,1.0,-8730.002150213819, -2832.2654416869173, 21512.659045164313, -76.5975503383348, 220.77339752328743, 38.17444817910177,1.0,769
11491.654999999999,-0.5358135153273746, -1.9836081326579533, -1.4403160665369175, -0.9826867349405815, 1.6332637098698555, 1.9012671913324666,0.7731088206123937, -0.1109373145336794, 0.11932522856312444, -0.43705143638956545, 0.03396364562448134, -0.4284736471353162,1.0,-8729.081221191402, -2832.81669717592, 21513.0744095658, -76.5556898638527, 220.83161877355508, 38.172336180417744,1.0,769
11491.662999999999,-0.533214715286678, -1.9839810476860045, -1.4399149555929238, -0.9841558803705555, 1.6333778784335529, 1.8998268800827118,0.7731088206123936, -0.1109373145336794, 0.11932522856312446, -0.43705143638956545, 0.03396364562448134, -0.42847364713531627,1.0,-8729.508751230542, -2833.1763380992297, 21513.11209585699, -76.55761751689559, 220.8031054159511, 38.16595859426195,1.0,769
11491.671,-0.5305265543882793, -1.9843667855577651, -1.4395000522765162, -0.9856755429983357, 1.6334959727324414, 1.8983370431108466,0.7731088206123937, -0.11093731453367939, 0.11932522856312444, -0.4370514363895655, 0.03396364562448134, -0.4284736471353162,1.0,-8730.334265771391, -2833.2573738034416, 21513.03213492131, -76.55393816765078, 220.76788111467704, 38.16487012698903,1.0,769
11491.679,-0.5277490326321779, -1.984765346273237, -1.4390713565876956, -0.9872457228239204, 1.6336179927665213, 1.896797680416871,0.7731088206123937, -0.1109373145336794, 0.11932522856312444, -0.43705143638956545, 0.03396364562448134, -0.4284736471353162,1.0,-8728.648337266162, -2833.033468321335, 21513.129086425957, -76.5383295954446, 220.87630644733042, 38.16829929096377,1.0,769
11491.687,-0.5248821500183753, -1.9851767298324194, -1.4386288685264619, -0.9888664198473096, 1.6337439385357921, 1.8952087920007847,0.7731088206123937, -0.11093731453367942, 0.11932522856312446, -0.4370514363895655, 0.03396364562448135, -0.42847364713531627,1.0,-8730.951163004489, -2832.621947423606, 21513.18006669242, -76.56979169284344, 220.7603872586334, 38.17022843162704,1.0,769
11491.695,-0.52192590654687, -1.9856009362353113, -1.4381725880928142, -0.9905376340685041, 1.6338738100402543, 1.8935703778625883,0.7731088206123937, -0.11093731453367939, 0.11932522856312444, -0.43705143638956545, 0.03396364562448134, -0.4284736471353162,1.0,-8729.102364707782, -2832.89016389435, 21513.601686011476, -76.55582631487755, 220.84899344073926, 38.158715063602386,1.0,769
11491.703,-0.5188803022176627, -1.9860379654819145, -1.4377025152867535, -0.992259365487504, 1.6340076072799077, 1.8918824380022814,0.7731088206123937, -0.1109373145336794, 0.11932522856312444, -0.43705143638956545, 0.03396364562448134, -0.42847364713531627,1.0,-8731.162639047812, -2832.150644661897, 21512.759880761427, -76.57221195953622, 220.73330854528518, 38.166854279931385,1.0,769
11491.711,-0.5157453370307534, -1.986487817572228, -1.4372186501082798, -0.9940316141043093, 1.6341453302547522, 1.890144972419864,0.7731088206123937, -0.1109373145336794, 0.11932522856312444, -0.43705143638956545, 0.033963645624481335, -0.4284736471353162,1.0,-8728.768235995452, -2832.4223585129903, 21513.057524784366, -76.57446197070763, 220.86298997808478, 38.178806020647954,1.0,769
11491.719,-0.5125210109861422, -1.986950492506252, -1.436720992557392, -0.995854379918919, 1.6342869789647878, 1.8883579811153364,0.7731088206123936, -0.11093731453367939, 0.11932522856312443, -0.43705143638956545, 0.033963645624481335, -0.42847364713531627,1.0,-8731.119975528327, -2831.9847090831645, 21512.459941392623, -76.59676513411515, 220.72218470464452, 38.17648488210028,1.0,769
11491.726999999999,-0.5092073240838282, -1.9874259902839864, -1.4362095426340922, -0.9977276629313341, 1.6344325534100148, 1.886521464088698,0.7731088206123937, -0.1109373145336794, 0.11932522856312443, -0.43705143638956545, 0.03396364562448134, -0.4284736471353162,1.0,-8728.288201248064, -2832.8590042869573, 21512.996249619762, -76.55558123236298, 220.89036425850833, 38.166479146608594,1.0,769
11491.734999999999,-0.5058042763238131, -1.9879143109054311, -1.4356843003383783, -0.9996514631415545, 1.634582053590433, 1.8846354213399494,0.7731088206123937, -0.11093731453367939, 0.11932522856312443, -0.43705143638956545, 0.03396364562448134, -0.4284736471353162,1.0,-8731.779668131265, -2831.8882406080975, 21512.20669719523, -76.61379126648922, 220.69110276938068, 38.18906780776618,1.0,769
11491.742999999999,-0.5023118677060951, -1.9884154543705872, -1.4351452656702506, -1.0016257805495794, 1.634735479506042, 1.8826998528690906,0.7731088206123936, -0.1109373145336794, 0.11932522856312444, -0.43705143638956545, 0.03396364562448134, -0.4284736471353162,1.0,-8727.889441348103, -2833.5308856855772, 21512.924059688412, -76.53675069633988, 220.90128824945634, 38.183476938407495,1.0,769
11491.751,-0.49873009823067527, -1.9889294206794528, -1.4345924386297106, -1.0036506151554097, 1.6348928311568425, 1.880714758676121,0.7731088206123937, -0.1109373145336794, 0.11932522856312444, -0.43705143638956545, 0.03396364562448134, -0.42847364713531616,1.0,-8731.306188102093, -2832.702090641046, 21512.662583117926, -76.56632165308844, 220.68363108525625, 38.176796459865244,1.0,769
11491.759,-0.49505896789755344, -1.9894562098320288, -1.4340258192167568, -1.0057259669590453, 1.6350541085428343, 1.8786801387610412,0.7731088206123937, -0.11093731453367939, 0.11932522856312444, -0.43705143638956545, 0.03396364562448134, -0.42847364713531627,1.0,-8728.707470486046, -2833.5313961195843, 21513.209879550715, -76.53889949746798, 220.83476679547192, 38.1879761075227,1.0,769
11491.767,-0.49129847670672877, -1.989995821828316, -1.433445407431389, -1.0078518359604853, 1.635219311664017, 1.876595993123851,0.7731088206123936, -0.11093731453367939, 0.11932522856312444, -0.43705143638956545, 0.03396364562448134, -0.4284736471353162,1.0,-8729.976742982903, -2833.4961837228275, 21513.304616383466, -76.53269067134588, 220.77099298151035, 38.18467072786069,1.0,769
11491.775,-0.48744862465820304, -1.9905482566683128, -1.432851203273609, -1.0100282221597308, 1.6353884405203911, 1.8744623217645504,0.7731088206123937, -0.1109373145336794, 0.11932522856312444, -0.4370514363895654, 0.03396364562448134, -0.4284736471353162,1.0,-8731.79456341735, -2831.6963099811264, 21513.384597095577, -76.58845487094882, 220.7166721346445, 38.1974596785947,1.0,769
11491.783,-0.4835094117519745, -1.9911135143520209, -1.432243206743415, -1.0122551255567815, 1.6355614951119561, 1.8722791246831392,0.7731088206123937, -0.11093731453367939, 0.11932522856312444, -0.4370514363895655, 0.03396364562448134, -0.42847364713531627,1.0,-8728.740713617073, -2832.573643246237, 21513.60704562255, -76.54021196837118, 220.86499234925918, 38.17365422535144,1.0,769
11491.791,-0.479480837988044, -1.9916915948794394, -1.431621417840808, -1.0145325461516368, 1.6357384754387125, 1.8700464018796177,0.7731088206123937, -0.11093731453367939, 0.11932522856312444, -0.43705143638956545, 0.03396364562448134, -0.4284736471353162,1.0,-8731.495707351647, -2831.379373857586, 21513.492377415867, -76.59523427424739, 220.71618250989502, 38.17781132557025,1.0,769
11491.798999999999,-0.4753629033664115, -1.9922824982505674, -1.430985836565788, -1.0168604839442974, 1.63591938150066, 1.8677641533539857,0.7731088206123937, -0.1109373145336794, 0.11932522856312444, -0.43705143638956545, 0.033963645624481335, -0.4284736471353162,1.0,-8729.842280000215, -2831.2268671445263, 21513.93193678069, -76.59873684554347, 220.80487207762104, 38.17812573351921,1.0,769
11491.806999999999,-0.4711556078870771, -1.9928862244654066, -1.430336462918354, -1.0192389389347634, 1.636104213297799, 1.8654323791062435,0.7731088206123937, -0.11093731453367942, 0.11932522856312447, -0.4370514363895655, 0.03396364562448134, -0.42847364713531627,1.0,-8729.292571372298, -2832.766445285665, 21513.263539116266, -76.56257885120812, 220.81409561979882, 38.17366339372313,1.0,769
11491.814999999999,-0.46685895155003987, -1.9935027735239563, -1.4296732968985069, -1.0216679111230338, 1.6362929708301288, 1.8630510791363906,0.7731088206123937, -0.11093731453367939, 0.11932522856312444, -0.4370514363895654, 0.03396364562448134, -0.42847364713531627,1.0,-8731.23588115479, -2832.5165981468954, 21513.20311449852, -76.56843377210936, 220.7301970318344, 38.17013653412744,1.0,769
11491.823,-0.46247293435530157, -1.9941321454262164, -1.4289963385062467, -1.0241474005091096, 1.63648565409765, 1.8606202534444274,0.7731088206123936, -0.1109373145336794, 0.11932522856312444, -0.4370514363895655, 0.03396364562448134, -0.4284736471353162,1.0,-8730.984716911851, -2833.0334203655666, 21513.016956771306, -76.56662901217635, 220.73340188884816, 38.20293121590748,1.0,769
11491.831,-0.45799755630286043, -1.994774340172187, -1.4283055877415736, -1.0266774070929898, 1.6366822631003621, 1.8581399020303537,0.7731088206123937, -0.11093731453367942, 0.11932522856312447, -0.4370514363895655, 0.03396364562448134, -0.42847364713531627,1.0,-8730.839127089068, -2833.2161821019517, 21512.995866174388, -76.55091519253958, 220.75796030284187, 38.17610599697841,1.0,769
11491.839,-0.45343281739271735, -1.9954293577618678, -1.4276010446044864, -1.0292579308746763, 1.6368827978382656, 1.8556100248941698,0.7731088206123937, -0.11093731453367939, 0.11932522856312444, -0.43705143638956545, 0.03396364562448134, -0.42847364713531616,1.0,-8729.699921874619, -2832.895859425106, 21513.39832179732, -76.55651299689586, 220.77822319215574, 38.18078704198419,1.0,769
11491.847,-0.4487787176248723, -1.99609719819526, -1.4268827090949863, -1.0318889718541673, 1.6370872583113605, 1.8530306220358754,0.7731088206123936, -0.1109373145336794, 0.11932522856312443, -0.43705143638956545, 0.03396364562448134, -0.4284736471353162,1.0,-8731.838571266298, -2831.739363143526, 21513.119451409322, -76.59442836435912, 220.68254042726977, 38.18001249448696,1.0,769
11491.855,-0.44403525699932445, -1.9967778614723617, -1.4261505812130721, -1.0345705300314627, 1.6372956445196463, 1.8504016934554706,0.7731088206123937, -0.11093731453367942, 0.11932522856312446, -0.4370514363895655, 0.03396364562448135, -0.42847364713531627,1.0,-8730.540451606425, -2832.1111231116247, 21513.570707284947, -76.57407396222831, 220.78526260517293, 38.1960613866961,1.0,769
11491.863,-0.4392024355160755, -1.9974713475931738, -1.4254046609587459, -1.0373026054065644, 1.6375079564631232, 1.8477232391529552,0.7731088206123937, -0.11093731453367939, 0.11932522856312443, -0.43705143638956545, 0.03396364562448134, -0.4284736471353162,1.0,-8730.301665628347, -2831.527603280978, 21513.50427995278, -76.5894512245485, 220.7727926083832, 38.19791331534876,1.0,769
11491.871,-0.43428025317512375, -1.9981776565576972, -1.4246449483320056, -1.0400851979794705, 1.6377241941417915, 1.8449952591283294,0.7731088206123936, -0.1109373145336794, 0.11932522856312443, -0.43705143638956545, 0.03396364562448134, -0.42847364713531627,1.0,-8729.448222968378, -2832.1764210413075, 21513.45403451841, -76.57339340367781, 220.8108895096887, 38.18048669723862,1.0,769
11491.878999999999,-0.42926870997647004, -1.99889678836593, -1.4238714433328523, -1.0429183077501811, 1.637944357555651, 1.8422177533815933,0.7731088206123937, -0.11093731453367939, 0.11932522856312444, -0.43705143638956545, 0.033963645624481335, -0.4284736471353162,1.0,-8731.183417213499, -2832.8882560297898, 21513.397140260702, -76.55585352190124, 220.73139942718825, 38.16822587813522,1.0,769
11491.886999999999,-0.4241678059201144, -1.9996287430178743, -1.423084145961285, -1.045801934718697, 1.6381684467047015, 1.8393907219127468,0.7731088206123937, -0.11093731453367939, 0.11932522856312444, -0.43705143638956545, 0.033963645624481335, -0.4284736471353162,1.0,-8731.682923701595, -2831.5379523484035, 21513.358386773878, -76.5989789414626, 220.7128044633967, 38.192230599549305,1.0,769
11491.894999999999,-0.4189775410060568, -2.000373520513529, -1.4222830562173057, -1.0487360788850184, 1.6383964615889433, 1.8365141647217897,0.7731088206123936, -0.1109373145336794, 0.11932522856312444, -0.4370514363895654, 0.03396364562448134, -0.4284736471353162,1.0,-8731.16527292045, -2832.609446448917, 21513.463606321784, -76.56980635771282, 220.76251013036529, 38.18808681066665,1.0,769
11491.903,-0.41369791523429633, -2.001131120852893, -1.4214681741009123, -1.051720740249145, 1.6386284022083764, 1.8335880818087225,0.7731088206123937, -0.11093731453367939, 0.11932522856312444, -0.43705143638956545, 0.03396364562448134, -0.4284736471353162,1.0,-8730.690357093867, -2832.0937089437666, 21513.361557171786, -76.58650376345071, 220.75272360029084, 38.19760186571699,1.0,769
11491.911,-0.40832892860483483, -2.0019015440359684, -1.420639499612106, -1.0547559188110762, 1.6388642685630004, 1.8306124731735447,0.7731088206123938, -0.1109373145336794, 0.11932522856312446, -0.4370514363895655, 0.03396364562448134, -0.42847364713531627,1.0,-8730.713424119565, -2832.167589043628, 21513.314120658437, -76.57594299245594, 220.76818693675722, 38.17928528087282,1.0,769
11491.919,-0.4028705811176705, -2.0026847900627542, -1.4197970327508855, -1.0578416145708127, 1.6391040606528158, 1.8275873388162565,0.7731088206123937, -0.11093731453367942, 0.11932522856312446, -0.4370514363895655, 0.03396364562448134, -0.42847364713531627,1.0,-8729.6825627479, -2832.490572298868, 21513.242998624755, -76.54696172590528, 220.80309623497766, 38.18151564225013,1.0,769
11491.927,-0.3973228727728042, -2.0034808589332505, -1.4189407735172521, -1.0609778275283546, 1.6393477784778223, 1.8245126787368577,0.7731088206123937, -0.11093731453367939, 0.11932522856312444, -0.43705143638956545, 0.03396364562448134, -0.42847364713531616,1.0,-8730.809374355451, -2832.714443490573, 21513.215065929133, -76.55812713338955, 220.73474364746232, 38.17561721156355,1.0,769
11491.935,-0.39168580357023597, -2.004289750647457, -1.4180707219112056, -1.0641645576837009, 1.63959542203802, 1.8213884929353488,0.7731088206123937, -0.11093731453367939, 0.11932522856312444, -0.43705143638956545, 0.03396364562448134, -0.4284736471353162,1.0,-8731.0712757055, -2831.654064230909, 21513.217374403135, -76.59411065212251, 220.7464362261323, 38.1829014887785,1.0,769
11491.943,-0.3859593735099649, -2.005111465205374, -1.4171868779327452, -1.0674018050368517, 1.639846991333409, 1.8182147814117293,0.7731088206123936, -0.11093731453367939, 0.11932522856312444, -0.43705143638956545, 0.033963645624481335, -0.4284736471353162,1.0,-8730.981966863108, -2832.3244563883463, 21513.710652972353, -76.55752399176134, 220.74188884624908, 38.20903638213082,1.0,769
11491.951,-0.38014358259199277, -2.0059460026070015, -1.4162892415818717, -1.0706895695878087, 1.640102486363989, 1.8149915441659994,0.7731088206123937, -0.11093731453367939, 0.11932522856312444, -0.43705143638956545, 0.033963645624481335, -0.4284736471353162,1.0,-8731.72637084797, -2831.716112798372, 21513.483003752448, -76.58725698374502, 220.70238181596073, 38.195251893642336,1.0,769
11491.958999999999,-0.3742384308163178, -2.0067933628523402, -1.4153778128585852, -1.0740278513365702, 1.6403619071297604, 1.811718781198159,0.7731088206123937, -0.1109373145336794, 0.11932522856312446, -0.4370514363895655, 0.03396364562448134, -0.42847364713531627,1.0,-8731.485650458562, -2831.902342259039, 21513.819994922756, -76.58192630163208, 220.71030575815945, 38.20494479752034,1.0,769
11491.966999999999,-0.3682532461146435, -2.007652207429052, -1.41445403147946, -1.0774113770462526, 1.6406248438429172, 1.8084016622499188,0.7731088206123936, -0.11093731453367942, 0.11932522856312444, -0.43705143638956545, 0.03396364562448134, -0.42847364713531627,1.0,-8732.101051659925, -2831.8871643538414, 21513.543369321236, -76.59974760769285, 220.6862775804205, 38.204782772706125,1.0,769
11491.975,-0.36231647608174455, -2.008504104738842, -1.4135377226465824, -1.0807675331283129, 1.640885653638609, 1.8051113757593513,0.7731088206123936, -0.11093731453367942, 0.11932522856312446, -0.4370514363895655, 0.03396364562448134, -0.4284736471353163,1.0,-8730.52246954597, -2829.94933447164, 21513.896331887598, -76.61937203651334, 220.76192052347983, 38.18702556137791,1.0,769
11491.983,-0.35646906690654845, -2.0093431792049197, -1.4126352061861187, -1.0840731720125678, 1.6411425376991096, 1.801870614990894,0.7731088206123937, -0.11093731453367942, 0.11932522856312446, -0.43705143638956545, 0.03396364562448134, -0.4284736471353163,1.0,-8732.30050608952, -2826.343855838636, 21514.092231519495, -76.74820656133278, 220.691980758343, 38.18385844392432,1.0,769
11491.991,-0.3507110185890543, -2.010169430827288, -1.411746482098069, -1.0873282936990183, 1.641395496024419, 1.798679379944547,0.7731088206123936, -0.11093731453367942, 0.11932522856312446, -0.43705143638956545, 0.03396364562448134, -0.42847364713531627,1.0,-8731.262487334203, -2829.9413452272574, 21514.302613282383, -76.60677431807889, 220.72453451722492, 38.19821435882656,1.0,769
11491.999,-0.3450423311292621, -2.010982859605946, -1.4108715503824314, -1.0905328981876634, 1.6416445286145371, 1.795537670620311,0.7731088206123936, -0.11093731453367942, 0.11932522856312447, -0.4370514363895655, 0.03396364562448134, -0.4284736471353163,1.0,-8731.645581541074, -2828.16987766502, 21514.237598774587, -76.68620296194712, 220.71682973856048, 38.18922402982457,1.0,769
11492.007,-0.3394630045271727, -2.0117834655408924, -1.4100104110392078, -1.0936869854785032, 1.641889635469464, 1.792445487018185,0.7731088206123936, -0.1109373145336794, 0.11932522856312444, -0.43705143638956545, 0.03396364562448134, -0.42847364713531627,1.0,-8730.969088422858, -2826.4660936421515, 21514.420913855378, -76.72992300875069, 220.74962281849014, 38.199202126952,1.0,769
11492.015,-0.3339730387827844, -2.0125712486321294, -1.4091630640683963, -1.0967905555715385, 1.6421308165892001, 1.7894028291381696,0.7731088206123936, -0.11093731453367942, 0.11932522856312446, -0.43705143638956545, 0.03396364562448134, -0.42847364713531627,1.0,-8730.76583777327, -2828.129747951585, 21514.222309142122, -76.70171779604146, 220.757550462552, 38.191182412956806,1.0,769
11492.023,-0.3285724338960989, -2.013346208879655, -1.4083295094699997, -1.0998436084667684, 1.6423680719737446, 1.7864096969802643,0.7731088206123937, -0.11093731453367942, 0.11932522856312446, -0.43705143638956545, 0.03396364562448134, -0.4284736471353163,1.0,-8731.797183242288, -2829.165084006576, 21513.491731951828, -76.65783049127876, 220.7048210619747, 38.18425374336928,1.0,769
11492.030999999999,-0.3232611898671154, -2.0141083462834706, -1.4075097472440152, -1.102846144164193, 1.642601401623098, 1.7834660905444695,0.7731088206123937, -0.11093731453367942, 0.11932522856312447, -0.4370514363895655, 0.03396364562448134, -0.4284736471353163,1.0,-8730.574443382144, -2830.7506672525633, 21514.019548142725, -76.62948639782678, 220.74974231334028, 38.20307912480044,1.0,769
11492.038999999999,-0.3180393066958338, -2.0148576608435764, -1.4067037773904456, -1.1057981626638131, 1.6428308055372605, 1.7805720098307853,0.7731088206123936, -0.11093731453367942, 0.11932522856312444, -0.43705143638956545, 0.033963645624481335, -0.4284736471353163,1.0,-8731.007999240237, -2828.6869886474497, 21514.32904283672, -76.67485118560668, 220.76106849788312, 38.198766181753115,1.0,769
11492.046999999999,-0.31290678438225417, -2.01559415255997, -1.4059115999092882, -1.108699663965628, 1.6430562837162315, 1.7777274548392115,0.7731088206123937, -0.11093731453367942, 0.11932522856312447, -0.4370514363895655, 0.03396364562448134, -0.4284736471353163,1.0,-8731.432550433632, -2828.0958693118655, 21514.49563984191, -76.69942834481938, 220.73529948645717, 38.203690169344355,1.0,769
11492.055,-0.3078636229263765, -2.016317821432655, -1.4051332148005438, -1.1115506480696382, 1.6432778361600113, 1.774932425569748,0.7731088206123937, -0.11093731453367944, 0.11932522856312448, -0.4370514363895655, 0.03396364562448134, -0.4284736471353163,1.0,-8731.808297410096, -2828.7160374438326, 21514.695486714078, -76.67256329388545, 220.71747734588337, 38.18720228412201,1.0,769
11492.063,-0.30290982232820163, -2.017028667461629, -1.4043686220642133, -1.1143511149758423, 1.6434954628686, 1.772186922022395,0.7731088206123936, -0.11093731453367942, 0.11932522856312446, -0.4370514363895654, 0.033963645624481335, -0.42847364713531627,1.0,-8732.893999363645, -2830.019502134949, 21514.54460849184, -76.63660602143858, 220.6757638865696, 38.171031179207574,1.0,769
11492.071,-0.2980453825877287, -2.0177266906468923, -1.403617821700296, -1.1171010646842419, 1.6437091638419976, 1.7694909441971522,0.7731088206123936, -0.1109373145336794, 0.11932522856312447, -0.4370514363895654, 0.033963645624481335, -0.4284736471353163,1.0,-8730.725845454801, -2828.7371990485117, 21514.462207745386, -76.67364406635093, 220.77008419333157, 38.1881532601854,1.0,769
11492.079,-0.29327030370495777, -2.0184118909884443, -1.4028808137087916, -1.119800497194836, 1.643918939080204, 1.76684449209402,0.7731088206123936, -0.11093731453367943, 0.11932522856312446, -0.43705143638956545, 0.03396364562448134, -0.4284736471353163,1.0,-8730.382229916677, -2828.2045842497564, 21514.14466547446, -76.69452560216362, 220.77992594883602, 38.19271983122897,1.0,769
11492.087,-0.28858458567988876, -2.019084268486287, -1.4021575980897012, -1.1224494125076259, 1.644124788583219, 1.7642475657129983,0.7731088206123935, -0.11093731453367942, 0.11932522856312447, -0.43705143638956545, 0.03396364562448134, -0.4284736471353164,1.0,-8731.623295804919, -2827.706937889043, 21514.32943736167, -76.69894334807628, 220.71786198952418, 38.21652434717822,1.0,769
11492.095,-0.2839882285125217, -2.019743823140419, -1.4014481748430239, -1.1250478106226112, 1.644326712351043, 1.7617001650540873,0.7731088206123937, -0.11093731453367942, 0.11932522856312447, -0.4370514363895655, 0.03396364562448135, -0.42847364713531627,1.0,-8732.128133108841, -2828.4143358836427, 21513.741663697565, -76.686661800895, 220.68849697871997, 38.19414836411693,1.0,769
11492.103,-0.2794812322028575, -2.02039055495084, -1.4007525439687596, -1.1275956915397902, 1.6445247103836755, 1.7592022901172861,0.7731088206123937, -0.11093731453367944, 0.11932522856312448, -0.43705143638956556, 0.03396364562448135, -0.4284736471353163,1.0,-8730.79279804092, -2829.005973519462, 21513.67927622634, -76.66636145352922, 220.7522640070652, 38.19116184328172,1.0,769
11492.110999999999,-0.2750635967508952, -2.021024463917551, -1.4000707054669093, -1.1300930552591648, 1.6447187826811172, 1.7567539409025956,0.7731088206123936, -0.11093731453367943, 0.11932522856312447, -0.43705143638956556, 0.03396364562448135, -0.4284736471353163,1.0,-8730.136358728463, -2828.884541317123, 21513.67035263363, -76.69411479309474, 220.78788027024217, 38.212035396899466,1.0,769
11492.118999999999,-0.270735322156634, -2.0216455500405512, -1.399402659337471, -1.1325399017807332, 1.6449089292433676, 1.7543551174100154,0.7731088206123936, -0.1109373145336794, 0.11932522856312447, -0.4370514363895655, 0.03396364562448134, -0.4284736471353163,1.0,-8731.310881988062, -2829.185209550641, 21513.914809886406, -76.68059052512663, 220.72389094525232, 38.20336904293413,1.0,769
11492.126999999999,-0.2664964084200765, -2.0222538133198418, -1.3987484055804469, -1.134936231104498, 1.645095150070427, 1.7520058196395458,0.7731088206123937, -0.11093731453367944, 0.11932522856312447, -0.43705143638956545, 0.03396364562448135, -0.4284736471353164,1.0,-8732.725211956957, -2828.6968311863566, 21514.10372531472, -76.68454194858535, 220.65169222683215, 38.17561540721297,1.0,769
11492.135,-0.26234685554122006, -2.022849253755421, -1.3981079441958366, -1.1372820432304573, 1.645277445162295, 1.7497060475911868,0.7731088206123936, -0.11093731453367943, 0.11932522856312448, -0.43705143638956545, 0.03396364562448135, -0.42847364713531644,1.0,-8730.183405263819, -2829.715889514465, 21514.26585485178, -76.63938190243647, 220.76898586954678, 38.2139090955788,1.0,769
11492.143,-0.2582866635200656, -2.02343187134729, -1.3974812751836385, -1.1395773381586114, 1.6454558145189717, 1.747455801264938,0.7731088206123936, -0.1109373145336794, 0.11932522856312444, -0.4370514363895654, 0.03396364562448134, -0.4284736471353164,1.0,-8731.982680215066, -2827.8281276292455, 21514.653596384534, -76.69654610448757, 220.7015833978802, 38.19921367954703,1.0,769
11492.151,-0.2543158323566139, -2.024001666095449, -1.3968683985438544, -1.14182211588896, 1.6456302581404574, 1.7452550806607994,0.7731088206123936, -0.11093731453367943, 0.11932522856312447, -0.4370514363895654, 0.03396364562448134, -0.4284736471353162,1.0,-8732.32491795393, -2827.4837311221463, 21514.581528919545, -76.70558950041334, 220.68335731568288, 38.18916425195289,1.0,769
11492.159,-0.2504343620508642, -2.024558637999897, -1.3962693142764833, -1.1440163764215043, 1.645800776026752, 1.7431038857787713,0.7731088206123937, -0.11093731453367942, 0.11932522856312444, -0.43705143638956545, 0.03396364562448134, -0.42847364713531627,1.0,-8731.107169629078, -2828.847268172113, 21514.2637608326, -76.65622772338688, 220.75789840033912, 38.192175226062574,1.0,769
11492.167,-0.24664225260281647, -2.025102787060634, -1.3956840223815261, -1.1461601197562432, 1.6459673681778553, 1.741002216618854,0.7731088206123937, -0.1109373145336794, 0.11932522856312447, -0.43705143638956545, 0.03396364562448134, -0.42847364713531627,1.0,-8732.551330561568, -2828.9302108187194, 21514.34031847805, -76.66251318797427, 220.69103548708478, 38.17661106740215,1.0,769
11492.175,-0.24293950401247066, -2.025634113277661, -1.395112522858982, -1.1482533458931776, 1.6461300345937673, 1.7389500731810468,0.7731088206123936, -0.11093731453367946, 0.11932522856312447, -0.43705143638956556, 0.03396364562448135, -0.4284736471353164,1.0,-8732.827815659968, -2829.6758969875564, 21514.345206670612, -76.65955496939443, 220.67226505256508, 38.19149389969752,1.0,769
11492.182999999999,-0.2393261162798268, -2.026152616650978, -1.394554815708851, -1.1502960548323058, 1.6462887752744884, 1.73694745546535,0.7731088206123935, -0.11093731453367942, 0.11932522856312447, -0.4370514363895655, 0.03396364562448134, -0.4284736471353163,1.0,-8729.372854669578, -2829.645813136224, 21514.150890758352, -76.6668460312882, 220.82567759867823, 38.20293897168534,1.0,769
11492.190999999999,-0.23580208940488578, -2.0266582971805844, -1.394010900931133, -1.1522882465736295, 1.646443590220018, 1.7349943634717635,0.7731088206123936, -0.1109373145336794, 0.11932522856312444, -0.4370514363895655, 0.033963645624481335, -0.4284736471353164,1.0,-8733.750330563473, -2827.878983804013, 21514.256029699198, -76.71059244554274, 220.6038289320711, 38.183514607585295,1.0,769
11492.198999999999,-0.23236742338764582, -2.0271511548664805, -1.393480778525829, -1.1542299211171487, 1.6465944794303566, 1.7330907972002876,0.7731088206123936, -0.11093731453367943, 0.11932522856312446, -0.4370514363895655, 0.033963645624481335, -0.4284736471353164,1.0,-8730.278778301843, -2829.141485170746, 21514.164350476105, -76.65075501026249, 220.78917053973942, 38.20392574050243,1.0,769
11492.207,-0.2290221182281087, -2.027631189708666, -1.392964448492938, -1.1561210784628617, 1.6467414429055038, 1.7312367566509224,0.7731088206123937, -0.11093731453367942, 0.11932522856312448, -0.43705143638956534, 0.033963645624481335, -0.4284736471353162,1.0,-8732.41692331091, -2827.650866679658, 21514.266118645282, -76.70308393195697, 220.672591507182, 38.1930031862064,1.0,769
11492.215,-0.22576617392627352, -2.0280984017071404, -1.3924619108324592, -1.1579617186107711, 1.6468844806454601, 1.7294322418236674,0.7731088206123937, -0.11093731453367944, 0.11932522856312451, -0.43705143638956556, 0.03396364562448135, -0.42847364713531644,1.0,-8730.850515192515, -2828.405162453935, 21514.711734472687, -76.67945949427917, 220.76453678020596, 38.210847299913326,1.0,769
11492.223,-0.22259959048214117, -2.028552790861905, -1.3919731655443952, -1.1597518415608743, 1.647023592650225, 1.7276772527185227,0.7731088206123936, -0.11093731453367946, 0.11932522856312451, -0.4370514363895655, 0.03396364562448134, -0.4284736471353164,1.0,-8730.551358966359, -2828.174003990938, 21514.02991025234, -76.69416994328552, 220.74185925257024, 38.19739166358755,1.0,769
11492.231,-0.2195223678957099, -2.0289943571729587, -1.3914982126287443, -1.161491447313173, 1.6471587789197988, 1.7259717893354882,0.7731088206123936, -0.11093731453367943, 0.11932522856312447, -0.43705143638956545, 0.033963645624481335, -0.4284736471353164,1.0,-8733.59828853386, -2828.3306418040984, 21513.964975154227, -76.69187002474828, 220.6279423514206, 38.198595433729395,1.0,769
11492.239,-0.21653450616698144, -2.0294231006403027, -1.3910370520855064, -1.1631805358676663, 1.6472900394541814, 1.7243158516745645,0.7731088206123937, -0.11093731453367942, 0.1193252285631245, -0.4370514363895655, 0.033963645624481335, -0.42847364713531644,1.0,-8730.01378928221, -2829.8910653142284, 21514.122052824812, -76.64543011760037, 220.80048387390224, 38.191002618176924,1.0,769
11492.247,-0.21363600529595406, -2.0298390212639355, -1.3905896839146816, -1.1648191072243552, 1.6474173742533729, 1.7227094397357512,0.7731088206123936, -0.11093731453367944, 0.11932522856312446, -0.43705143638956545, 0.03396364562448135, -0.4284736471353164,1.0,-8732.913861111425, -2828.9963364698415, 21514.133326955463, -76.68200036555993, 220.6366892254083, 38.20589157557515,1.0,769
11492.255,-0.2108268652826295, -2.030242119043857, -1.3901561081162708, -1.1664071613832379, 1.647540783317373, 1.721152553519048,0.7731088206123936, -0.1109373145336794, 0.11932522856312447, -0.43705143638956545, 0.03396364562448134, -0.4284736471353164,1.0,-8730.377450940616, -2829.3779874168686, 21514.080831904645, -76.65667276931688, 220.78991071612955, 38.20015968224348,1.0,769
11492.262999999999,-0.2081070861270078, -2.030632393980069, -1.389736324690272, -1.167944698344316, 1.6476602666461821, 1.7196451930244556,0.7731088206123935, -0.11093731453367943, 0.11932522856312448, -0.4370514363895656, 0.033963645624481356, -0.4284736471353163,1.0,-8733.673909528818, -2828.665969248422, 21514.123151071108, -76.67460052351723, 220.63598984879985, 38.19497047241629,1.0,769
11492.270999999999,-0.20547666782908713, -2.031009846072571, -1.3893303336366882, -1.1694317181075897, 1.6477758242398, 1.7181873582519733,0.7731088206123936, -0.11093731453367947, 0.11932522856312452, -0.4370514363895657, 0.033963645624481356, -0.4284736471353164,1.0,-8730.836735436862, -2827.9210239158465, 21514.14123614235, -76.70019007415272, 220.7561954278002, 38.190363148862275,1.0,769
11492.278999999999,-0.20293561038886843, -2.0313744753213623, -1.3889381349555165, -1.170868220673058, 1.6478874560982266, 1.7167790492016017,0.7731088206123936, -0.11093731453367944, 0.11932522856312447, -0.4370514363895656, 0.03396364562448135, -0.4284736471353164,1.0,-8732.177971449692, -2827.959232233916, 21514.499013013065, -76.6902101342323, 220.6934667224495, 38.20267583405146,1.0,769
11492.287,-0.20048391380635255, -2.031726281726442, -1.3885597286467588, -1.172254206040721, 1.6479951622214621, 1.7154202658733406,0.7731088206123937, -0.11093731453367942, 0.1193252285631245, -0.4370514363895654, 0.03396364562448135, -0.4284736471353164,1.0,-8732.16034485078, -2827.538353704581, 21514.737098056237, -76.70522887137491, 220.71018422773471, 38.1890040521248,1.0,769
11492.295,-0.19812157808153863, -2.0320652652878124, -1.3881951147104141, -1.1735896742105787, 1.6480989426095065, 1.7141110082671895,0.7731088206123937, -0.11093731453367944, 0.11932522856312446, -0.43705143638956534, 0.03396364562448134, -0.4284736471353164,1.0,-8731.482975634897, -2828.0024321830015, 21514.43233447752, -76.69028344541806, 220.73694791182356, 38.18398781696516,1.0,769
11492.303,-0.19584860321442665, -2.0323914260054723, -1.3878442931464825, -1.1748746251826319, 1.6481987972623597, 1.7128512763831492,0.7731088206123937, -0.11093731453367942, 0.11932522856312447, -0.4370514363895653, 0.03396364562448134, -0.4284736471353164,1.0,-8732.977459263344, -2827.697891342119, 21514.333103340403, -76.70348376914427, 220.6880614579582, 38.197585251730345,1.0,769
11492.311,-0.19366498920501662, -2.032704763879421, -1.3875072639549648, -1.1761090589568797, 1.6482947261800216, 1.711641070221219,0.7731088206123934, -0.11093731453367942, 0.11932522856312447, -0.43705143638956545, 0.03396364562448135, -0.42847364713531655,1.0,-8731.592851963624, -2828.460421239374, 21514.437158198063, -76.68642909065676, 220.7366827029245, 38.185047062986115,1.0,769
11492.319,-0.19157073605330943, -2.03300527890966, -1.3871840271358593, -1.177292975533323, 1.6483867293624923, 1.7104803897813994,0.7731088206123935, -0.11093731453367947, 0.11932522856312451, -0.4370514363895655, 0.03396364562448135, -0.4284736471353166,1.0,-8731.729038269094, -2829.5534766257215, 21514.73387688393, -76.66237499958072, 220.72466917414312, 38.19105890085447,1.0,769
11492.327,-0.1895658437593042, -2.0332929710961887, -1.3868745826891686, -1.178426374911961, 1.6484748068097719, 1.70936923506369,0.7731088206123936, -0.11093731453367944, 0.11932522856312447, -0.4370514363895655, 0.03396364562448135, -0.4284736471353163,1.0,-8732.410805144817, -2829.180263755383, 21514.376344854052, -76.66047379511454, 220.70493819825606, 38.19433395916295,1.0,769
11492.335,-0.187650312323, -2.033567840439006, -1.3865789306148901, -1.1795092570927936, 1.6485589585218603, 1.7083076060680915,0.7731088206123937, -0.11093731453367942, 0.11932522856312451, -0.43705143638956556, 0.03396364562448135, -0.4284736471353164,1.0,-8732.210867883821, -2829.275168030639, 21514.133874716914, -76.66964101830311, 220.70144556896355, 38.188223007737435,1.0,769
11492.342999999999,-0.18582414174439865, -2.033829886938113, -1.3862970709130256, -1.180541622075821, 1.6486391844987576, 1.7072955027946033,0.7731088206123936, -0.11093731453367944, 0.11932522856312451, -0.43705143638956545, 0.033963645624481335, -0.4284736471353163,1.0,-8731.429703597914, -2828.708950255629, 21514.328802963064, -76.67865104335743, 220.73758988048309, 38.184500093480864,1.0,769
11492.350999999999,-0.18408733202350014, -2.0340791105935097, -1.386029003583574, -1.1815234698610437, 1.6487154847404637, 1.706332925243225,0.7731088206123937, -0.11093731453367942, 0.11932522856312446, -0.4370514363895655, 0.03396364562448133, -0.4284736471353164,1.0,-8732.316745338201, -2829.185172260748, 21514.291466715236, -76.67451681837687, 220.6975893378119, 38.183191567818426,1.0,769
11492.359,-0.18243988316030268, -2.0343155114051967, -1.3857747286265356, -1.1824548004484612, 1.6487878592469785, 1.7054198734139576,0.7731088206123934, -0.11093731453367943, 0.11932522856312457, -0.43705143638956573, 0.03396364562448134, -0.4284736471353166,1.0,-8732.238772640858, -2829.0978334201154, 21514.09587621826, -76.66007893098731, 220.72293732017675, 38.19154733861998,1.0,769
11492.367,-0.18088179515480718, -2.0345390893731725, -1.385534246041911, -1.1833356138380742, 1.6488563080183019, 1.7045563473068004,0.7731088206123933, -0.11093731453367947, 0.11932522856312448, -0.4370514363895657, 0.033963645624481335, -0.4284736471353166,1.0,-8732.020884453997, -2828.214446860781, 21514.10632846385, -76.68611388539694, 220.7181096748459, 38.178941510402325,1.0,769
11492.375,-0.1794130680070145, -2.034749844497438, -1.3853075558296997, -1.184165910029881, 1.6489208310544343, 1.7037423469217539,0.7731088206123935, -0.11093731453367946, 0.11932522856312455, -0.43705143638956534, 0.033963645624481335, -0.42847364713531677,1.0,-8731.535249936862, -2828.197324765136, 21514.4941839258, -76.6948288533936, 220.73921365367704, 38.18962503339702,1.0,769
11492.383,-0.1780337017169238, -2.034947776777993, -1.3850946579899013, -1.184945689023884, 1.6489814283553756, 1.7029778722588178,0.7731088206123937, -0.11093731453367942, 0.1193252285631245, -0.43705143638956534, 0.033963645624481335, -0.4284736471353163,1.0,-8732.401084004576, -2828.6861493574497, 21514.081570951716, -76.66706359916674, 220.69474727275104, 38.19246799701088,1.0,769
11492.391,-0.176743696284535, -2.0351328862148375, -1.3848955525225168, -1.185674950820081, 1.6490380999211258, 1.7022629233179918,0.7731088206123937, -0.11093731453367947, 0.11932522856312454, -0.4370514363895653, 0.03396364562448133, -0.4284736471353163,1.0,-8733.396731385345, -2828.5343226139503, 21513.867465332205, -76.67931769552447, 220.67606902139437, 38.18773130060703,1.0,769
11492.399,-0.17554305170984819, -2.0353051728079716, -1.3847102394275446, -1.1863536954184735, 1.6490908457516846, 1.7015975000992762,0.7731088206123938, -0.11093731453367942, 0.11932522856312444, -0.4370514363895653, 0.033963645624481315, -0.4284736471353163,1.0,-8731.82216958142, -2828.180489759008, 21514.21907245191, -76.6914443386363, 220.72222377318712, 38.1866074125256,1.0,769
11492.407,-0.1744317679928642, -2.0354646365573945, -1.3845387187049862, -1.1869819228190615, 1.6491396658470523, 1.7009816026026712,0.7731088206123934, -0.11093731453367961, 0.11932522856312462, -0.4370514363895657, 0.033963645624481384, -0.42847364713531677,1.0,-8731.368710807981, -2828.398026986717, 21514.517370223213, -76.67992932670728, 220.74070934193492, 38.18620202265271,1.0,769
11492.414999999999,-0.17340984513358215, -2.035611277463108, -1.384380990354841, -1.1875596330218432, 1.6491845602072288, 1.7004152308281766,0.7731088206123933, -0.11093731453367954, 0.1193252285631245, -0.4370514363895656, 0.03396364562448137, -0.42847364713531677,1.0,-8731.94275231122, -2828.8292316252137, 21514.498972411813, -76.66889677951684, 220.7153968969024, 38.179653916961314,1.0,769
11492.422999999999,-0.17247728313200117, -2.03574509552511, -1.3842370543771096, -1.1880868260268205, 1.6492255288322142, 1.6998983847757927,0.7731088206123933, -0.11093731453367944, 0.11932522856312455, -0.43705143638956556, 0.033963645624481356, -0.42847364713531677,1.0,-8733.019600168223, -2828.8134339844164, 21514.097139869322, -76.67296898097018, 220.66941937801005, 38.1894073314985,1.0,769
11492.430999999999,-0.17163408198812302, -2.0358660907434025, -1.3841069107717914, -1.1885635018339924, 1.6492625717220084, 1.6994310644455188,0.7731088206123937, -0.11093731453367937, 0.11932522856312444, -0.4370514363895657, 0.03396364562448135, -0.4284736471353161,1.0,-8732.70897923116, -2828.5713866818087, 21513.995623563675, -76.68726398262203, 220.67850734947945, 38.188894788431355,1.0,769
11492.439,-0.1708802417019477, -2.035974263117984, -1.3839905595388862, -1.188989660443359, 1.6492956888766115, 1.6990132698373552,0.7731088206123933, -0.11093731453367969, 0.11932522856312473, -0.43705143638956545, 0.03396364562448139, -0.4284736471353169,1.0,-8731.660110035551, -2827.9312410577622, 21514.337720638996, -76.68907436524484, 220.7206240510344, 38.19173228517815,1.0,769
11492.447,-0.17021576227347346, -2.0360696126488556, -1.383888000678395, -1.189365301854921, 1.6493248802960232, 1.6986450009513026,0.7731088206123934, -0.11093731453367961, 0.1193252285631246, -0.43705143638956545, 0.03396364562448139, -0.428473647135317,1.0,-8731.325801536965, -2828.408661009973, 21514.53602680615, -76.67928341270488, 220.7325960721824, 38.19409035673297,1.0,769
11492.455,-0.16964064370270115, -2.036152139336016, -1.3837992341903158, -1.1896904260686778, 1.6493501459802438, 1.6983262577873601,0.7731088206123933, -0.11093731453367947, 0.11932522856312469, -0.4370514363895653, 0.03396364562448129, -0.42847364713531705,1.0,-8731.522185704856, -2828.756538858909, 21514.402632455454, -76.67403571330254, 220.71311695959645, 38.190429897415015,1.0,769
11492.463,-0.1691548859896317, -2.036221843179467, -1.3837242600746507, -1.18996503308463, 1.6493714859292732, 1.698057040345528,0.7731088206123933, -0.11093731453367968, 0.11932522856312447, -0.4370514363895652, 0.03396364562448135, -0.42847364713531716,1.0,-8732.097677555346, -2828.253662390911, 21514.065637965265, -76.68219834144344, 220.69815502870603, 38.18308449454659,1.0,769
11492.471,-0.16875848913426417, -2.0362787241792066, -1.3836630783313986, -1.190189122902777, 1.6493889001431115, 1.6978373486258063,0.7731088206123933, -0.1109373145336795, 0.11932522856312462, -0.43705143638956495, 0.033963645624481203, -0.4284736471353174,1.0,-8732.422795411361, -2828.148363714602, 21514.202336241684, -76.69735781164317, 220.69939166478008, 38.18743601196326,1.0,769
11492.479,-0.1684514531365986, -2.036322782335236, -1.3836156889605604, -1.1903626955231186, 1.6494023886217586, 1.6976671826281948,0.7731088206123913, -0.11093731453367967, 0.1193252285631247, -0.4370514363895664, 0.03396364562448142, -0.4284736471353195,1.0,-8731.812823710534, -2828.793217396181, 21514.137144778288, -76.68497481189132, 220.70094675150267, 38.18992054234761,1.0,769
11492.487,-0.16823377799663586, -2.036354017647554, -1.3835820919621353, -1.1904857509456548, 1.6494119513652141, 1.6975465423526943,0.7731088206123915, -0.11093731453368047, 0.11932522856312533, -0.43705143638956734, 0.033963645624481696, -0.42847364713531777,1.0,-8732.087245855188, -2828.8105525602987, 21514.273942085674, -76.669788545188, 220.71199147229993, 38.19020482991047,1.0,769
11492.494999999999,-0.16810546371437418, -2.036372430116163, -1.3835622873361233, -1.1905582891703865, 1.649417588373479, 1.6974754277993038,0.7731088206123897, -0.11093731453368061, 0.11932522856312486, -0.437051436389569, 0.033963645624481446, -0.4284736471353194,1.0,-8731.618029766494, -2828.796237293277, 21514.348605837637, -76.67456867186888, 220.72211908226075, 38.188510658097414,1.0,769
11492.502999999999,-0.16806627416913678, -2.036377886347628, -1.3835562492001738, -1.1905805974604853, 1.6494192975699065, 1.6974537877426354,0.20693846308020925, 0.6283608561970029, -0.009609135006311246, -0.7219508862314987, -0.039885655662159965, 0.19860217461990204,1.0,-8731.482772041756, -2828.42620038557, 21514.10452547539, -76.68519026021607, 220.71429182033023, 38.188960435127626,1.0,769
11492.510999999999,-0.16805182548995123, -2.036334013476976, -1.383556920120924, -1.1906310048936275, 1.6494165127080003, 1.6974676543726654,0.20693846308020927, 0.628360856197003, -0.009609135006311248, -0.7219508862314987, -0.03988565566215997, 0.19860217461990207,1.0,-8733.873313173059, -2829.0674872084037, 21514.39220330941, -76.6851716977684, 220.6324312608391, 38.17796087335631,1.0,769
11492.519,-0.16801176260500128, -2.0362123640343626, -1.3835587804308176, -1.1907707731844726, 1.6494087909224504, 1.6975061033683438,0.20693846308020925, 0.6283608561970029, -0.009609135006311244, -0.7219508862314987, -0.039885655662159965, 0.19860217461990204,1.0,-8731.262330116198, -2832.284848473799, 21514.607944111714, -76.57621085862618, 220.75214550484696, 38.16993847183775,1.0,769
11492.527,-0.16794608551428603, -2.0360129380197867, -1.383561830129854, -1.1909999023330204, 1.6493961322132564, 1.6975691347296709,0.20693846308020927, 0.628360856197003, -0.009609135006311246, -0.7219508862314986, -0.039885655662159965, 0.19860217461990207,1.0,-8733.009649161699, -2829.8454570322883, 21514.911288312378, -76.65556412305449, 220.64317963384423, 38.15945773579415,1.0,769
11492.535,-0.16785479421780458, -2.0357357354332484, -1.383566069218034, -1.1913183923392694, 1.6493785365804186, 1.697656748456646,0.20693846308020925, 0.6283608561970029, -0.009609135006311244, -0.7219508862314986, -0.039885655662159965, 0.19860217461990204,1.0,-8731.98038834354, -2831.103279241187, 21515.123136712, -76.60919526694406, 220.73020505993924, 38.14203946169002,1.0,769
11492.543,-0.16773788871555873, -2.0353807562747477, -1.3835714976953568, -1.1917262432032203, 1.6493560040239368, 1.6977689445492696,0.20693846308020925, 0.6283608561970029, -0.009609135006311246, -0.7219508862314986, -0.039885655662159965, 0.19860217461990207,1.0,-8732.58552562317, -2831.6159999051015, 21515.171617529042, -76.59263070724992, 220.6702390409423, 38.12273435665057,1.0,769
11492.551,-0.16759536900754668, -2.0349480005442846, -1.3835781155618232, -1.192223454924874, 1.6493285345438111, 1.6979057230075416,0.20693846308020927, 0.628360856197003, -0.009609135006311246, -0.7219508862314987, -0.039885655662159965, 0.19860217461990207,1.0,-8732.43947224127, -2831.6251260949293, 21514.92638313095, -76.57418786394604, 220.66118962062114, 38.11018219919313,1.0,769
11492.559,-0.16742723509377022, -2.03443746824186, -1.3835859228174323, -1.1928100275042297, 1.6492961281400416, 1.6980670838314622,0.20693846308020925, 0.6283608561970029, -0.009609135006311244, -0.7219508862314986, -0.039885655662159965, 0.19860217461990204,1.0,-8732.068830421502, -2830.2312209317643, 21515.213779490474, -76.62639956747907, 220.69281756804196, 38.08358890697551,1.0,769
11492.567,-0.16723348697422757, -2.033849159367472, -1.3835949194621842, -1.1934859609412873, 1.6492587848126279, 1.698253027021031,0.20693846308020927, 0.628360856197003, -0.009609135006311248, -0.7219508862314987, -0.03988565566215997, 0.19860217461990207,1.0,-8731.592854334947, -2829.5664451845205, 21515.183132362414, -76.63598156555861, 220.72427895729902, 38.05873399725937,1.0,769
11492.574999999999,-0.16701412464891963, -2.0331830739211227, -1.3836051054960796, -1.194251255236047, 1.6492165045615705, 1.6984635525762484,0.20693846308020925, 0.6283608561970029, -0.009609135006311246, -0.7219508862314986, -0.03988565566215996, 0.19860217461990204,1.0,-8732.06096668598, -2829.932245080455, 21515.072920774586, -76.61214621249007, 220.7090815454547, 38.02438984018218,1.0,769
11492.582999999999,-0.16676914811784727, -2.032439211902812, -1.3836164809191178, -1.1951059103885093, 1.649169287386869, 1.6986986604971142,0.20693846308020927, 0.6283608561970029, -0.009609135006311246, -0.7219508862314987, -0.039885655662159965, 0.19860217461990204,1.0,-8733.57746848588, -2830.116895634622, 21514.565961911085, -76.59725749484193, 220.63174213091315, 37.9811250916531,1.0,769
11492.591,-0.16649855738100872, -2.0316175733125377, -1.3836290457312996, -1.1960499263986737, 1.649117133288524, 1.6989583507836281,0.20693846308020927, 0.628360856197003, -0.009609135006311246, -0.7219508862314986, -0.039885655662159965, 0.19860217461990207,1.0,-8733.24413997191, -2830.2171013834723, 21514.617644614133, -76.6118456874537, 220.66008406109535, 37.93136565205805,1.0,769
11492.599,-0.16620235243840487, -2.030718158150301, -1.3836427999326242, -1.1970833032665391, 1.6490600422665347, 1.6992426234357907,0.20693846308020925, 0.6283608561970029, -0.009609135006311244, -0.7219508862314986, -0.03988565566215996, 0.198602174619902,1.0,-8731.521872323703, -2829.8150670500427, 21515.469678927322, -76.60082744903627, 220.73683625650108, 37.87059060775181,1.0,769
11492.607,-0.16588053329003571, -2.029740966416103, -1.3836577435230915, -1.1982060409921074, 1.6489980143209015, 1.6995514784536017,0.20693846308020925, 0.6283608561970029, -0.009609135006311246, -0.7219508862314986, -0.03988565566215996, 0.19860217461990204,1.0,-8731.205291652208, -2830.7188648440206, 21515.257969470273, -76.6003884542798, 220.73327906229986, 37.91106997614713,1.0,769
11492.615,-0.16553309993590126, -2.0286859981099417, -1.3836738765027032, -1.1994181395753785, 1.6489310494516245, 1.699884915837061,0.20693846308020925, 0.6283608561970029, -0.009609135006311246, -0.7219508862314987, -0.03988565566215996, 0.19860217461990204,1.0,-8733.377638407703, -2831.124168964292, 21514.67237720885, -76.57441165529013, 220.63335645066974, 37.91537462139482,1.0,769
11492.623,-0.1651600523760015, -2.027553253231819, -1.3836911988714569, -1.2007195990163506, 1.6488591476587038, 1.7002429355861688,0.20693846308020925, 0.628360856197003, -0.009609135006311246, -0.7219508862314987, -0.03988565566215996, 0.19860217461990207,1.0,-8732.826397407202, -2831.1625418761614, 21514.59293956433, -76.57178209489277, 220.66878573850335, 37.916878176075244,1.0,769
11492.631,-0.16476139061033734, -2.0263427317817335, -1.383709710629354, -1.2021104193150247, 1.6487823089421387, 1.700625537700925,0.20693846308020922, 0.6283608561970029, -0.009609135006311246, -0.7219508862314986, -0.03988565566215996, 0.198602174619902,1.0,-8731.951033368769, -2830.0781560792266, 21515.390087633506, -76.61870700535547, 220.6933025756491, 37.921958943176435,1.0,769
11492.639,-0.1643371146389061, -2.025054433759685, -1.383729411776394, -1.2035906004714017, 1.64870053330193, 1.7010327221813297,0.20693846308020925, 0.6283608561970029, -0.009609135006311246, -0.7219508862314986, -0.039885655662159965, 0.19860217461990204,1.0,-8732.148758687295, -2829.4470713619066, 21515.09683283332, -76.61404784540372, 220.688284752867, 37.9183774365427,1.0,769
11492.646999999999,-0.16388722446171045, -2.023688359165676, -1.3837503023125777, -1.2051601424854805, 1.6486138207380774, 1.7014644890273827,0.20693846308020927, 0.628360856197003, -0.009609135006311246, -0.7219508862314986, -0.039885655662159965, 0.19860217461990207,1.0,-8731.88549254433, -2830.2560646284874, 21514.84516603016, -76.59027255240005, 220.70480225141694, 37.92653189333356,1.0,769
11492.654999999999,-0.1634117200787495, -2.0222445079997033, -1.383772382237904, -1.2068190453572614, 1.6485221712505809, 1.701920838239084,0.20693846308020925, 0.6283608561970029, -0.009609135006311244, -0.7219508862314986, -0.03988565566215996, 0.19860217461990204,1.0,-8733.063328377018, -2830.253943137035, 21514.76442697086, -76.60350023419022, 220.63542536897722, 37.925041890035516,1.0,769
11492.662999999999,-0.16291060149002323, -2.0207228802617694, -1.383795651552373, -1.2085673090867441, 1.6484255848394402, 1.702401769816434,0.20693846308020925, 0.6283608561970029, -0.009609135006311246, -0.7219508862314986, -0.03988565566215996, 0.19860217461990204,1.0,-8730.874939871506, -2830.213786354073, 21515.12081738593, -76.60839340722049, 220.75111215708375, 37.92535613460268,1.0,769
11492.671,-0.16238386869553167, -2.019123475951872, -1.3838201102559857, -1.2104049336739298, 1.648324061504656, 1.7029072837594321,0.20693846308020925, 0.6283608561970029, -0.009609135006311246, -0.7219508862314987, -0.039885655662159965, 0.19860217461990207,1.0,-8733.645164339721, -2828.999796480277, 21514.880596486255, -76.64277847039168, 220.60974683247855, 37.91821590908967,1.0,769
11492.679,-0.16183152169527482, -2.0174462950700143, -1.3838457583487411, -1.2123319191188173, 1.6482176012462275, 1.7034373800680789,0.20693846308020925, 0.6283608561970029, -0.009609135006311244, -0.7219508862314986, -0.03988565566215996, 0.198602174619902,1.0,-8730.632194598556, -2830.6196598320785, 21514.865129177015, -76.58817410890757, 220.76857821494843, 37.9207974918684,1.0,769
11492.687,-0.16125356048925177, -2.015691337616193, -1.3838725958306402, -1.2143482654214068, 1.6481062040641554, 1.703992058742374,0.20693846308020927, 0.628360856197003, -0.009609135006311244, -0.7219508862314987, -0.03988565566215996, 0.19860217461990204,1.0,-8734.016793014363, -2830.302881829606, 21514.640017949776, -76.60887012333302, 220.5646326705816, 37.92011539942621,1.0,769
11492.695,-0.1606499850774643, -2.0138586035904096, -1.383900622701682, -1.2164539725816983, 1.6479898699584392, 1.7045713197823174,0.20693846308020925, 0.6283608561970029, -0.009609135006311246, -0.7219508862314986, -0.039885655662159965, 0.19860217461990204,1.0,-8731.026231661564, -2830.591554393599, 21515.115656713446, -76.58112786531231, 220.749512767647, 37.92494249294015,1.0,769
11492.703,-0.16002079545991155, -2.0119480929926636, -1.3839298389618673, -1.2186490405996917, 1.647868598929079, 1.7051751631879093,0.20693846308020925, 0.6283608561970029, -0.009609135006311244, -0.7219508862314986, -0.03988565566215996, 0.19860217461990204,1.0,-8732.077810823317, -2829.4305264796976, 21514.845092358995, -76.61914900244273, 220.67955655661007, 37.917115858316066,1.0,769
11492.711,-0.1593659916365926, -2.009959805822956, -1.3839602446111954, -1.220933469475387, 1.647742390976075, 1.7058035889591496,0.20693846308020925, 0.6283608561970029, -0.009609135006311246, -0.7219508862314986, -0.03988565566215996, 0.19860217461990204,1.0,-8733.193623678117, -2829.4822268748767, 21514.82525946019, -76.62182812775518, 220.63605089898488, 37.913648197083745,1.0,769
11492.719,-0.15868557360750923, -2.0078937420812863, -1.3839918396496662, -1.2233072592087852, 1.6476112460994272, 1.7064565970960384,0.20693846308020927, 0.628360856197003, -0.009609135006311244, -0.7219508862314986, -0.03988565566215996, 0.19860217461990204,1.0,-8730.999978945698, -2830.1887908579292, 21514.68996702741, -76.59712167763527, 220.72848721780923, 37.917748736475914,1.0,769
11492.726999999999,-0.15797954137265968, -2.005749901767654, -1.3840246240772807, -1.2257704097998854, 1.6474751642991354, 1.7071341875985755,0.20693846308020925, 0.628360856197003, -0.009609135006311246, -0.7219508862314986, -0.03988565566215996, 0.19860217461990207,1.0,-8732.969424268207, -2829.685931817583, 21514.783825861028, -76.60775519856065, 220.6255952554456, 37.92616803828494,1.0,769
11492.734999999999,-0.15724789493204572, -2.0035282848820586, -1.3840585978940378, -1.2283229212486866, 1.6473341455751997, 1.707836360466761,0.20693846308020925, 0.628360856197003, -0.009609135006311244, -0.7219508862314986, -0.03988565566215996, 0.19860217461990204,1.0,-8732.328541492836, -2829.6689762805363, 21514.924986973565, -76.61503138455919, 220.66620198370072, 37.921233187553526,1.0,769
11492.742999999999,-0.15649063428566556, -2.0012288914245016, -1.3840937610999386, -1.2309647935551915, 1.64718818992762, 1.7085631157005952,0.20693846308020927, 0.628360856197003, -0.009609135006311246, -0.7219508862314987, -0.039885655662159965, 0.19860217461990207,1.0,-8732.148217718075, -2829.673151844918, 21514.763171841354, -76.62784766079628, 220.68284454247953, 37.917808610094795,1.0,769
11492.751,-0.155707759433521, -1.998851721394983, -1.3841301136949822, -1.2336960267193975, 1.6470372973563965, 1.7093144533000775,0.20693846308020927, 0.628360856197003, -0.009609135006311246, -0.7219508862314986, -0.03988565566215996, 0.19860217461990204,1.0,-8731.659356198035, -2830.3187706431363, 21514.645034739802, -76.60831757709354, 220.6950671940299, 37.915651523441426,1.0,769
11492.759,-0.15489927037561024, -1.9963967747935012, -1.3841676556791693, -1.2365166207413054, 1.646881467861529, 1.7100903732652082,0.20693846308020925, 0.6283608561970029, -0.009609135006311246, -0.7219508862314986, -0.03988565566215996, 0.19860217461990204,1.0,-8732.506003687939, -2830.2867326076775, 21514.87346472395, -76.59494521050888, 220.64750840498345, 37.91199903985918,1.0,769
11492.767,-0.1540651671119342, -1.9938640516200579, -1.3842063870524992, -1.2394265756209162, 1.6467207014430176, 1.7108908755959875,0.20693846308020925, 0.6283608561970029, -0.009609135006311246, -0.7219508862314986, -0.039885655662159965, 0.19860217461990204,1.0,-8732.26360220446, -2830.8558813843556, 21515.037192999956, -76.5762807535798, 220.6699860314905, 37.91375733068199,1.0,769
11492.775,-0.15320544964249283, -1.9912535518746521, -1.3842463078149718, -1.242425891358229, 1.6465549981008623, 1.711715960292415,0.20693846308020927, 0.628360856197003, -0.009609135006311246, -0.7219508862314987, -0.039885655662159965, 0.19860217461990207,1.0,-8733.747707021841, -2830.2655252193417, 21515.102674496484, -76.60904978192542, 220.6194503009297, 37.92478906538466,1.0,769
11492.783,-0.15232011796728706, -1.988565275557284, -1.384287417966588, -1.2455145679532436, 1.646384357835063, 1.7125656273544911,0.20693846308020925, 0.628360856197003, -0.009609135006311246, -0.7219508862314986, -0.039885655662159965, 0.19860217461990204,1.0,-8732.454747293214, -2830.555057557104, 21514.94259994434, -76.5994316668795, 220.66425860756198, 37.916827941571654,1.0,769
11492.791,-0.1514091720863151, -1.9857992226679535, -1.384329717507347, -1.2486926054059602, 1.6462087806456198, 1.7134398767822157,0.20693846308020927, 0.628360856197003, -0.009609135006311248, -0.7219508862314987, -0.039885655662159965, 0.19860217461990207,1.0,-8732.148572621785, -2830.0228666221637, 21514.815934885337, -76.60075839511404, 220.66737970144135, 37.91929405734501,1.0,769
11492.798999999999,-0.15047261199957784, -1.9829553932066606, -1.3843732064372496, -1.2519600037163787, 1.6460282665325328, 1.7143387085755883,0.20693846308020922, 0.6283608561970029, -0.009609135006311244, -0.7219508862314986, -0.03988565566215996, 0.19860217461990204,1.0,-8732.349823783581, -2829.932906924071, 21514.799150398096, -76.6024466430159, 220.66810546890008, 37.92241548018231,1.0,769
11492.806999999999,-0.14951043770707528, -1.9800337871734062, -1.384417884756295, -1.2553167628845001, 1.6458428154958018, 1.7152621227346097,0.20693846308020925, 0.6283608561970029, -0.009609135006311246, -0.7219508862314986, -0.03988565566215996, 0.19860217461990204,1.0,-8731.514770781616, -2830.203601649867, 21515.070127863422, -76.61209627211085, 220.7223879612331, 37.92187679680188,1.0,769
11492.814999999999,-0.14852264920880742, -1.9770344045681885, -1.384463752464483, -1.2587628829103235, 1.645652427535427, 1.7162101192592794,0.20693846308020927, 0.628360856197003, -0.009609135006311244, -0.7219508862314986, -0.03988565566215996, 0.19860217461990204,1.0,-8732.420628320286, -2829.829762658731, 21514.58279118377, -76.61952774919504, 220.6448462653703, 37.91397892472344,1.0,769
11492.823,-0.14750924650477426, -1.9739572453910093, -1.3845108095618146, -1.2622983637938487, 1.6454571026514082, 1.7171826981495975,0.20693846308020927, 0.628360856197003, -0.009609135006311246, -0.7219508862314987, -0.039885655662159965, 0.19860217461990207,1.0,-8731.856155156647, -2830.5317685164973, 21514.55624025886, -76.59270862915258, 220.70094570916513, 37.912138099521115,1.0,769
11492.831,-0.1464702295949758, -1.9708023096418676, -1.384559056048289, -1.265923205535076, 1.6452568408437456, 1.718179859405564,0.20693846308020925, 0.6283608561970029, -0.009609135006311246, -0.7219508862314986, -0.039885655662159965, 0.19860217461990204,1.0,-8732.737100518194, -2829.6821196571855, 21514.281557866158, -76.61979948708336, 220.65616504588326, 37.91139559696404,1.0,769
11492.839,-0.14540559847941115, -1.9675695973207636, -1.384608491923907, -1.2696374081340052, 1.6450516421124388, 1.719201603027179,0.20693846308020927, 0.628360856197003, -0.009609135006311246, -0.7219508862314987, -0.039885655662159965, 0.19860217461990204,1.0,-8731.982342859013, -2829.995388623878, 21514.537154737576, -76.61676901210993, 220.66341332868433, 37.914981331033744,1.0,769
11492.847,-0.14431535315808208, -1.9642591084276972, -1.3846591171886686, -1.2734409715906372, 1.6448415064574884, 1.7202479290144423,0.20693846308020925, 0.6283608561970029, -0.009609135006311246, -0.7219508862314986, -0.03988565566215996, 0.19860217461990204,1.0,-8732.067702343951, -2829.5815485986086, 21514.36978235413, -76.6162127567018, 220.65206909966935, 37.90818582616322,1.0,769
11492.855,-0.14319949363098772, -1.9608708429626693, -1.384710931842572, -1.2773338959049703, 1.6446264338788938, 1.721318837367354,0.20693846308020925, 0.6283608561970029, -0.009609135006311244, -0.7219508862314986, -0.03988565566215996, 0.19860217461990204,1.0,-8732.45775931807, -2829.966633868734, 21514.49778305782, -76.62067980931843, 220.6545477938584, 37.91363573358646,1.0,769
11492.863,-0.14205801989812805, -1.9574048009256781, -1.3847639358856192, -1.2813161810770062, 1.6444064243766554, 1.7224143280859143,0.20693846308020922, 0.628360856197003, -0.009609135006311246, -0.7219508862314986, -0.03988565566215996, 0.19860217461990204,1.0,-8732.72518426602, -2830.0564587255967, 21514.97551617709, -76.61260069131916, 220.6503800626906, 37.90563461256778,1.0,769
11492.871,-0.1408909319595022, -1.9538609823167263, -1.38481812931781, -1.285387827106744, 1.644181477950773, 1.7235344011701228,0.20693846308020925, 0.6283608561970029, -0.009609135006311246, -0.7219508862314986, -0.039885655662159965, 0.19860217461990204,1.0,-8731.726152584064, -2829.738717162968, 21515.09183785084, -76.60287381732809, 220.7155009327579, 37.90348258391944,1.0,769
11492.878999999999,-0.13969822981511193, -1.9502393871358104, -1.3848735121391424, -1.2895488339941839, 1.643951594601247, 1.7246790566199799,0.20693846308020922, 0.6283608561970029, -0.009609135006311244, -0.7219508862314986, -0.03988565566215996, 0.19860217461990204,1.0,-8731.764267400109, -2829.7453657383967, 21515.63655989057, -76.60983590497577, 220.6887374590035, 37.89950218413145,1.0,769
11492.886999999999,-0.13847991346495636, -1.9465400153829329, -1.3849300843496195, -1.2937992017393265, 1.643716774328077, 1.7258482944354852,0.20693846308020925, 0.6283608561970029, -0.009609135006311244, -0.7219508862314986, -0.03988565566215996, 0.19860217461990204,1.0,-8732.277976988424, -2830.1857641044408, 21515.18010926923, -76.59212205000821, 220.66553675441332, 37.903860780333304,1.0,769
11492.894999999999,-0.1372359829090346, -1.942762867058093, -1.3849878459492384, -1.298138930342171, 1.6434770171312627, 1.727042114616639,0.20693846308020927, 0.628360856197003, -0.009609135006311246, -0.7219508862314986, -0.039885655662159965, 0.19860217461990204,1.0,-8732.354726848384, -2830.2868931397106, 21514.683706433076, -76.5846212652018, 220.65922536284575, 37.893120217012694,1.0,769
11492.903,-0.13596643814734843, -1.9389079421612916, -1.3850467969380018, -1.3025680198027167, 1.6432323230108048, 1.7282605171634413,0.20693846308020925, 0.6283608561970029, -0.009609135006311244, -0.7219508862314986, -0.03988565566215996, 0.19860217461990204,1.0,-8733.825538004825, -2829.617461154102, 21514.7770384728, -76.61161460117671, 220.58363446411818, 37.905635466564746,1.0,769
11492.911,-0.13467127917989608, -1.934975240692527, -1.385106937315907, -1.3070864701209652, 1.642982691966703, 1.729503502075892,0.20693846308020925, 0.6283608561970029, -0.009609135006311246, -0.7219508862314986, -0.03988565566215996, 0.19860217461990204,1.0,-8732.397499333843, -2829.257480405153, 21514.624261091685, -76.62470331750936, 220.66530294739266, 37.89770192382184,1.0,769
11492.919,-0.1333505060066793, -1.9309647626518007, -1.385168267082956, -1.3116942812969157, 1.6427281239989573, 1.730771069353991,0.20693846308020925, 0.628360856197003, -0.009609135006311246, -0.7219508862314986, -0.03988565566215996, 0.19860217461990204,1.0,-8733.29320130235, -2829.9979333995543, 21514.157655281106, -76.60666358005648, 220.6305167634755, 37.89777701498454,1.0,769
11492.927,-0.13200411862769634, -1.9268765080391121, -1.3852307862391484, -1.316391453330569, 1.6424686191075675, 1.7320632189977385,0.20693846308020925, 0.6283608561970028, -0.009609135006311244, -0.7219508862314986, -0.03988565566215996, 0.198602174619902,1.0,-8732.842625477164, -2829.4537492886484, 21514.506128596655, -76.61169228886268, 220.6428688373892, 37.909846516953166,1.0,769
11492.935,-0.13063211704294808, -1.9227104768544612, -1.3852944947844836, -1.3211779862219233, 1.642204177292534, 1.7333799510071344,0.20693846308020925, 0.6283608561970029, -0.009609135006311246, -0.7219508862314986, -0.03988565566215996, 0.19860217461990207,1.0,-8731.756154763483, -2829.92146107015, 21515.389377338448, -76.61998186839094, 220.6850376915798, 37.904883177888905,1.0,769
11492.943,-0.12923450125243452, -1.9184666690978478, -1.3853593927189616, -1.3260538799709805, 1.6419347985538564, 1.7347212653821786,0.20693846308020925, 0.6283608561970029, -0.009609135006311246, -0.7219508862314986, -0.03988565566215996, 0.19860217461990204,1.0,-8732.50605027737, -2829.2220537466874, 21515.26283958068, -76.62151233891024, 220.66433857092034, 37.904470289627454,1.0,769
11492.951,-0.12781127125615654, -1.914145084769273, -1.3854254800425831, -1.3310191345777387, 1.6416604828915349, 1.7360871621228715,0.20693846308020925, 0.6283608561970029, -0.009609135006311246, -0.7219508862314986, -0.03988565566215996, 0.19860217461990204,1.0,-8732.416955686936, -2830.1637397809145, 21515.15465389251, -76.60429293335815, 220.66119195647627, 37.906919590432466,1.0,769
11492.958999999999,-0.12636242705411238, -1.9097457238687348, -1.3854927567553474, -1.3360737500421997, 1.6413812303055697, 1.7374776412292126,0.20693846308020925, 0.6283608561970029, -0.009609135006311244, -0.7219508862314986, -0.03988565566215996, 0.19860217461990204,1.0,-8732.36310968974, -2829.831532178114, 21514.871357814805, -76.60948651006217, 220.65582169869015, 37.89814029540614,1.0,769
11492.966999999999,-0.12488796864630292, -1.905268586396235, -1.3855612228572545, -1.3412177263643636, 1.6410970407959604, 1.738892702701202,0.20693846308020925, 0.628360856197003, -0.009609135006311244, -0.7219508862314987, -0.039885655662159965, 0.19860217461990204,1.0,-8733.349084987522, -2829.9856932639987, 21514.85250051273, -76.6143170318563, 220.61287102159514, 37.910513334898894,1.0,769
11492.975,-0.12338789603272815, -1.900713672351773, -1.3856308783483051, -1.3464510635442286, 1.6408079143627072, 1.74033234653884,0.20693846308020922, 0.6283608561970029, -0.009609135006311246, -0.7219508862314986, -0.03988565566215996, 0.198602174619902,1.0,-8732.893255491563, -2830.2361505553336, 21514.50396278694, -76.62235931696111, 220.63195821664783, 37.90580101871717,1.0,769
11492.983,-0.12186220921338808, -1.8960809817353486, -1.3857017232284985, -1.3517737615817964, 1.6405138510058102, 1.7417965727421265,0.20693846308020925, 0.6283608561970029, -0.009609135006311244, -0.7219508862314985, -0.03988565566215996, 0.198602174619902,1.0,-8732.526590044454, -2830.708860740583, 21514.729813422768, -76.58332020960606, 220.65036657114564, 37.903284774065526,1.0,769
11492.991,-0.12031090818828272, -1.8913705145469617, -1.3857737574978355, -1.3571858204770653, 1.640214850725269, 1.7432853813110611,0.20693846308020925, 0.628360856197003, -0.009609135006311244, -0.7219508862314986, -0.03988565566215996, 0.19860217461990204,1.0,-8732.882902942743, -2830.1722159831215, 21514.777069877393, -76.61513492436052, 220.6235231523765, 37.9006609718528,1.0,769
11492.999,-0.11873399295741205, -1.8865822707866133, -1.385846981156316, -1.3626872402300378, 1.639910913521084, 1.7447987722456444,0.20693846308020925, 0.6283608561970029, -0.009609135006311246, -0.7219508862314986, -0.039885655662159965, 0.19860217461990204,1.0,-8732.172092322447, -2829.4264942714544, 21514.544896188814, -76.6337217412082, 220.65176785861178, 37.901146487752044,1.0,769
11493.007,-0.11713146352077608, -1.8817162504543017, -1.3859213942039386, -1.3682780208407115, 1.6396020393932553, 1.746336745545876,0.20693846308020925, 0.628360856197003, -0.009609135006311244, -0.7219508862314987, -0.03988565566215996, 0.19860217461990204,1.0,-8733.000851145858, -2829.4146644629072, 21514.51828722168, -76.61705136259027, 220.61195841655126, 37.903323723586055,1.0,769
11493.015,-0.11550331987837481, -1.8767724535500285, -1.3859969966407046, -1.373958162309087, 1.6392882283417824, 1.747899301211756,0.20693846308020925, 0.628360856197003, -0.009609135006311244, -0.7219508862314986, -0.039885655662159965, 0.19860217461990204,1.0,-8732.902461234453, -2830.4122175853145, 21514.59655400924, -76.594217262943, 220.60116331529264, 37.89224729459761,1.0,769
11493.023,-0.11384956203020824, -1.871750880073792, -1.3860737884666143, -1.3797276646351655, 1.638969480366666, 1.7494864392432845,0.20693846308020925, 0.628360856197003, -0.009609135006311246, -0.7219508862314986, -0.03988565566215996, 0.19860217461990204,1.0,-8732.262198186638, -2829.0102306767003, 21514.29820614359, -76.6395969251763, 220.6505970448659, 37.89860073416585,1.0,769
11493.030999999999,-0.11217018997627548, -1.8666515300255941, -1.3861517696816659, -1.385586527818945, 1.6386457954679052, 1.7510981596404613,0.20693846308020927, 0.6283608561970029, -0.009609135006311246, -0.7219508862314987, -0.039885655662159965, 0.19860217461990207,1.0,-8731.809275404568, -2829.2907569959725, 21514.50388362161, -76.6346348198179, 220.656140685203, 37.89695265817235,1.0,769
11493.038999999999,-0.11046520371657831, -1.8614744034054347, -1.386230940285862, -1.3915347518604273, 1.6383171736455007, 1.7527344624032866,0.20693846308020927, 0.6283608561970029, -0.009609135006311246, -0.7219508862314987, -0.03988565566215996, 0.19860217461990204,1.0,-8733.893025547079, -2829.861718600475, 21514.636907738357, -76.61072601657821, 220.59276898968943, 37.89912523165117,1.0,769
11493.046999999999,-0.10873460325111584, -1.856219500213312, -1.3863113002792007, -1.3975723367596116, 1.6379836148994524, 1.7543953475317602,0.20693846308020925, 0.628360856197003, -0.009609135006311246, -0.7219508862314986, -0.039885655662159965, 0.19860217461990204,1.0,-8733.17960382866, -2830.080213273697, 21514.849767241136, -76.59867762728416, 220.6221591864795, 37.89791828058031,1.0,769
11493.055,-0.10697838857988717, -1.8508868204492268, -1.3863928496616822, -1.4036992825164978, 1.63764511922976, 1.7560808150258824,0.20693846308020927, 0.628360856197003, -0.009609135006311246, -0.7219508862314987, -0.039885655662159965, 0.19860217461990207,1.0,-8733.952915896698, -2828.424335654089, 21514.855061334507, -76.65362046553457, 220.60311615445164, 37.90358299528552,1.0,769
11493.063,-0.1051965597028941, -1.8454763641131802, -1.3864755884333064, -1.4099155891310868, 1.6373016866364238, 1.7577908648856528,0.20693846308020927, 0.628360856197003, -0.009609135006311246, -0.7219508862314987, -0.039885655662159965, 0.19860217461990207,1.0,-8731.82240244352, -2829.043440703189, 21514.97100952685, -76.62667104907706, 220.6802595614658, 37.87946376899535,1.0,769
11493.071,-0.10338911662013572, -1.8399881312051711, -1.3865595165940743, -1.416221256603377, 1.6369533171194437, 1.7595254971110716,0.20693846308020927, 0.628360856197003, -0.009609135006311246, -0.7219508862314987, -0.039885655662159965, 0.19860217461990207,1.0,-8732.638860992489, -2829.1158855227914, 21514.68281942343, -76.62746592917088, 220.6387557980039, 37.88690053614235,1.0,769
11493.079,-0.10155605933161116, -1.8344221217251997, -1.3866446341439858, -1.42261628493337, 1.6366000106788194, 1.761284711702139,0.20693846308020925, 0.6283608561970029, -0.009609135006311246, -0.7219508862314986, -0.03988565566215996, 0.19860217461990204,1.0,-8732.829245584971, -2829.8955454932166, 21514.131585279174, -76.59279110102298, 220.64915460764473, 37.89002981153786,1.0,769
11493.087,-0.09969738783732218, -1.8287783356732659, -1.38673094108304, -1.4291006741210648, 1.6362417673145515, 1.763068508658855,0.20693846308020922, 0.6283608561970029, -0.009609135006311244, -0.7219508862314986, -0.03988565566215996, 0.19860217461990204,1.0,-8734.193094756785, -2829.2156826806267, 21514.33763742957, -76.63735958368258, 220.59681853090342, 37.90485606870098,1.0,769
11493.095,-0.09781310213726702, -1.8230567730493696, -1.386818437411237, -1.4356744241664616, 1.6358785870266397, 1.764876887981219,0.20693846308020927, 0.6283608561970031, -0.009609135006311246, -0.7219508862314987, -0.039885655662159965, 0.1986021746199021,1.0,-8733.84652413215, -2829.2331757933152, 21514.23993819545, -76.6211692573415, 220.57886016885925, 37.87842291768254,1.0,769
11493.103,-0.09590320223144655, -1.817257433853511, -1.3869071231285774, -1.4423375350695604, 1.6355104698150837, 1.7667098496692315,0.20693846308020925, 0.6283608561970029, -0.009609135006311246, -0.7219508862314986, -0.03988565566215996, 0.19860217461990204,1.0,-8732.613824501763, -2829.0910846308634, 21514.604682250472, -76.62902515346104, 220.65496133598856, 37.89269567353398,1.0,769
11493.110999999999,-0.09396768811986167, -1.8113803180856909, -1.3869969982350607, -1.449090006830362, 1.6351374156798841, 1.7685673937228925,0.20693846308020925, 0.6283608561970029, -0.009609135006311246, -0.7219508862314986, -0.03988565566215996, 0.19860217461990204,1.0,-8732.308226228308, -2829.0832402622445, 21514.682970510643, -76.64771746153241, 220.6480664455412, 37.89170509307962,1.0,769
11493.118999999999,-0.0920065598025106, -1.8054254257459084, -1.3870880627306867, -1.4559318394488656, 1.6347594246210404, 1.770449520142202,0.20693846308020925, 0.6283608561970029, -0.009609135006311246, -0.7219508862314986, -0.03988565566215996, 0.19860217461990207,1.0,-8733.655580148574, -2829.4213346481574, 21514.198040237694, -76.6297368778234, 220.59955588960554, 37.89874297456217,1.0,769
11493.126999999999,-0.09001981727939423, -1.7993927568341634, -1.3871803166154564, -1.4628630329250711, 1.6343764966385528, 1.7723562289271597,0.20693846308020925, 0.6283608561970029, -0.009609135006311246, -0.7219508862314987, -0.039885655662159965, 0.19860217461990204,1.0,-8733.784083198045, -2829.9790009271455, 21514.16314067531, -76.5934778386511, 220.61349828863484, 37.88149798667101,1.0,769
11493.135,-0.08800746055051256, -1.7932823113504561, -1.3872737598893696, -1.4698835872589786, 1.6339886317324215, 1.774287520077766,0.20693846308020925, 0.628360856197003, -0.009609135006311246, -0.7219508862314986, -0.03988565566215996, 0.19860217461990204,1.0,-8733.911110088771, -2828.9171460328944, 21514.397704044368, -76.63322588988069, 220.59519494290646, 37.89187131567812,1.0,769
11493.143,-0.08596948961586648, -1.7870940892947864, -1.3873683925524256, -1.476993502450588, 1.633595829902646, 1.7762433935940205,0.20693846308020925, 0.628360856197003, -0.009609135006311246, -0.7219508862314986, -0.039885655662159965, 0.19860217461990207,1.0,-8732.400097261101, -2828.749073760977, 21515.11015326518, -76.65048033016214, 220.65021014150722, 37.89277924312327,1.0,769
11493.151,-0.08390590447545421, -1.7808280906671552, -1.3874642146046243, -1.4841927784998994, 1.6331980911492268, 1.7782238494759237,0.20693846308020927, 0.628360856197003, -0.009609135006311246, -0.7219508862314987, -0.03988565566215996, 0.19860217461990207,1.0,-8732.794976321204, -2829.525152206812, 21514.873491744707, -76.62289106913593, 220.6126740289813, 37.89267322183926,1.0,769
11493.159,-0.08181670512927663, -1.7744843154675607, -1.3875612260459658, -1.4914814154069136, 1.6327954154721633, 1.780228887723475,0.20693846308020922, 0.6283608561970029, -0.009609135006311244, -0.7219508862314985, -0.03988565566215996, 0.19860217461990204,1.0,-8733.705603011837, -2828.8591016615746, 21513.80169255355, -76.63514573467322, 220.58432787084791, 37.887185021281766,1.0,769
11493.167,-0.07970189157733376, -1.7680627636960047, -1.3876594268764517, -1.4988594131716297, 1.6323878028714562, 1.7822585083366749,0.20693846308020925, 0.6283608561970029, -0.009609135006311244, -0.7219508862314985, -0.03988565566215996, 0.19860217461990204,1.0,-8735.085885403509, -2829.306985211959, 21513.74143738963, -76.61593618262165, 220.5120176553964, 37.88607740047826,1.0,769
11493.175,-0.07756146381962559, -1.7615634353524854, -1.3877588170960795, -1.5063267717940478, 1.6319752533471052, 1.7843127113155233,0.20693846308020925, 0.6283608561970029, -0.009609135006311244, -0.7219508862314986, -0.03988565566215996, 0.198602174619902,1.0,-8732.383400661205, -2829.8214598251816, 21514.23489182518, -76.5935832464186, 220.65290340910047, 37.873146210995515,1.0,769
11493.182999999999,-0.07539542185615211, -1.7549863304370055, -1.387859396704851, -1.5138834912741679, 1.6315577668991104, 1.7863914966600198,0.20693846308020922, 0.6283608561970029, -0.009609135006311244, -0.7219508862314986, -0.03988565566215996, 0.19860217461990204,1.0,-8732.594792455164, -2828.2795646844343, 21515.343818065656, -76.6442910198916, 220.63534974810176, 37.87337416112527,1.0,769
11493.190999999999,-0.07320376568691245, -1.7483314489495623, -1.387961165702766, -1.5215295716119899, 1.6311353435274714, 1.788494864370165,0.20693846308020925, 0.6283608561970029, -0.009609135006311246, -0.7219508862314986, -0.03988565566215996, 0.19860217461990204,1.0,-8732.69340062807, -2828.8030262196553, 21514.137934693736, -76.64763919067065, 220.64711253653587, 37.88488501762677,1.0,769
11493.198999999999,-0.07098649531190837, -1.7415987908901567, -1.3880641240898228, -1.5292650128075147, 1.6307079832321887, 1.7906228144459586,0.20693846308020925, 0.6283608561970029, -0.009609135006311246, -0.7219508862314986, -0.03988565566215996, 0.198602174619902,1.0,-8735.174757779614, -2829.160582426849, 21513.351003620202, -76.63846137577451, 220.5133028712762, 37.889451976032746,1.0,769
11493.207,-0.068743610731139, -1.7347883562587896, -1.3881682718660233, -1.5370898148607406, 1.630275686013262, 1.7927753468874006,0.20693846308020922, 0.6283608561970029, -0.009609135006311246, -0.7219508862314986, -0.03988565566215996, 0.19860217461990204,1.0,-8733.205000293552, -2829.7485849564027, 21513.99859355588, -76.60709849794196, 220.6357270255836, 37.86965279738595,1.0,769
11493.215,-0.06647511194460431, -1.7279001450554592, -1.3882736090313674, -1.5450039777716693, 1.6298384518706912, 1.794952461694491,0.20693846308020922, 0.6283608561970029, -0.009609135006311244, -0.7219508862314985, -0.03988565566215995, 0.198602174619902,1.0,-8733.131134933274, -2828.749461960282, 21515.1364763732, -76.63926063389175, 220.6133046832233, 37.887669382765836,1.0,769
11493.223,-0.06418099895230345, -1.7209341572801673, -1.3883801355858543, -1.5530075015403, 1.6293962808044766, 1.7971541588672297,0.20693846308020925, 0.628360856197003, -0.009609135006311246, -0.7219508862314986, -0.039885655662159965, 0.19860217461990207,1.0,-8732.802086287244, -2829.0564446685394, 21514.884994524586, -76.62579433392182, 220.64168769979523, 37.86899841916923,1.0,769
11493.231,-0.06186127175423817, -1.713890392932913, -1.3884878515294847, -1.5611003861666326, 1.6289491728146182, 1.799380438405617,0.20693846308020927, 0.628360856197003, -0.009609135006311246, -0.7219508862314987, -0.03988565566215996, 0.19860217461990207,1.0,-8734.878484708046, -2828.2433225076375, 21513.693859422045, -76.65908138964548, 220.52382416997256, 37.872081162243205,1.0,769
11493.239,-0.059515930350407587, -1.7067688520136972, -1.388596756862258, -1.569282631650668, 1.6284971279011158, 1.8016313003096525,0.20693846308020922, 0.6283608561970029, -0.009609135006311244, -0.7219508862314986, -0.03988565566215996, 0.198602174619902,1.0,-8733.221987327412, -2829.704553301567, 21513.748646178377, -76.61551841116798, 220.60720219880653, 37.88712671849177,1.0,769
11493.247,-0.05714497474081082, -1.6995695345225181, -1.3887068515841738, -1.5775542379924055, 1.6280401460639695, 1.8039067445793364,0.20693846308020925, 0.628360856197003, -0.009609135006311246, -0.7219508862314987, -0.03988565566215996, 0.19860217461990207,1.0,-8733.61544049769, -2829.214559471525, 21514.633685274443, -76.6172257626169, 220.59440423568543, 37.873601889828876,1.0,769
11493.255,-0.05474966836654538, -1.6922962768507226, -1.3888180770276666, -1.5859107973963802, 1.6275784708208694, 1.8062055586699082,0.20693846308020927, 0.628360856197003, -0.009609135006311246, -0.7219508862314986, -0.039885655662159965, 0.19860217461990207,1.0,-8731.870831399794, -2828.457107436834, 21514.541045386988, -76.6702310228136, 220.64447284141636, 37.88101662270171,1.0,769
11493.262999999999,-0.05234833657604465, -1.6850047232292615, -1.3889295822598324, -1.5942883778059525, 1.6271156342292523, 1.808510155449447,0.20693846308020927, 0.628360856197003, -0.009609135006311246, -0.7219508862314986, -0.039885655662159965, 0.19860217461990207,1.0,-8733.825883119927, -2827.9796338850456, 21513.262682376408, -76.67139420380721, 220.57708898996458, 37.889810193714226,1.0,769
11493.270999999999,-0.049947004785543925, -1.6777131696078005, -1.3890410874919983, -1.6026659582155256, 1.6266527976376353, 1.8108147522289857,0.20693846308020927, 0.628360856197003, -0.009609135006311246, -0.7219508862314986, -0.039885655662159965, 0.19860217461990207,1.0,-8732.561301154146, -2827.2885118195445, 21513.040184035224, -76.68921999746559, 220.6197954576608, 37.87116529277236,1.0,769
11493.278999999999,-0.0475456729950432, -1.6704216159863385, -1.389152592724165, -1.6110435386250987, 1.6261899610460182, 1.8131193490085245,0.20693846308020927, 0.628360856197003, -0.009609135006311246, -0.7219508862314986, -0.039885655662159965, 0.19860217461990207,1.0,-8732.382299538187, -2829.1292579615265, 21513.39532441057, -76.62758896186762, 220.622497264042, 37.869846473373684,1.0,769
11493.287,-0.04515344365812446, -1.6631577016226604, -1.3892636752862098, -1.6193893630994403, 1.6257288788760969, 1.815415210016816,0.20693846308020933, 0.628360856197003, -0.009609135006311246, -0.7219508862314986, -0.03988565566215996, 0.1986021746199021,1.0,-8732.318473453206, -2829.12090722629, 21513.13130726526, -76.62394155648852, 220.6527656391179, 37.87414050837401,1.0,769
11493.295,-0.04278651304927816, -1.6559706058948027, -1.389373583108238, -1.6276469273302254, 1.6252726728241358, 1.817686791428479,0.2069384630802093, 0.628360856197003, -0.009609135006311246, -0.7219508862314986, -0.03988565566215996, 0.19860217461990207,1.0,-8732.699087858935, -2826.448537298191, 21511.86105716571, -76.71175712638353, 220.6224651943889, 37.86966211782121,1.0,769
11493.303,-0.040445196646198056, -1.6488612867389074, -1.3894823015411228, -1.6358151307033069, 1.624821403695819, 1.8199337904744939,0.20693846308020933, 0.628360856197003, -0.009609135006311246, -0.7219508862314986, -0.03988565566215996, 0.19860217461990207,1.0,-8730.490909772552, -2828.353190283864, 21512.387789838962, -76.66581117057893, 220.7136825858134, 37.86959278589492,1.0,769
11493.311,-0.03812949444888325, -1.6418297441549736, -1.389589830584864, -1.6438939732186881, 1.6243750714911462, 1.8221562071548605,0.2069384630802093, 0.6283608561970029, -0.009609135006311244, -0.7219508862314986, -0.03988565566215995, 0.198602174619902,1.0,-8732.998107045478, -2828.7730123185947, 21512.49246085381, -76.66155566802163, 220.61240888247409, 37.86911921085522,1.0,769
11493.319,-0.035839406457333745, -1.6348759781430031, -1.3896961702394623, -1.6518834548763657, 1.623933676210117, 1.8243540414695785,0.2069384630802093, 0.6283608561970029, -0.009609135006311246, -0.7219508862314985, -0.03988565566215995, 0.19860217461990207,1.0,-8732.358728304785, -2829.0641998351775, 21512.092088453177, -76.63857073116321, 220.6443835831799, 37.84613258552346,1.0,769
11493.327,-0.03357493267154865, -1.6279999887029941, -1.389801320504919, -1.6597835756763413, 1.623497217852732, 1.826527293418648,0.20693846308020933, 0.628360856197003, -0.009609135006311246, -0.7219508862314985, -0.03988565566215996, 0.19860217461990207,1.0,-8731.396347322532, -2828.24401709674, 21512.216969544133, -76.65781587100227, 220.69051119635174, 37.86381297705563,1.0,769
11493.335,-0.03133607309152975, -1.6212017758349484, -1.389905281381231, -1.6675943356186158, 1.623065696418991, 1.8286759630020692,0.2069384630802093, 0.6283608561970029, -0.009609135006311244, -0.7219508862314986, -0.03988565566215996, 0.19860217461990204,1.0,-8730.529912210843, -2827.6330128581367, 21512.885966594822, -76.6779376708534, 220.73898944324617, 37.8699562404079,1.0,769
11493.342999999999,-0.029122827717276145, -1.6144813395388642, -1.3900080528684002, -1.6753157347031875, 1.6226391119088936, 1.830800050219842,0.2069384630802093, 0.628360856197003, -0.009609135006311244, -0.7219508862314986, -0.03988565566215995, 0.19860217461990204,1.0,-8732.43533119357, -2828.7172082573134, 21512.454394521403, -76.66324963506145, 220.63717088545133, 37.868492354194984,1.0,769
11493.350999999999,-0.026935196548787843, -1.6078386798147424, -1.3901096349664268, -1.6829477729300564, 1.6222174643224403, 1.8328995550719664,0.20693846308020933, 0.6283608561970029, -0.009609135006311246, -0.7219508862314986, -0.03988565566215995, 0.19860217461990207,1.0,-8732.822114984041, -2830.756633320537, 21512.222169660752, -76.60164036397839, 220.63424229657193, 37.85965529124857,1.0,769
11493.359,-0.024773179586064842, -1.601273796662582, -1.3902100276753098, -1.6904904502992242, 1.6218007536596308, 1.8349744775584425,0.2069384630802093, 0.6283608561970029, -0.009609135006311244, -0.7219508862314986, -0.03988565566215996, 0.19860217461990204,1.0,-8731.808824949245, -2828.381076118336, 21512.627051204938, -76.67500288898441, 220.641739698298, 37.866139809870816,1.0,769
11493.367,-0.02263677682910714, -1.594786690082385, -1.39030923099505, -1.69794376681069, 1.6213889799204655, 1.83702481767927,0.2069384630802093, 0.628360856197003, -0.009609135006311246, -0.7219508862314985, -0.03988565566215995, 0.19860217461990204,1.0,-8730.009049291179, -2827.882578078119, 21513.89067501515, -76.68738297001829, 220.73304192274787, 37.87968770301856,1.0,769
11493.375,-0.020525988277914742, -1.5883773600741495, -1.3904072449256466, -1.705307722464453, 1.6209821431049438, 1.8390505754344493,0.20693846308020933, 0.628360856197003, -0.009609135006311246, -0.7219508862314986, -0.03988565566215996, 0.1986021746199021,1.0,-8731.993885165133, -2827.963296931228, 21512.920101167205, -76.6953330834574, 220.6512863231215, 37.87849723637868,1.0,769
11493.383,-0.018440813932487643, -1.5820458066378773, -1.3905040694671005, -1.7125823172605141, 1.620580243213066, 1.8410517508239799,0.20693846308020933, 0.6283608561970031, -0.009609135006311244, -0.7219508862314986, -0.03988565566215995, 0.19860217461990207,1.0,-8732.60684062691, -2828.5953034453423, 21511.867367986437, -76.67741345196052, 220.61371303948016, 37.86075262399771,1.0,769
11493.391,-0.016381253792826733, -1.5757920297735666, -1.3905997046194116, -1.7197675511988733, 1.6201832802448324, 1.8430283438478623,0.20693846308020933, 0.6283608561970029, -0.009609135006311244, -0.7219508862314985, -0.03988565566215995, 0.19860217461990204,1.0,-8733.435698834797, -2829.19872495026, 21512.17263186578, -76.6600520296193, 220.56894753405936, 37.866414769466985,1.0,769
11493.399,-0.014347307858930236, -1.5696160294812183, -1.3906941503825792, -1.7268634242795304, 1.6197912542002426, 1.844980354506096,0.20693846308020927, 0.6283608561970029, -0.009609135006311244, -0.7219508862314985, -0.03988565566215995, 0.19860217461990207,1.0,-8730.001198711894, -2828.2663901016667, 21513.255808437265, -76.68351109477098, 220.72491695063417, 37.86768189137891,1.0,769
11493.407,-0.01233897613079904, -1.5635178057608323, -1.390787406756603, -1.7338699365024848, 1.6194041650792965, 1.8469077827986815,0.20693846308020933, 0.6283608561970029, -0.009609135006311244, -0.7219508862314987, -0.03988565566215995, 0.19860217461990207,1.0,-8731.468291813477, -2828.095235376557, 21513.674338986617, -76.70306322782528, 220.67090021210623, 37.86285282883054,1.0,769
11493.414999999999,-0.010356258608433144, -1.5574973586124088, -1.3908794737414851, -1.7407870878677372, 1.6190220128819945, 1.8488106287256185,0.2069384630802093, 0.628360856197003, -0.009609135006311246, -0.7219508862314985, -0.03988565566215995, 0.19860217461990207,1.0,-8732.080735411679, -2829.5994709554134, 21511.919642583067, -76.64309288149681, 220.64913900792283, 37.851742951998176,1.0,769
11493.422999999999,-0.008399155291833438, -1.5515546880359468, -1.3909703513372236, -1.7476148783752885, 1.6186447976083365, 1.8506888922869074,0.20693846308020933, 0.6283608561970029, -0.009609135006311244, -0.7219508862314986, -0.03988565566215996, 0.19860217461990204,1.0,-8733.953166837291, -2829.377001314523, 21511.970799151528, -76.64446623159594, 220.55252759588666, 37.86059452545811,1.0,769
11493.430999999999,-0.006467666180998144, -1.545689794031448, -1.3910600395438184, -1.754353308025137, 1.6182725192583223, 1.8525425734825474,0.20693846308020933, 0.628360856197003, -0.009609135006311246, -0.7219508862314986, -0.03988565566215996, 0.19860217461990207,1.0,-8731.1184402715, -2828.954882899173, 21512.6958271784, -76.66535365544172, 220.6886566522815, 37.86454906927477,1.0,769
11493.439,-0.004561791275929039, -1.5399026765989108, -1.3911485383612705, -1.7610023768172836, 1.617905177831952, 1.8543716723125392,0.2069384630802093, 0.6283608561970029, -0.009609135006311246, -0.7219508862314986, -0.03988565566215995, 0.19860217461990207,1.0,-8731.129044578729, -2828.428272782083, 21514.11194621082, -76.68883267699877, 220.69976476942333, 37.853221400835764,1.0,769
11493.447,-0.002681530576624347, -1.534193335738335, -1.3912358477895799, -1.7675620847517273, 1.6175427733292256, 1.8561761887768826,0.20693846308020933, 0.6283608561970029, -0.009609135006311244, -0.7219508862314986, -0.039885655662159944, 0.19860217461990204,1.0,-8731.600921042898, -2829.3588788943707, 21513.298189706446, -76.64523012638273, 220.6707036178194, 37.85646936501354,1.0,769
11493.455,-0.0008268840830858437, -1.5285617714497235, -1.3913219678287456, -1.77403243182847, 1.617185305750143, 1.8579561228755777,0.20693846308020936, 0.628360856197003, -0.009609135006311246, -0.7219508862314986, -0.03988565566215996, 0.19860217461990204,1.0,-8732.662425614079, -2828.3016294816316, 21512.353742243555, -76.66495222482456, 220.61238925315416, 37.857569884148035,1.0,769
11493.463,0.0010021482046880525, -1.5230079837330726, -1.3914068984787686, -1.7804134180475106, 1.6168327750947047, 1.8597114746086243,0.20693846308020936, 0.628360856197003, -0.009609135006311246, -0.7219508862314986, -0.03988565566215996, 0.1986021746199021,1.0,-8732.494161471011, -2828.0110360436656, 21512.16379429505, -76.69213775183053, 220.62472622485217, 37.864771302822135,1.0,769
